P3
# Derived from assets/Planets/sprites/BEAKIMPACT_INGAME_PLANETS_1/BEAKIMPACT_INGAME_PLANETS_1_01.png
# Interior-biased projection to keep sprite edges away from sphere poles and front meridian.
256 128
255
130 151 157  130 151 157  130 151 157  130 151 157  130 151 157  130 151 157  130 151 157  130 151 157  130 151 157  130 151 157  130 151 157  130 151 157  130 151 157  130 151 157  130 151 157  130 151 157  130 151 157  130 151 157  130 151 157  130 151 157  130 151 157  130 151 157  130 151 157  130 151 157  130 151 157  130 151 157  130 151 157  130 151 157  130 151 157  130 151 157  130 151 157  130 151 157  130 151 157  130 151 157  130 151 157  130 151 157  130 151 157  130 151 157  130 151 157  130 151 157  130 151 157  130 151 157  130 151 157  130 151 157  130 151 157  130 151 157  130 151 157  130 151 157  130 151 157  130 151 157  130 151 157  130 151 157  130 151 157  130 151 157  130 151 157  130 151 157  130 151 157  130 151 157  130 151 157  130 151 157  130 151 157  130 151 157  130 151 157  130 151 157  130 151 157  130 151 157  130 151 157  130 151 157  130 151 157  130 151 157  130 151 157  130 151 157  130 151 157  130 151 157  130 151 157  130 151 157  130 151 157  130 151 157  130 151 157  130 151 157  130 151 157  130 151 157  130 151 157  130 151 157  130 151 157  130 151 157  130 151 157  130 151 157  130 151 157  130 151 157  130 151 157  130 151 157  130 151 157  130 151 157  130 151 157  130 151 157  130 151 157  130 151 157  130 151 157  130 151 157  130 151 157  130 151 157  130 151 157  130 151 157  130 151 157  130 151 157  130 151 157  130 151 157  130 151 157  130 151 157  130 151 157  130 151 157  130 151 157  130 151 157  130 151 157  130 151 157  130 151 157  130 151 157  130 151 157  130 151 157  130 151 157  130 151 157  130 151 157  130 151 157  130 151 157  130 151 157  130 151 157  130 151 157  130 151 157  130 151 157  130 151 157  130 151 157  130 151 157  130 151 157  130 151 157  130 151 157  130 151 157  130 151 157  130 151 157  130 151 157  130 151 157  130 151 157  130 151 157  130 151 157  130 151 157  130 151 157  130 151 157  130 151 157  130 151 157  130 151 157  130 151 157  130 151 157  130 151 157  130 151 157  130 151 157  130 151 157  130 151 157  130 151 157  130 151 157  130 151 157  130 151 157  130 151 157  130 151 157  130 151 157  130 151 157  130 151 157  130 151 157  130 151 157  130 151 157  130 151 157  130 151 157  130 151 157  130 151 157  130 151 157  130 151 157  130 151 157  130 151 157  130 151 157  130 151 157  130 151 157  130 151 157  130 151 157  130 151 157  130 151 157  130 151 157  130 151 157  130 151 157  130 151 157  130 151 157  130 151 157  130 151 157  130 151 157  130 151 157  130 151 157  130 151 157  130 151 157  130 151 157  130 151 157  130 151 157  130 151 157  130 151 157  130 151 157  130 151 157  130 151 157  130 151 157  130 151 157  130 151 157  130 151 157  130 151 157  130 151 157  130 151 157  130 151 157  130 151 157  130 151 157  130 151 157  130 151 157  130 151 157  130 151 157  130 151 157  130 151 157  130 151 157  130 151 157  130 151 157  130 151 157  130 151 157  130 151 157  130 151 157  130 151 157  130 151 157  130 151 157  130 151 157  130 151 157  130 151 157  130 151 157  130 151 157  130 151 157  130 151 157  130 151 157  130 151 157  130 151 157  130 151 157  130 151 157  130 151 157  130 151 157  130 151 157  130 151 157  130 151 157  130 151 157  130 151 157  130 151 157  130 151 157  130 151 157  130 151 157  130 151 157  130 151 157  130 151 157
130 151 157  130 151 157  130 151 157  130 151 157  130 151 157  130 151 157  130 151 157  130 151 157  130 151 157  130 151 157  130 151 157  130 151 157  130 151 157  130 151 157  130 151 157  130 151 157  130 151 157  130 151 157  130 151 157  130 151 157  130 151 157  130 151 157  130 151 157  130 151 157  130 151 157  130 151 157  130 151 157  130 151 157  130 151 157  130 151 157  130 151 157  130 151 157  130 151 157  130 151 157  130 151 157  130 151 157  130 151 157  130 151 157  130 151 157  130 151 157  130 151 157  130 151 157  130 151 157  130 151 157  130 151 157  130 151 157  130 151 157  130 151 157  130 151 157  130 151 157  130 151 157  130 151 157  130 151 157  130 151 157  130 151 157  130 151 157  130 151 157  130 151 157  130 151 157  130 151 157  130 151 157  130 151 157  130 151 157  130 151 157  130 151 157  130 151 157  130 151 157  130 151 157  130 151 157  130 151 157  130 151 157  130 151 157  130 151 157  130 151 157  130 151 157  130 151 157  130 151 157  130 151 157  130 151 157  130 151 157  130 151 157  130 151 157  130 151 157  130 151 157  130 151 157  130 151 157  130 151 157  130 151 157  130 151 157  130 151 157  130 151 157  130 151 157  130 151 157  130 151 157  130 151 157  130 151 157  130 151 157  130 151 157  130 151 157  130 151 157  130 151 157  130 151 157  130 151 157  130 151 157  130 151 157  130 151 157  130 151 157  130 151 157  130 151 157  130 151 157  130 151 157  130 151 157  130 151 157  130 151 157  130 151 157  130 151 157  130 151 157  130 151 157  130 151 157  130 151 157  130 151 157  130 151 157  130 151 157  130 151 157  130 151 157  130 151 157  130 151 157  130 151 157  130 151 157  130 151 157  130 151 157  130 151 157  130 151 157  130 151 157  130 151 157  130 151 157  130 151 157  130 151 157  130 151 157  130 151 157  130 151 157  130 151 157  130 151 157  130 151 157  130 151 157  130 151 157  130 151 157  130 151 157  130 151 157  130 151 157  130 151 157  130 151 157  130 151 157  130 151 157  130 151 157  130 151 157  130 151 157  130 151 157  130 151 157  130 151 157  130 151 157  130 151 157  130 151 157  130 151 157  130 151 157  130 151 157  130 151 157  130 151 157  130 151 157  130 151 157  130 151 157  130 151 157  130 151 157  130 151 157  130 151 157  130 151 157  130 151 157  130 151 157  130 151 157  130 151 157  130 151 157  130 151 157  130 151 157  130 151 157  130 151 157  130 151 157  130 151 157  130 151 157  130 151 157  130 151 157  130 151 157  130 151 157  130 151 157  130 151 157  130 151 157  130 151 157  130 151 157  130 151 157  130 151 157  130 151 157  130 151 157  130 151 157  130 151 157  130 151 157  130 151 157  130 151 157  130 151 157  130 151 157  130 151 157  130 151 157  130 151 157  130 151 157  130 151 157  130 151 157  130 151 157  130 151 157  130 151 157  130 151 157  130 151 157  130 151 157  130 151 157  130 151 157  130 151 157  130 151 157  130 151 157  130 151 157  130 151 157  130 151 157  130 151 157  130 151 157  130 151 157  130 151 157  130 151 157  130 151 157  130 151 157  130 151 157  130 151 157  130 151 157  130 151 157  130 151 157  130 151 157  130 151 157  130 151 157  130 151 157  130 151 157  130 151 157  130 151 157  130 151 157  130 151 157  130 151 157  130 151 157  130 151 157  130 151 157  130 151 157  130 151 157  130 151 157
130 151 157  130 151 157  130 151 157  130 151 157  130 151 157  130 151 157  130 151 157  130 151 157  130 151 157  130 151 157  130 151 157  130 151 157  130 151 157  130 151 157  130 151 157  130 151 157  130 151 157  130 151 157  130 151 157  130 151 157  130 151 157  130 151 157  130 151 157  130 151 157  130 151 157  130 151 157  130 151 157  130 151 157  130 151 157  130 151 157  130 151 157  130 151 157  130 151 157  130 151 157  130 151 157  130 151 157  130 151 157  130 151 157  130 151 157  130 151 157  130 151 157  130 151 157  130 151 157  130 151 157  130 151 157  130 151 157  130 151 157  130 151 157  130 151 157  130 151 157  130 151 157  130 151 157  130 151 157  130 151 157  130 151 157  130 151 157  130 151 157  130 151 157  130 151 157  130 151 157  130 151 157  130 151 157  130 151 157  130 151 157  130 151 157  130 151 157  130 151 157  130 151 157  130 151 157  130 151 157  130 151 157  130 151 157  130 151 157  130 151 157  130 151 157  130 151 157  130 151 157  130 151 157  130 151 157  130 151 157  130 151 157  130 151 157  130 151 157  130 151 157  130 151 157  130 151 157  130 151 157  130 151 157  130 151 157  130 151 157  130 151 157  130 151 157  130 151 157  130 151 157  130 151 157  130 151 157  130 151 157  130 151 157  130 151 157  130 151 157  130 151 157  130 151 157  130 151 157  130 151 157  130 151 157  130 151 157  130 151 157  130 151 157  130 151 157  130 151 157  130 151 157  131 152 158  133 154 159  135 155 161  136 156 162  137 157 162  138 157 163  138 158 163  138 158 164  138 158 164  138 158 164  138 157 163  137 157 163  136 156 162  135 155 161  133 154 160  132 152 158  130 151 157  130 151 157  130 151 157  130 151 157  130 151 157  130 151 157  130 151 157  130 151 157  130 151 157  130 151 157  130 151 157  130 151 157  130 151 157  130 151 157  130 151 157  130 151 157  130 151 157  130 151 157  130 151 157  130 151 157  130 151 157  130 151 157  130 151 157  130 151 157  130 151 157  130 151 157  130 151 157  130 151 157  130 151 157  130 151 157  130 151 157  130 151 157  130 151 157  130 151 157  130 151 157  130 151 157  130 151 157  130 151 157  130 151 157  130 151 157  130 151 157  130 151 157  130 151 157  130 151 157  130 151 157  130 151 157  130 151 157  130 151 157  130 151 157  130 151 157  130 151 157  130 151 157  130 151 157  130 151 157  130 151 157  130 151 157  130 151 157  130 151 157  130 151 157  130 151 157  130 151 157  130 151 157  130 151 157  130 151 157  130 151 157  130 151 157  130 151 157  130 151 157  130 151 157  130 151 157  130 151 157  130 151 157  130 151 157  130 151 157  130 151 157  130 151 157  130 151 157  130 151 157  130 151 157  130 151 157  130 151 157  130 151 157  130 151 157  130 151 157  130 151 157  130 151 157  130 151 157  130 151 157  130 151 157  130 151 157  130 151 157  130 151 157  130 151 157  130 151 157  130 151 157  130 151 157  130 151 157  130 151 157  130 151 157  130 151 157  130 151 157  130 151 157  130 151 157  130 151 157  130 151 157  130 151 157  130 151 157  130 151 157  130 151 157  130 151 157  130 151 157  130 151 157  130 151 157  130 151 157  130 151 157  130 151 157  130 151 157  130 151 157  130 151 157  130 151 157  130 151 157  130 151 157  130 151 157  130 151 157  130 151 157  130 151 157  130 151 157  130 151 157  130 151 157
130 151 157  130 151 157  130 151 157  130 151 157  130 151 157  130 151 157  130 151 157  130 151 157  130 151 157  130 151 157  130 151 157  130 151 157  130 151 157  130 151 157  130 151 157  130 151 157  130 151 157  130 151 157  130 151 157  130 151 157  130 151 157  130 151 157  130 151 157  130 151 157  130 151 157  130 151 157  130 151 157  130 151 157  130 151 157  130 151 157  130 151 157  130 151 157  130 151 157  130 151 157  130 151 157  130 151 157  130 151 157  130 151 157  130 151 157  130 151 157  130 151 157  130 151 157  130 151 157  130 151 157  130 151 157  130 151 157  130 151 157  130 151 157  130 151 157  130 151 157  130 151 157  130 151 157  130 151 157  130 151 157  130 151 157  130 151 157  130 151 157  130 151 157  130 151 157  130 151 157  130 151 157  130 151 157  130 151 157  130 151 157  130 151 157  130 151 157  130 151 157  130 151 157  130 151 157  130 151 157  130 151 157  130 151 157  130 151 157  130 151 157  130 151 157  130 151 157  130 151 157  130 151 157  130 151 157  130 151 157  130 151 157  130 151 157  130 151 157  130 151 157  133 154 160  145 164 169  156 173 178  167 182 187  181 194 198  194 206 209  207 217 219  209 219 221  193 205 208  177 192 195  163 179 183  153 171 175  152 170 175  152 170 175  152 169 174  151 169 174  151 169 174  151 169 174  151 169 174  151 169 174  151 169 174  151 169 174  151 169 174  151 169 174  151 169 174  151 169 174  151 169 174  151 169 174  151 169 174  151 169 174  151 169 174  151 169 174  151 169 174  151 169 174  151 169 174  151 169 174  151 169 174  151 169 174  151 169 174  151 169 174  151 169 174  151 169 174  151 169 174  151 169 174  151 169 174  151 169 174  151 169 174  151 169 174  151 169 174  151 169 174  151 169 174  151 169 174  151 169 174  151 169 174  151 169 174  151 169 174  152 170 175  152 170 175  153 171 175  161 177 182  175 190 194  191 203 206  206 217 219  209 218 221  196 207 210  183 196 200  169 184 189  158 174 179  146 165 170  135 155 161  130 151 157  130 151 157  130 151 157  130 151 157  130 151 157  130 151 157  130 151 157  130 151 157  130 151 157  130 151 157  130 151 157  130 151 157  130 151 157  130 151 157  130 151 157  130 151 157  130 151 157  130 151 157  130 151 157  130 151 157  130 151 157  130 151 157  130 151 157  130 151 157  130 151 157  130 151 157  130 151 157  130 151 157  130 151 157  130 151 157  130 151 157  130 151 157  130 151 157  130 151 157  130 151 157  130 151 157  130 151 157  130 151 157  130 151 157  130 151 157  130 151 157  130 151 157  130 151 157  130 151 157  130 151 157  130 151 157  130 151 157  130 151 157  130 151 157  130 151 157  130 151 157  130 151 157  130 151 157  130 151 157  130 151 157  130 151 157  130 151 157  130 151 157  130 151 157  130 151 157  130 151 157  130 151 157  130 151 157  130 151 157  130 151 157  130 151 157  130 151 157  130 151 157  130 151 157  130 151 157  130 151 157  130 151 157  130 151 157  130 151 157  130 151 157  130 151 157  130 151 157  130 151 157  130 151 157  130 151 157  130 151 157  130 151 157  130 151 157  130 151 157  130 151 157  130 151 157  130 151 157  130 151 157  130 151 157  130 151 157  130 151 157  130 151 157  130 151 157  130 151 157  130 151 157  130 151 157  130 151 157  130 151 157  130 151 157  130 151 157  130 151 157  130 151 157
130 151 157  130 151 157  130 151 157  130 151 157  130 151 157  130 151 157  130 151 157  130 151 157  130 151 157  130 151 157  130 151 157  130 151 157  130 151 157  130 151 157  130 151 157  130 151 157  130 151 157  130 151 157  130 151 157  130 151 157  130 151 157  130 151 157  130 151 157  130 151 157  130 151 157  130 151 157  130 151 157  130 151 157  130 151 157  130 151 157  130 151 157  130 151 157  130 151 157  130 151 157  130 151 157  130 151 157  130 151 157  130 151 157  130 151 157  130 151 157  130 151 157  130 151 157  130 151 157  130 151 157  130 151 157  130 151 157  130 151 157  130 151 157  130 151 157  130 151 157  130 151 157  130 151 157  130 151 157  130 151 157  130 151 157  130 151 157  130 151 157  130 151 157  130 151 157  130 151 157  130 151 157  130 151 157  130 151 157  130 151 157  130 151 157  130 151 157  130 151 157  130 151 157  130 151 157  130 151 157  130 151 157  130 151 157  130 151 157  130 151 157  130 151 157  130 151 157  137 157 163  155 172 178  174 188 193  194 206 209  210 219 222  182 196 200  156 173 178  151 169 174  151 169 174  151 169 174  151 169 174  151 169 174  151 169 174  151 169 174  151 169 174  151 169 174  151 169 174  151 169 174  151 169 174  151 169 174  151 169 174  151 169 174  151 169 174  151 169 174  151 169 174  151 169 174  151 169 174  151 169 174  151 169 174  151 169 174  151 169 174  151 169 174  151 169 174  151 169 174  151 169 174  151 169 174  151 169 174  151 169 174  151 169 174  151 169 174  151 169 174  151 169 174  151 169 174  151 169 174  151 169 174  151 169 174  151 169 174  151 169 174  151 169 174  151 169 174  151 169 174  151 169 174  151 169 174  151 169 174  151 169 174  151 169 174  151 169 174  151 169 174  151 169 174  151 169 174  151 169 174  151 169 174  151 169 174  151 169 174  151 169 174  151 169 174  151 169 174  151 169 174  151 169 174  151 169 174  151 169 174  151 169 174  151 169 174  151 169 174  151 169 174  151 169 174  151 169 174  151 169 174  151 169 174  152 170 175  179 193 196  206 216 219  197 208 211  177 191 195  158 175 180  140 159 165  130 151 157  130 151 157  130 151 157  130 151 157  130 151 157  130 151 157  130 151 157  130 151 157  130 151 157  130 151 157  130 151 157  130 151 157  130 151 157  130 151 157  130 151 157  130 151 157  130 151 157  130 151 157  130 151 157  130 151 157  130 151 157  130 151 157  130 151 157  130 151 157  130 151 157  130 151 157  130 151 157  130 151 157  130 151 157  130 151 157  130 151 157  130 151 157  130 151 157  130 151 157  130 151 157  130 151 157  130 151 157  130 151 157  130 151 157  130 151 157  130 151 157  130 151 157  130 151 157  130 151 157  130 151 157  130 151 157  130 151 157  130 151 157  130 151 157  130 151 157  130 151 157  130 151 157  130 151 157  130 151 157  130 151 157  130 151 157  130 151 157  130 151 157  130 151 157  130 151 157  130 151 157  130 151 157  130 151 157  130 151 157  130 151 157  130 151 157  130 151 157  130 151 157  130 151 157  130 151 157  130 151 157  130 151 157  130 151 157  130 151 157  130 151 157  130 151 157  130 151 157  130 151 157  130 151 157  130 151 157  130 151 157  130 151 157  130 151 157  130 151 157  130 151 157  130 151 157  130 151 157  130 151 157  130 151 157  130 151 157  130 151 157  130 151 157  130 151 157  130 151 157
130 151 157  130 151 157  130 151 157  130 151 157  130 151 157  130 151 157  130 151 157  130 151 157  130 151 157  130 151 157  130 151 157  130 151 157  130 151 157  130 151 157  130 151 157  130 151 157  130 151 157  130 151 157  130 151 157  130 151 157  130 151 157  130 151 157  130 151 157  130 151 157  130 151 157  130 151 157  130 151 157  130 151 157  130 151 157  130 151 157  130 151 157  130 151 157  130 151 157  130 151 157  130 151 157  130 151 157  130 151 157  130 151 157  130 151 157  130 151 157  130 151 157  130 151 157  130 151 157  130 151 157  130 151 157  130 151 157  130 151 157  130 151 157  130 151 157  130 151 157  130 151 157  130 151 157  130 151 157  130 151 157  130 151 157  130 151 157  130 151 157  130 151 157  130 151 157  130 151 157  130 151 157  130 151 157  130 151 157  130 151 157  130 151 157  130 151 157  130 151 157  130 151 157  130 151 157  130 151 157  130 151 157  130 151 157  150 168 173  175 189 193  198 209 212  187 200 203  153 171 176  151 169 174  151 169 174  151 169 174  151 169 174  151 169 174  151 169 174  151 169 174  151 169 174  151 169 174  151 169 174  151 169 174  151 169 174  151 169 174  151 169 174  151 169 174  151 169 174  151 169 174  151 169 174  151 169 174  151 169 174  151 169 174  151 169 174  151 169 174  151 169 174  151 169 174  151 169 174  151 169 174  151 169 174  151 169 174  151 169 174  151 169 174  151 169 174  151 169 174  151 169 174  151 169 174  151 169 174  151 169 174  151 169 174  151 169 174  151 169 174  151 169 174  151 169 174  151 169 174  151 169 174  151 169 174  151 169 174  151 169 174  151 169 174  151 169 174  151 169 174  151 169 174  151 169 174  151 169 174  151 169 174  151 169 174  151 169 174  151 169 174  151 169 174  151 169 174  151 169 174  151 169 174  151 169 174  151 169 174  151 169 174  151 169 174  151 169 174  151 169 174  151 169 174  151 169 174  151 169 174  151 169 174  151 169 174  151 169 174  151 169 174  151 169 174  151 169 174  151 169 174  151 169 174  151 169 174  151 169 174  151 169 174  151 169 174  151 169 174  151 169 174  151 169 174  182 196 199  201 212 215  178 192 196  154 171 176  130 151 157  130 151 157  130 151 157  130 151 157  130 151 157  130 151 157  130 151 157  130 151 157  130 151 157  130 151 157  130 151 157  130 151 157  130 151 157  130 151 157  130 151 157  130 151 157  130 151 157  130 151 157  130 151 157  130 151 157  130 151 157  130 151 157  130 151 157  130 151 157  130 151 157  130 151 157  130 151 157  130 151 157  130 151 157  130 151 157  130 151 157  130 151 157  130 151 157  130 151 157  130 151 157  130 151 157  130 151 157  130 151 157  130 151 157  130 151 157  130 151 157  130 151 157  130 151 157  130 151 157  130 151 157  130 151 157  130 151 157  130 151 157  130 151 157  130 151 157  130 151 157  130 151 157  130 151 157  130 151 157  130 151 157  130 151 157  130 151 157  130 151 157  130 151 157  130 151 157  130 151 157  130 151 157  130 151 157  130 151 157  130 151 157  130 151 157  130 151 157  130 151 157  130 151 157  130 151 157  130 151 157  130 151 157  130 151 157  130 151 157  130 151 157  130 151 157  130 151 157  130 151 157  130 151 157  130 151 157  130 151 157  130 151 157  130 151 157  130 151 157  130 151 157  130 151 157  130 151 157  130 151 157  130 151 157  130 151 157
130 151 157  130 151 157  130 151 157  130 151 157  130 151 157  130 151 157  130 151 157  130 151 157  130 151 157  130 151 157  130 151 157  130 151 157  130 151 157  130 151 157  130 151 157  130 151 157  130 151 157  130 151 157  130 151 157  130 151 157  130 151 157  130 151 157  130 151 157  130 151 157  130 151 157  130 151 157  130 151 157  130 151 157  130 151 157  130 151 157  130 151 157  130 151 157  130 151 157  130 151 157  130 151 157  130 151 157  130 151 157  130 151 157  130 151 157  130 151 157  130 151 157  130 151 157  130 151 157  130 151 157  130 151 157  130 151 157  130 151 157  130 151 157  130 151 157  130 151 157  130 151 157  130 151 157  130 151 157  130 151 157  130 151 157  130 151 157  130 151 157  130 151 157  130 151 157  130 151 157  130 151 157  130 151 157  130 151 157  130 151 157  130 151 157  130 151 157  130 151 157  130 151 157  130 151 157  150 168 173  179 193 197  200 211 214  161 178 183  151 169 174  151 169 174  151 169 174  151 169 174  151 169 174  151 169 174  151 169 174  151 169 174  151 169 174  151 169 174  151 169 174  151 169 174  151 169 174  151 169 174  151 169 174  151 169 174  151 169 174  151 169 174  151 169 174  151 169 174  151 169 174  151 169 174  151 169 174  151 169 174  151 169 174  151 169 174  151 169 174  151 169 174  151 169 174  151 169 174  141 159 164  120 138 144  100 118 124  81 99 106  77 95 102  74 93 100  71 91 98  68 89 97  66 87 95  66 87 95  66 87 95  66 87 95  66 87 95  66 87 95  66 87 95  66 87 95  66 87 95  66 87 95  66 87 95  66 87 95  66 87 95  66 87 95  66 87 95  66 87 95  68 89 96  70 91 98  73 93 100  76 95 102  80 98 104  97 115 121  117 135 141  138 156 161  151 169 174  151 169 174  151 169 174  151 169 174  151 169 174  151 169 174  151 169 174  151 169 174  151 169 174  151 169 174  151 169 174  151 169 174  151 169 174  151 169 174  151 169 174  151 169 174  151 169 174  151 169 174  151 169 174  151 169 174  151 169 174  151 169 174  151 169 174  151 169 174  151 169 174  151 169 174  151 169 174  151 169 174  151 169 174  151 169 174  156 173 178  194 207 210  182 196 200  155 172 177  130 151 157  130 151 157  130 151 157  130 151 157  130 151 157  130 151 157  130 151 157  130 151 157  130 151 157  130 151 157  130 151 157  130 151 157  130 151 157  130 151 157  130 151 157  130 151 157  130 151 157  130 151 157  130 151 157  130 151 157  130 151 157  130 151 157  130 151 157  130 151 157  130 151 157  130 151 157  130 151 157  130 151 157  130 151 157  130 151 157  130 151 157  130 151 157  130 151 157  130 151 157  130 151 157  130 151 157  130 151 157  130 151 157  130 151 157  130 151 157  130 151 157  130 151 157  130 151 157  130 151 157  130 151 157  130 151 157  130 151 157  130 151 157  130 151 157  130 151 157  130 151 157  130 151 157  130 151 157  130 151 157  130 151 157  130 151 157  130 151 157  130 151 157  130 151 157  130 151 157  130 151 157  130 151 157  130 151 157  130 151 157  130 151 157  130 151 157  130 151 157  130 151 157  130 151 157  130 151 157  130 151 157  130 151 157  130 151 157  130 151 157  130 151 157  130 151 157  130 151 157  130 151 157  130 151 157  130 151 157  130 151 157  130 151 157  130 151 157  130 151 157  130 151 157  130 151 157  130 151 157
130 151 157  130 151 157  130 151 157  130 151 157  130 151 157  130 151 157  130 151 157  130 151 157  130 151 157  130 151 157  130 151 157  130 151 157  130 151 157  130 151 157  130 151 157  130 151 157  130 151 157  130 151 157  130 151 157  130 151 157  130 151 157  130 151 157  130 151 157  130 151 157  130 151 157  130 151 157  130 151 157  130 151 157  130 151 157  130 151 157  130 151 157  130 151 157  130 151 157  130 151 157  130 151 157  130 151 157  130 151 157  130 151 157  130 151 157  130 151 157  130 151 157  130 151 157  130 151 157  130 151 157  130 151 157  130 151 157  130 151 157  130 151 157  130 151 157  130 151 157  130 151 157  130 151 157  130 151 157  130 151 157  130 151 157  130 151 157  130 151 157  130 151 157  130 151 157  130 151 157  130 151 157  130 151 157  130 151 157  130 151 157  130 151 157  130 151 157  130 151 157  153 171 175  183 196 200  178 193 196  151 169 174  151 169 174  151 169 174  151 169 174  151 169 174  151 169 174  151 169 174  151 169 174  151 169 174  151 169 174  151 169 174  151 169 174  151 169 174  151 169 174  151 169 174  151 169 174  151 169 174  151 169 174  151 169 174  151 169 174  151 169 174  151 169 174  149 167 172  110 128 135  80 99 107  71 91 99  66 87 95  66 87 95  66 87 95  66 87 95  66 87 95  66 87 95  66 87 95  66 87 95  66 87 95  66 87 95  66 87 95  66 87 95  66 87 95  67 88 96  74 95 103  80 102 110  86 107 115  90 112 120  94 116 124  97 119 127  98 120 128  98 120 128  98 120 128  98 120 128  98 120 128  98 120 128  97 119 127  94 116 124  91 113 121  86 108 116  81 102 110  75 96 104  68 89 97  66 87 95  66 87 95  66 87 95  66 87 95  66 87 95  66 87 95  66 87 95  66 87 95  66 87 95  66 87 95  66 87 95  66 87 95  66 87 95  70 90 98  79 98 106  104 122 129  143 161 166  151 169 174  151 169 174  151 169 174  151 169 174  151 169 174  151 169 174  151 169 174  151 169 174  151 169 174  151 169 174  151 169 174  151 169 174  151 169 174  151 169 174  151 169 174  151 169 174  151 169 174  151 169 174  151 169 174  151 169 174  151 169 174  151 169 174  173 188 191  186 199 202  158 175 180  130 151 157  130 151 157  130 151 157  130 151 157  130 151 157  130 151 157  130 151 157  130 151 157  130 151 157  130 151 157  130 151 157  130 151 157  130 151 157  130 151 157  130 151 157  130 151 157  130 151 157  130 151 157  130 151 157  130 151 157  130 151 157  130 151 157  130 151 157  130 151 157  130 151 157  130 151 157  130 151 157  130 151 157  130 151 157  130 151 157  130 151 157  130 151 157  130 151 157  130 151 157  130 151 157  130 151 157  130 151 157  130 151 157  130 151 157  130 151 157  130 151 157  130 151 157  130 151 157  130 151 157  130 151 157  130 151 157  130 151 157  130 151 157  130 151 157  130 151 157  130 151 157  130 151 157  130 151 157  130 151 157  130 151 157  130 151 157  130 151 157  130 151 157  130 151 157  130 151 157  130 151 157  130 151 157  130 151 157  130 151 157  130 151 157  130 151 157  130 151 157  130 151 157  130 151 157  130 151 157  130 151 157  130 151 157  130 151 157  130 151 157  130 151 157  130 151 157  130 151 157  130 151 157  130 151 157  130 151 157  130 151 157  130 151 157  130 151 157  130 151 157  130 151 157
130 151 157  130 151 157  130 151 157  130 151 157  130 151 157  130 151 157  130 151 157  130 151 157  130 151 157  130 151 157  130 151 157  130 151 157  130 151 157  130 151 157  130 151 157  130 151 157  130 151 157  130 151 157  130 151 157  130 151 157  130 151 157  130 151 157  130 151 157  130 151 157  130 151 157  130 151 157  130 151 157  130 151 157  130 151 157  130 151 157  130 151 157  130 151 157  130 151 157  130 151 157  130 151 157  130 151 157  130 151 157  130 151 157  130 151 157  130 151 157  130 151 157  130 151 157  130 151 157  130 151 157  130 151 157  130 151 157  130 151 157  130 151 157  130 151 157  130 151 157  130 151 157  130 151 157  130 151 157  130 151 157  130 151 157  130 151 157  130 151 157  130 151 157  130 151 157  130 151 157  130 151 157  130 151 157  130 151 157  130 151 157  130 151 157  133 154 159  171 186 190  182 195 200  151 169 174  151 169 174  151 169 174  151 169 174  151 169 174  151 169 174  151 169 174  151 169 174  151 169 174  151 169 174  151 169 174  151 169 174  151 169 174  151 169 174  151 169 174  151 169 174  151 169 174  151 169 174  150 168 173  99 118 124  75 95 102  66 87 95  66 87 95  66 87 95  66 87 95  66 87 95  66 87 95  66 87 95  66 87 95  81 103 111  98 120 128  98 120 128  98 120 128  98 120 128  98 120 128  98 120 128  98 120 128  98 120 128  98 120 128  98 120 128  98 120 128  98 120 128  98 120 128  98 120 128  98 120 128  98 120 128  98 120 128  98 120 128  98 120 128  98 120 128  98 120 128  98 120 128  98 120 128  98 120 128  98 120 128  98 120 128  98 120 128  98 120 128  98 120 128  98 120 128  98 120 128  98 120 128  98 120 128  98 120 128  98 120 128  98 120 128  98 120 128  98 120 128  98 120 128  98 120 128  98 120 128  98 120 128  84 106 114  66 87 95  66 87 95  66 87 95  66 87 95  66 87 95  66 87 95  66 87 95  66 87 95  73 93 101  92 111 117  142 160 166  151 169 174  151 169 174  151 169 174  151 169 174  151 169 174  151 169 174  151 169 174  151 169 174  151 169 174  151 169 174  151 169 174  151 169 174  151 169 174  151 169 174  151 169 174  151 169 174  151 169 174  151 169 174  176 190 195  174 189 193  139 159 164  130 151 157  130 151 157  130 151 157  130 151 157  130 151 157  130 151 157  130 151 157  130 151 157  130 151 157  130 151 157  130 151 157  130 151 157  130 151 157  130 151 157  130 151 157  130 151 157  130 151 157  130 151 157  130 151 157  130 151 157  130 151 157  130 151 157  130 151 157  130 151 157  130 151 157  130 151 157  130 151 157  130 151 157  130 151 157  130 151 157  130 151 157  130 151 157  130 151 157  130 151 157  130 151 157  130 151 157  130 151 157  130 151 157  130 151 157  130 151 157  130 151 157  130 151 157  130 151 157  130 151 157  130 151 157  130 151 157  130 151 157  130 151 157  130 151 157  130 151 157  130 151 157  130 151 157  130 151 157  130 151 157  130 151 157  130 151 157  130 151 157  130 151 157  130 151 157  130 151 157  130 151 157  130 151 157  130 151 157  130 151 157  130 151 157  130 151 157  130 151 157  130 151 157  130 151 157  130 151 157  130 151 157  130 151 157  130 151 157  130 151 157  130 151 157  130 151 157  130 151 157  130 151 157  130 151 157  130 151 157  130 151 157  130 151 157  130 151 157
130 151 157  130 151 157  130 151 157  130 151 157  130 151 157  130 151 157  130 151 157  130 151 157  130 151 157  130 151 157  130 151 157  130 151 157  130 151 157  130 151 157  130 151 157  130 151 157  130 151 157  130 151 157  130 151 157  130 151 157  130 151 157  130 151 157  130 151 157  130 151 157  130 151 157  130 151 157  130 151 157  130 151 157  130 151 157  130 151 157  130 151 157  130 151 157  130 151 157  130 151 157  130 151 157  130 151 157  130 151 157  130 151 157  130 151 157  130 151 157  130 151 157  130 151 157  130 151 157  130 151 157  130 151 157  130 151 157  130 151 157  130 151 157  130 151 157  130 151 157  130 151 157  130 151 157  130 151 157  130 151 157  130 151 157  130 151 157  130 151 157  130 151 157  130 151 157  130 151 157  130 151 157  130 151 157  130 151 157  130 151 157  139 159 164  173 188 192  162 179 183  151 169 174  151 169 174  151 169 174  151 169 174  151 169 174  151 169 174  151 169 174  151 169 174  151 169 174  151 169 174  151 169 174  151 169 174  151 169 174  151 169 174  151 169 174  144 162 167  88 106 112  66 87 95  66 87 95  66 87 95  66 87 95  66 87 95  66 87 95  73 94 102  97 119 127  98 120 128  98 120 128  98 120 128  98 120 128  98 120 128  98 120 128  98 120 128  98 120 128  98 120 128  98 120 128  98 120 128  98 120 128  98 120 128  98 120 128  98 120 128  98 120 128  98 120 128  98 120 128  98 120 128  98 120 128  98 120 128  98 120 128  98 120 128  98 120 128  98 120 128  98 120 128  98 120 128  98 120 128  98 120 128  98 120 128  98 120 128  98 120 128  98 120 128  98 120 128  98 120 128  98 120 128  98 120 128  98 120 128  98 120 128  98 120 128  98 120 128  98 120 128  98 120 128  98 120 128  98 120 128  98 120 128  98 120 128  98 120 128  98 120 128  98 120 128  98 120 128  98 120 128  98 120 128  98 120 128  97 119 127  76 98 106  66 87 95  66 87 95  66 87 95  66 87 95  66 87 95  66 87 95  85 104 109  135 153 158  151 169 174  151 169 174  151 169 174  151 169 174  151 169 174  151 169 174  151 169 174  151 169 174  151 169 174  151 169 174  151 169 174  151 169 174  151 169 174  151 169 174  151 169 174  157 174 179  176 190 194  145 164 169  130 151 157  130 151 157  130 151 157  130 151 157  130 151 157  130 151 157  130 151 157  130 151 157  130 151 157  130 151 157  130 151 157  130 151 157  130 151 157  130 151 157  130 151 157  130 151 157  130 151 157  130 151 157  130 151 157  130 151 157  130 151 157  130 151 157  130 151 157  130 151 157  130 151 157  130 151 157  130 151 157  130 151 157  130 151 157  130 151 157  130 151 157  130 151 157  130 151 157  130 151 157  130 151 157  130 151 157  130 151 157  130 151 157  130 151 157  130 151 157  130 151 157  130 151 157  130 151 157  130 151 157  130 151 157  130 151 157  130 151 157  130 151 157  130 151 157  130 151 157  130 151 157  130 151 157  130 151 157  130 151 157  130 151 157  130 151 157  130 151 157  130 151 157  130 151 157  130 151 157  130 151 157  130 151 157  130 151 157  130 151 157  130 151 157  130 151 157  130 151 157  130 151 157  130 151 157  130 151 157  130 151 157  130 151 157  130 151 157  130 151 157  130 151 157  130 151 157  130 151 157  130 151 157  130 151 157  130 151 157  130 151 157  130 151 157
130 151 157  130 151 157  130 151 157  130 151 157  130 151 157  130 151 157  130 151 157  130 151 157  130 151 157  130 151 157  130 151 157  130 151 157  130 151 157  130 151 157  130 151 157  130 151 157  130 151 157  130 151 157  130 151 157  130 151 157  130 151 157  130 151 157  130 151 157  130 151 157  130 151 157  130 151 157  130 151 157  130 151 157  130 151 157  130 151 157  130 151 157  130 151 157  130 151 157  130 151 157  130 151 157  130 151 157  130 151 157  130 151 157  130 151 157  130 151 157  130 151 157  130 151 157  130 151 157  130 151 157  130 151 157  130 151 157  130 151 157  130 151 157  130 151 157  130 151 157  130 151 157  130 151 157  130 151 157  130 151 157  130 151 157  130 151 157  130 151 157  130 151 157  130 151 157  130 151 157  131 152 158  132 153 159  134 155 160  143 162 167  172 187 191  156 173 178  151 169 174  151 169 174  151 169 174  151 169 174  151 169 174  151 169 174  151 169 174  151 169 174  151 169 174  151 169 174  151 169 174  151 169 174  151 169 174  140 158 163  85 104 110  66 87 95  66 87 95  66 87 95  66 87 95  66 87 95  85 107 115  97 119 127  98 120 128  98 120 128  98 120 128  98 120 128  98 120 128  98 120 128  98 120 128  98 120 128  98 120 128  98 120 128  98 120 128  98 120 128  98 120 128  98 120 128  98 120 128  98 120 128  98 120 128  98 120 128  98 120 128  98 120 128  98 120 128  98 120 128  98 120 128  98 120 128  98 120 128  98 120 128  98 120 128  98 120 128  98 120 128  98 120 128  98 120 128  98 120 128  98 120 128  98 120 128  98 120 128  98 120 128  98 120 128  98 120 128  98 120 128  98 120 128  98 120 128  98 120 128  98 120 128  98 120 128  98 120 128  98 120 128  98 120 128  98 120 128  98 120 128  98 120 128  98 120 128  98 120 128  98 120 128  98 120 128  98 120 128  98 120 128  98 120 128  98 120 128  98 120 128  98 120 128  98 120 128  98 120 128  97 119 127  89 111 119  66 87 95  66 87 95  66 87 95  66 87 95  66 87 95  80 100 107  130 148 154  151 169 174  151 169 174  151 169 174  151 169 174  151 169 174  151 169 174  151 169 174  151 169 174  151 169 174  151 169 174  151 169 174  151 169 174  151 169 174  151 169 174  173 188 192  149 167 172  134 155 161  133 153 159  132 152 158  131 151 157  130 151 157  130 151 157  130 151 157  130 151 157  130 151 157  130 151 157  130 151 157  130 151 157  130 151 157  130 151 157  130 151 157  130 151 157  130 151 157  130 151 157  130 151 157  130 151 157  130 151 157  130 151 157  130 151 157  130 151 157  130 151 157  130 151 157  130 151 157  130 151 157  130 151 157  130 151 157  130 151 157  130 151 157  130 151 157  130 151 157  130 151 157  130 151 157  130 151 157  130 151 157  130 151 157  130 151 157  130 151 157  130 151 157  130 151 157  130 151 157  130 151 157  130 151 157  130 151 157  130 151 157  130 151 157  130 151 157  130 151 157  130 151 157  130 151 157  130 151 157  130 151 157  130 151 157  130 151 157  130 151 157  130 151 157  130 151 157  130 151 157  130 151 157  130 151 157  130 151 157  130 151 157  130 151 157  130 151 157  130 151 157  130 151 157  130 151 157  130 151 157  130 151 157  130 151 157  130 151 157  130 151 157  130 151 157  130 151 157  130 151 157  130 151 157  130 151 157  130 151 157
137 157 163  137 157 163  136 156 162  136 156 161  135 155 161  134 154 160  133 153 159  132 153 159  131 152 158  131 152 158  130 151 157  130 151 157  130 151 157  130 151 157  130 151 157  130 151 157  130 151 157  130 151 157  130 151 157  130 151 157  130 151 157  130 151 157  130 151 157  130 151 157  130 151 157  130 151 157  130 151 157  130 151 157  130 151 157  130 151 157  130 151 157  130 151 157  130 151 157  130 151 157  130 151 157  130 151 157  130 151 157  130 151 157  130 151 157  130 151 157  130 151 157  130 151 157  131 152 158  132 153 159  133 154 159  134 154 160  135 155 161  136 156 161  136 156 162  136 156 162  136 156 162  136 156 162  137 157 163  137 157 163  137 157 163  137 157 163  137 157 163  137 157 163  138 158 163  142 161 166  146 164 170  150 168 173  151 169 174  170 185 189  156 174 178  151 169 174  151 169 174  151 169 174  151 169 174  151 169 174  151 169 174  151 169 174  151 169 174  151 169 174  151 169 174  151 169 174  151 169 174  115 134 139  66 87 95  66 87 95  66 87 95  66 87 95  66 87 95  94 116 124  98 120 128  98 120 128  98 120 128  98 120 128  98 120 128  98 120 128  98 120 128  98 120 128  98 120 128  98 120 128  98 120 128  98 120 128  98 120 128  98 120 128  98 120 128  98 120 128  98 120 128  98 120 128  98 120 128  98 120 128  98 120 128  98 120 128  98 120 128  98 120 128  98 120 128  98 120 128  98 120 128  98 120 128  98 120 128  98 120 128  98 120 128  98 120 128  98 120 128  98 120 128  98 120 128  98 120 128  98 120 128  98 120 128  98 120 128  98 120 128  98 120 128  98 120 128  98 120 128  98 120 128  98 120 128  98 120 128  98 120 128  98 120 128  98 120 128  98 120 128  98 120 128  98 120 128  98 120 128  98 120 128  98 120 128  98 120 128  98 120 128  98 120 128  98 120 128  98 120 128  98 120 128  98 120 128  98 120 128  98 120 128  98 120 128  98 120 128  98 120 128  98 120 128  98 120 128  98 120 128  95 117 125  67 88 96  66 87 95  66 87 95  66 87 95  66 87 95  106 125 130  151 169 174  151 169 174  151 169 174  151 169 174  151 169 174  151 169 174  151 169 174  151 169 174  151 169 174  151 169 174  151 169 174  151 169 174  153 171 175  169 185 189  151 169 174  150 168 173  146 165 170  142 161 167  138 158 163  137 157 163  137 157 163  137 157 163  137 157 163  137 157 163  137 157 163  136 156 162  136 156 162  136 156 162  136 156 162  136 156 161  135 155 161  134 154 160  133 154 159  132 153 159  131 152 158  130 151 157  130 151 157  130 151 157  130 151 157  130 151 157  130 151 157  130 151 157  130 151 157  130 151 157  130 151 157  130 151 157  130 151 157  130 151 157  130 151 157  130 151 157  130 151 157  130 151 157  130 151 157  130 151 157  130 151 157  130 151 157  130 151 157  130 151 157  130 151 157  130 151 157  130 151 157  130 151 157  130 151 157  130 151 157  130 151 157  130 151 157  130 151 157  131 152 158  131 152 158  132 153 159  133 153 159  134 154 160  135 155 161  135 156 161  136 156 162  137 157 162  137 157 163  138 158 163  138 158 164  139 159 164  140 159 165  140 159 165  140 160 165  141 160 166  141 160 166  141 160 166  141 160 166  141 160 166  141 160 165  140 160 165  140 159 165  139 159 164  138 158 164  138 158 163  137 157 163
151 169 174  151 169 174  151 169 174  151 169 174  151 169 174  151 169 174  151 169 174  151 169 174  151 169 174  151 169 174  150 168 173  149 168 173  149 167 172  148 166 171  147 166 171  147 165 171  146 165 170  144 164 169  143 162 167  142 161 166  140 160 166  139 159 164  138 158 163  137 157 163  136 156 162  135 156 162  135 155 161  135 155 161  135 155 161  135 155 161  135 155 161  135 155 161  135 156 161  135 156 162  136 156 162  137 157 162  138 158 163  139 159 164  140 160 165  141 161 166  143 162 168  145 164 169  146 165 170  147 165 170  147 166 171  148 166 171  148 167 172  149 167 172  149 168 173  150 168 173  150 168 173  150 168 173  150 168 173  150 168 173  150 168 173  150 168 173  150 169 174  150 169 174  151 169 174  151 169 174  151 169 174  151 169 174  160 177 181  160 177 181  151 169 174  151 169 174  151 169 174  151 169 174  151 169 174  151 169 174  151 169 174  151 169 174  151 169 174  151 169 174  151 169 174  127 144 149  66 87 95  66 87 95  66 87 95  66 87 95  81 102 110  97 119 127  98 120 128  98 120 128  98 120 128  98 120 128  98 120 128  98 120 128  98 120 128  98 120 128  98 120 128  98 120 128  98 120 128  98 120 128  98 120 128  98 120 128  98 120 128  98 120 128  98 120 128  98 120 128  98 120 128  98 120 128  98 120 128  98 120 128  98 120 128  98 120 128  98 120 128  98 120 128  98 120 128  98 120 128  98 120 128  98 120 128  98 120 128  98 120 128  98 120 128  98 120 128  98 120 128  98 120 128  98 120 128  98 120 128  98 120 128  98 120 128  98 120 128  98 120 128  98 120 128  98 120 128  98 120 128  98 120 128  98 120 128  98 120 128  98 120 128  98 120 128  98 120 128  98 120 128  98 120 128  98 120 128  98 120 128  98 120 128  98 120 128  98 120 128  98 120 128  98 120 128  98 120 128  98 120 128  98 120 128  98 120 128  98 120 128  98 120 128  98 120 128  98 120 128  98 120 128  98 120 128  98 120 128  98 120 128  98 120 128  98 120 128  98 120 128  86 107 115  66 87 95  66 87 95  66 87 95  66 87 95  119 137 142  151 169 174  151 169 174  151 169 174  151 169 174  151 169 174  151 169 174  151 169 174  151 169 174  151 169 174  151 169 174  151 169 174  157 174 179  162 179 183  151 169 174  151 169 174  151 169 174  151 169 174  150 169 174  150 169 174  150 168 173  150 168 173  150 168 173  150 168 173  150 168 173  150 168 173  150 168 173  149 168 173  149 167 172  149 167 172  148 166 171  147 166 171  147 165 170  146 165 170  145 164 169  143 162 168  141 161 166  140 160 165  139 159 165  138 158 163  137 157 162  136 156 162  135 156 162  135 156 161  135 155 161  135 155 161  135 155 161  135 155 161  135 155 161  135 155 161  135 156 162  136 156 162  137 157 163  138 158 163  139 159 164  140 160 165  142 161 166  142 162 167  144 163 169  146 165 170  146 165 170  147 166 171  148 166 171  148 167 172  149 168 173  150 168 173  151 169 174  151 169 174  151 169 174  151 169 174  151 169 174  151 169 174  151 169 174  151 169 174  151 169 174  151 169 174  151 169 174  151 169 174  151 169 174  151 169 174  151 169 174  151 169 174  151 169 174  151 169 174  151 169 174  151 169 174  151 169 174  151 169 174  151 169 174  151 169 174  151 169 174  151 169 174  151 169 174  151 169 174
151 169 174  151 169 174  151 169 174  151 169 174  151 169 174  151 169 174  151 169 174  151 169 174  151 169 174  151 169 174  151 169 174  151 169 174  151 169 174  151 169 174  151 169 174  151 169 174  151 169 174  151 169 174  151 169 174  151 169 174  151 169 174  151 169 174  151 169 174  151 169 174  151 169 174  151 169 174  151 169 174  151 169 174  151 169 174  151 169 174  151 169 174  151 169 174  151 169 174  151 169 174  151 169 174  151 169 174  151 169 174  151 169 174  151 169 174  151 169 174  151 169 174  151 169 174  151 169 174  151 169 174  151 169 174  151 169 174  151 169 174  151 169 174  151 169 174  151 169 174  151 169 174  151 169 174  151 169 174  151 169 174  151 169 174  151 169 174  151 169 174  151 169 174  151 169 174  151 169 174  151 169 174  151 169 174  157 175 179  151 169 174  151 169 174  151 169 174  151 169 174  151 169 174  151 169 174  151 169 174  151 169 174  151 169 174  151 169 174  149 167 172  87 107 114  66 87 95  66 87 95  66 87 95  80 102 109  98 120 128  98 120 128  98 120 128  98 120 128  98 120 128  98 120 128  98 120 128  98 120 128  98 120 128  98 120 128  98 120 128  98 120 128  98 120 128  98 120 128  98 120 128  98 120 128  98 120 128  98 120 128  98 120 128  98 120 128  98 120 128  98 120 128  98 120 128  98 120 128  98 120 128  98 120 128  98 120 128  98 120 128  98 120 128  98 120 128  98 120 128  98 120 128  98 120 128  98 120 128  98 120 128  98 120 128  98 120 128  98 120 128  98 120 128  98 120 128  98 120 128  98 120 128  98 120 128  98 120 128  98 120 128  98 120 128  98 120 128  98 120 128  98 120 128  98 120 128  98 120 128  98 120 128  98 120 128  98 120 128  98 120 128  98 120 128  98 120 128  98 120 128  98 120 128  98 120 128  98 120 128  98 120 128  98 120 128  98 120 128  98 120 128  98 120 128  98 120 128  98 120 128  98 120 128  98 120 128  98 120 128  98 120 128  98 120 128  98 120 128  98 120 128  98 120 128  98 120 128  98 120 128  98 120 128  98 120 128  84 106 113  66 87 95  66 87 95  66 87 95  73 94 101  145 162 167  151 169 174  151 169 174  151 169 174  151 169 174  151 169 174  151 169 174  151 169 174  151 169 174  151 169 174  151 169 174  158 176 180  151 169 174  151 169 174  151 169 174  151 169 174  151 169 174  151 169 174  151 169 174  151 169 174  151 169 174  151 169 174  151 169 174  151 169 174  151 169 174  151 169 174  151 169 174  151 169 174  151 169 174  151 169 174  151 169 174  151 169 174  151 169 174  151 169 174  151 169 174  151 169 174  151 169 174  151 169 174  151 169 174  151 169 174  151 169 174  151 169 174  151 169 174  151 169 174  151 169 174  151 169 174  151 169 174  151 169 174  151 169 174  151 169 174  151 169 174  151 169 174  151 169 174  151 169 174  151 169 174  151 169 174  151 169 174  151 169 174  151 169 174  151 169 174  151 169 174  151 169 174  151 169 174  151 169 174  151 169 174  151 169 174  151 169 174  151 169 174  151 169 174  151 169 174  151 169 174  151 169 174  151 169 174  151 169 174  151 169 174  151 169 174  151 169 174  151 169 174  151 169 174  151 169 174  151 169 174  151 169 174  151 169 174  151 169 174  151 169 174  151 169 174  151 169 174  151 169 174  151 169 174  151 169 174  151 169 174  151 169 174
151 169 174  151 169 174  151 169 174  151 169 174  151 169 174  151 169 174  151 169 174  151 169 174  151 169 174  151 169 174  151 169 174  151 169 174  151 169 174  151 169 174  151 169 174  151 169 174  151 169 174  151 169 174  151 169 174  151 169 174  151 169 174  151 169 174  151 169 174  151 169 174  151 169 174  151 169 174  151 169 174  151 169 174  151 169 174  151 169 174  151 169 174  151 169 174  151 169 174  151 169 174  151 169 174  151 169 174  151 169 174  151 169 174  151 169 174  151 169 174  151 169 174  151 169 174  151 169 174  151 169 174  151 169 174  151 169 174  151 169 174  151 169 174  151 169 174  151 169 174  151 169 174  151 169 174  151 169 174  151 169 174  151 169 174  151 169 174  151 169 174  151 169 174  151 169 174  151 169 174  151 169 174  151 169 174  154 172 176  151 169 174  151 169 174  151 169 174  151 169 174  151 169 174  151 169 174  151 169 174  151 169 174  151 169 174  149 167 172  68 89 97  66 87 95  66 87 95  71 92 100  98 120 128  98 120 128  98 120 128  98 120 128  98 120 128  98 120 128  98 120 128  98 120 128  98 120 128  98 120 128  98 120 128  98 120 128  98 120 128  98 120 128  98 120 128  98 120 128  98 120 128  98 120 128  98 120 128  98 120 128  98 120 128  98 120 128  98 120 128  98 120 128  98 120 128  98 120 128  98 120 128  98 120 128  98 120 128  98 120 128  98 120 128  98 120 128  98 120 128  98 120 128  98 120 128  98 120 128  98 120 128  98 120 128  98 120 128  98 120 128  98 120 128  98 120 128  98 120 128  98 120 128  98 120 128  98 120 128  98 120 128  98 120 128  98 120 128  98 120 128  98 120 128  98 120 128  98 120 128  98 120 128  98 120 128  98 120 128  98 120 128  98 120 128  98 120 128  98 120 128  98 120 128  98 120 128  98 120 128  98 120 128  98 120 128  98 120 128  98 120 128  98 120 128  98 120 128  98 120 128  98 120 128  98 120 128  98 120 128  98 120 128  98 120 128  98 120 128  98 120 128  98 120 128  98 120 128  98 120 128  98 120 128  98 120 128  98 120 128  98 120 128  73 94 102  66 87 95  66 87 95  67 88 96  148 166 171  151 169 174  151 169 174  151 169 174  151 169 174  151 169 174  151 169 174  151 169 174  151 169 174  151 169 174  152 170 175  151 169 174  151 169 174  151 169 174  151 169 174  151 169 174  151 169 174  151 169 174  151 169 174  151 169 174  151 169 174  151 169 174  151 169 174  151 169 174  151 169 174  151 169 174  151 169 174  151 169 174  151 169 174  151 169 174  151 169 174  151 169 174  151 169 174  151 169 174  151 169 174  151 169 174  151 169 174  151 169 174  151 169 174  151 169 174  151 169 174  151 169 174  151 169 174  151 169 174  151 169 174  151 169 174  151 169 174  151 169 174  151 169 174  151 169 174  151 169 174  151 169 174  151 169 174  151 169 174  151 169 174  151 169 174  151 169 174  151 169 174  151 169 174  151 169 174  151 169 174  151 169 174  151 169 174  151 169 174  151 169 174  151 169 174  151 169 174  151 169 174  151 169 174  151 169 174  151 169 174  151 169 174  151 169 174  151 169 174  151 169 174  151 169 174  151 169 174  151 169 174  151 169 174  151 169 174  151 169 174  151 169 174  151 169 174  151 169 174  151 169 174  151 169 174  151 169 174  151 169 174  151 169 174  151 169 174  151 169 174
151 169 174  151 169 174  151 169 174  151 169 174  151 169 174  151 169 174  151 169 174  151 169 174  151 169 174  151 169 174  151 169 174  151 169 174  151 169 174  151 169 174  151 169 174  151 169 174  151 169 174  151 169 174  151 169 174  151 169 174  151 169 174  151 169 174  151 169 174  151 169 174  151 169 174  151 169 174  151 169 174  151 169 174  151 169 174  151 169 174  151 169 174  147 164 169  114 127 131  90 100 103  88 97 100  105 117 120  142 159 164  151 169 174  151 169 174  151 169 174  151 169 174  151 169 174  151 169 174  151 169 174  151 169 174  151 169 174  151 169 174  151 169 174  151 169 174  151 169 174  151 169 174  151 169 174  151 169 174  151 169 174  151 169 174  151 169 174  151 169 174  151 169 174  151 169 174  151 169 174  151 169 174  154 171 176  151 169 174  151 169 174  151 169 174  151 169 174  151 169 174  151 169 174  151 169 174  151 169 174  151 169 174  151 169 174  70 91 99  66 87 95  66 87 95  76 97 105  98 120 128  98 120 128  98 120 128  98 120 128  98 120 128  98 120 128  98 120 128  98 120 128  98 120 128  98 120 128  98 120 128  98 120 128  98 120 128  98 120 128  98 120 128  98 120 128  98 120 128  98 120 128  98 120 128  98 120 128  98 120 128  98 120 128  98 120 128  98 120 128  98 120 128  98 120 128  98 120 128  98 120 128  98 120 128  98 120 128  98 120 128  98 120 128  98 120 128  98 120 128  98 120 128  98 120 128  98 120 128  98 120 128  98 120 128  98 120 128  98 120 128  98 120 128  98 120 128  98 120 128  98 120 128  98 120 128  98 120 128  98 120 128  98 120 128  98 120 128  98 120 128  98 120 128  98 120 128  98 120 128  98 120 128  98 120 128  98 120 128  98 120 128  98 120 128  98 120 128  98 120 128  98 120 128  98 120 128  98 120 128  98 120 128  98 120 128  98 120 128  98 120 128  98 120 128  98 120 128  98 120 128  98 120 128  98 120 128  98 120 128  98 120 128  98 120 128  98 120 128  98 120 128  98 120 128  98 120 128  98 120 128  98 120 128  98 120 128  98 120 128  98 120 128  98 120 128  83 105 113  66 87 95  66 87 95  66 87 95  137 155 161  151 169 174  151 169 174  151 169 174  151 169 174  151 169 174  151 169 174  151 169 174  151 169 174  151 169 174  155 173 177  151 169 174  151 169 174  151 169 174  151 169 174  151 169 174  151 169 174  151 169 174  151 169 174  151 169 174  151 169 174  151 169 174  151 169 174  151 169 174  151 169 174  151 169 174  151 169 174  151 169 174  151 169 174  151 169 174  151 169 174  151 169 174  151 169 174  151 169 174  151 169 174  145 162 167  109 122 126  89 99 102  88 98 100  110 123 126  144 161 166  151 169 174  151 169 174  151 169 174  151 169 174  151 169 174  151 169 174  151 169 174  151 169 174  151 169 174  151 169 174  151 169 174  151 169 174  151 169 174  151 169 174  151 169 174  151 169 174  151 169 174  151 169 174  151 169 174  151 169 174  151 169 174  151 169 174  151 169 174  151 169 174  151 169 174  151 169 174  151 169 174  151 169 174  151 169 174  151 169 174  151 169 174  151 169 174  151 169 174  151 169 174  151 169 174  151 169 174  151 169 174  151 169 174  151 169 174  151 169 174  151 169 174  151 169 174  151 169 174  151 169 174  151 169 174  151 169 174  151 169 174  151 169 174  151 169 174
151 169 174  151 169 174  151 169 174  151 169 174  151 169 174  151 169 174  151 169 174  151 169 174  151 169 174  151 169 174  151 169 174  151 169 174  151 169 174  151 169 174  151 169 174  151 169 174  151 169 174  151 169 174  151 169 174  151 169 174  151 169 174  151 169 174  151 169 174  151 169 174  151 169 174  151 169 174  151 169 174  151 169 174  151 169 174  151 169 174  151 169 174  138 154 159  74 82 84  49 51 52  89 94 96  113 118 120  80 85 86  34 36 36  89 100 102  148 166 171  151 169 174  151 169 174  151 169 174  151 169 174  151 169 174  151 169 174  151 169 174  151 169 174  151 169 174  151 169 174  151 169 174  151 169 174  151 169 174  151 169 174  151 169 174  151 169 174  151 169 174  151 169 174  151 169 174  151 169 174  151 169 174  154 172 177  151 169 174  151 169 174  151 169 174  151 169 174  151 169 174  151 169 174  151 169 174  151 169 174  151 169 174  67 88 96  66 87 95  66 87 95  83 105 113  98 120 128  98 120 128  98 120 128  98 120 128  98 120 128  98 120 128  98 120 128  98 120 128  98 120 128  98 120 128  98 120 128  98 120 128  98 120 128  98 120 128  98 120 128  98 120 128  98 120 128  98 120 128  98 120 128  98 120 128  98 120 128  98 120 128  98 120 128  98 120 128  98 120 128  98 120 128  98 120 128  98 120 128  98 120 128  98 120 128  98 120 128  98 120 128  98 120 128  98 120 128  98 120 128  98 120 128  98 120 128  98 120 128  98 120 128  98 120 128  98 120 128  98 120 128  98 120 128  98 120 128  98 120 128  98 120 128  98 120 128  98 120 128  98 120 128  98 120 128  98 120 128  98 120 128  98 120 128  98 120 128  98 120 128  98 120 128  98 120 128  98 120 128  98 120 128  98 120 128  98 120 128  98 120 128  98 120 128  98 120 128  98 120 128  98 120 128  98 120 128  98 120 128  98 120 128  98 120 128  98 120 128  98 120 128  98 120 128  98 120 128  98 120 128  98 120 128  98 120 128  98 120 128  98 120 128  98 120 128  98 120 128  98 120 128  98 120 128  98 120 128  98 120 128  98 120 128  98 120 128  98 120 128  88 110 117  66 87 95  66 87 95  66 87 95  142 160 165  151 169 174  151 169 174  151 169 174  151 169 174  151 169 174  151 169 174  151 169 174  151 169 174  153 171 176  151 169 174  151 169 174  151 169 174  151 169 174  151 169 174  151 169 174  151 169 174  151 169 174  151 169 174  151 169 174  151 169 174  151 169 174  151 169 174  151 169 174  151 169 174  151 169 174  151 169 174  151 169 174  151 169 174  151 169 174  151 169 174  151 169 174  104 117 120  30 31 32  74 78 79  111 116 118  95 100 101  55 57 58  62 68 70  132 148 152  151 169 174  151 169 174  151 169 174  151 169 174  151 169 174  151 169 174  151 169 174  151 169 174  151 169 174  151 169 174  151 169 174  151 169 174  151 169 174  151 169 174  151 169 174  151 169 174  151 169 174  151 169 174  151 169 174  151 169 174  151 169 174  151 169 174  151 169 174  151 169 174  151 169 174  151 169 174  151 169 174  151 169 174  151 169 174  151 169 174  151 169 174  151 169 174  151 169 174  151 169 174  151 169 174  151 169 174  151 169 174  151 169 174  151 169 174  151 169 174  151 169 174  151 169 174  151 169 174  151 169 174  151 169 174  151 169 174  151 169 174  151 169 174  151 169 174
151 169 174  151 169 174  151 169 174  151 169 174  151 169 174  151 169 174  151 169 174  151 169 174  151 169 174  151 169 174  151 169 174  151 169 174  151 169 174  151 169 174  151 169 174  151 169 174  151 169 174  151 169 174  151 169 174  151 169 174  151 169 174  151 169 174  151 169 174  151 169 174  151 169 174  151 169 174  151 169 174  151 169 174  151 169 174  151 169 174  151 169 174  151 169 174  81 89 92  77 81 82  200 210 213  205 215 218  200 211 214  195 206 210  189 202 205  54 59 60  93 103 106  151 169 174  151 169 174  151 169 174  151 169 174  151 169 174  151 169 174  151 169 174  151 169 174  151 169 174  151 169 174  151 169 174  151 169 174  151 169 174  151 169 174  151 169 174  151 169 174  151 169 174  151 169 174  151 169 174  151 169 174  151 169 174  151 169 174  151 169 174  151 169 174  151 169 174  151 169 174  151 169 174  151 169 174  151 169 174  86 106 113  66 87 95  66 87 95  76 97 105  98 120 128  98 120 128  98 120 128  98 120 128  98 120 128  98 120 128  98 120 128  98 120 128  98 120 128  98 120 128  98 120 128  98 120 128  98 120 128  98 120 128  98 120 128  98 120 128  98 120 128  98 120 128  98 120 128  98 120 128  98 120 128  98 120 128  98 120 128  98 120 128  98 120 128  98 120 128  98 120 128  98 120 128  98 120 128  98 120 128  98 120 128  98 120 128  98 120 128  98 120 128  98 120 128  98 120 128  98 120 128  98 120 128  98 120 128  98 120 128  98 120 128  98 120 128  98 120 128  98 120 128  98 120 128  98 120 128  98 120 128  98 120 128  98 120 128  98 120 128  98 120 128  98 120 128  98 120 128  98 120 128  98 120 128  98 120 128  98 120 128  98 120 128  98 120 128  98 120 128  98 120 128  98 120 128  98 120 128  98 120 128  98 120 128  98 120 128  98 120 128  98 120 128  98 120 128  98 120 128  98 120 128  98 120 128  98 120 128  98 120 128  98 120 128  98 120 128  98 120 128  98 120 128  98 120 128  98 120 128  98 120 128  98 120 128  98 120 128  98 120 128  98 120 128  98 120 128  98 120 128  98 120 128  98 120 128  98 120 128  84 105 113  66 87 95  66 87 95  75 95 103  151 169 174  151 169 174  151 169 174  151 169 174  151 169 174  151 169 174  151 169 174  151 169 174  151 169 174  151 169 174  151 169 174  151 169 174  151 169 174  151 169 174  151 169 174  151 169 174  151 169 174  151 169 174  151 169 174  151 169 174  151 169 174  151 169 174  151 169 174  151 169 174  151 169 174  151 169 174  151 169 174  151 169 174  151 169 174  111 124 127  34 37 38  188 201 204  194 206 209  199 210 213  205 215 218  203 213 216  97 103 104  58 63 65  151 169 174  151 169 174  151 169 174  151 169 174  151 169 174  151 169 174  151 169 174  151 169 174  151 169 174  151 169 174  151 169 174  151 169 174  151 169 174  151 169 174  151 169 174  151 169 174  151 169 174  151 169 174  151 169 174  151 169 174  151 169 174  151 169 174  151 169 174  151 169 174  151 169 174  151 169 174  151 169 174  151 169 174  151 169 174  151 169 174  151 169 174  151 169 174  151 169 174  151 169 174  151 169 174  151 169 174  151 169 174  151 169 174  151 169 174  151 169 174  151 169 174  151 169 174  151 169 174  151 169 174  151 169 174  151 169 174  151 169 174  151 169 174  151 169 174  151 169 174
106 125 131  137 155 161  147 165 170  151 169 174  151 169 174  151 169 174  151 169 174  151 169 174  151 169 174  151 169 174  151 169 174  151 169 174  151 169 174  151 169 174  151 169 174  151 169 174  151 169 174  151 169 174  151 169 174  151 169 174  151 169 174  151 169 174  151 169 174  151 169 174  151 169 174  151 169 174  151 169 174  151 169 174  151 169 174  151 169 174  151 169 174  151 169 174  151 169 174  27 29 29  205 215 218  197 208 212  164 181 185  151 169 174  150 168 173  143 162 167  133 151 156  37 40 41  151 169 174  151 169 174  151 169 174  151 169 174  151 169 174  151 169 174  151 169 174  151 169 174  151 169 174  151 169 174  151 169 174  151 169 174  151 169 174  151 169 174  151 169 174  151 169 174  151 169 174  151 169 174  151 169 174  151 169 174  151 169 174  151 169 174  151 169 174  151 169 174  151 169 174  151 169 174  151 169 174  135 154 158  66 87 95  66 87 95  69 90 98  98 120 128  98 120 128  98 120 128  98 120 128  98 120 128  98 120 128  98 120 128  98 120 128  98 120 128  98 120 128  98 120 128  98 120 128  98 120 128  98 120 128  98 120 128  98 120 128  98 120 128  98 120 128  98 120 128  98 120 128  98 120 128  98 120 128  98 120 128  98 120 128  98 120 128  98 120 128  98 120 128  98 120 128  98 120 128  98 120 128  98 120 128  98 120 128  98 120 128  98 120 128  98 120 128  98 120 128  98 120 128  98 120 128  98 120 128  98 120 128  98 120 128  98 120 128  98 120 128  98 120 128  98 120 128  98 120 128  98 120 128  98 120 128  98 120 128  98 120 128  98 120 128  98 120 128  98 120 128  98 120 128  98 120 128  98 120 128  98 120 128  98 120 128  98 120 128  98 120 128  98 120 128  98 120 128  98 120 128  98 120 128  98 120 128  98 120 128  98 120 128  98 120 128  98 120 128  98 120 128  98 120 128  98 120 128  98 120 128  98 120 128  98 120 128  98 120 128  98 120 128  98 120 128  98 120 128  98 120 128  98 120 128  98 120 128  98 120 128  98 120 128  98 120 128  98 120 128  98 120 128  98 120 128  98 120 128  98 120 128  98 120 128  98 120 128  76 97 105  66 87 95  66 87 95  125 143 148  151 169 174  151 169 174  151 169 174  151 169 174  151 169 174  151 169 174  151 169 174  151 169 174  151 169 174  151 169 174  151 169 174  151 169 174  151 169 174  151 169 174  151 169 174  151 169 174  151 169 174  151 169 174  151 169 174  151 169 174  151 169 174  151 169 174  151 169 174  151 169 174  151 169 174  151 169 174  151 169 174  56 61 63  109 123 127  143 161 166  150 168 173  151 169 174  160 177 181  194 206 209  205 215 218  41 43 44  141 158 163  151 169 174  151 169 174  151 169 174  151 169 174  151 169 174  151 169 174  151 169 174  151 169 174  151 169 174  151 169 174  151 169 174  151 169 174  151 169 174  151 169 174  151 169 174  151 169 174  151 169 174  151 169 174  151 169 174  151 169 174  151 169 174  151 169 174  151 169 174  151 169 174  151 169 174  151 169 174  151 169 174  151 169 174  151 169 174  148 166 171  139 157 162  111 130 136  78 97 104  67 86 94  65 84 92  63 82 90  63 82 90  63 82 90  63 82 90  63 82 90  63 82 90  63 82 90  63 82 90  63 82 90  63 82 90  63 82 90  65 84 91  67 86 94  73 92 100  106 125 131
63 82 90  63 82 90  63 82 90  63 82 90  66 85 93  84 103 110  139 157 163  151 169 174  151 169 174  151 169 174  151 169 174  151 169 174  151 169 174  151 169 174  151 169 174  151 169 174  151 169 174  151 169 174  151 169 174  151 169 174  151 169 174  151 169 174  151 169 174  151 169 174  151 169 174  151 169 174  151 169 174  151 169 174  151 169 174  151 169 174  151 169 174  151 169 174  151 169 174  133 148 153  76 80 81  197 208 211  151 169 174  150 168 173  124 143 149  97 116 123  96 115 122  94 112 119  25 27 27  151 169 174  151 169 174  151 169 174  151 169 174  151 169 174  151 169 174  151 169 174  151 169 174  151 169 174  151 169 174  151 169 174  151 169 174  151 169 174  151 169 174  151 169 174  151 169 174  151 169 174  151 169 174  151 169 174  151 169 174  151 169 174  151 169 174  151 169 174  151 169 174  151 169 174  151 169 174  81 101 107  66 87 95  66 87 95  95 117 125  98 120 128  98 120 128  98 120 128  98 120 128  98 120 128  98 120 128  98 120 128  98 120 128  98 120 128  98 120 128  98 120 128  98 120 128  98 120 128  98 120 128  98 120 128  98 120 128  98 120 128  98 120 128  98 120 128  98 120 128  98 120 128  98 120 128  98 120 128  98 120 128  98 120 128  98 120 128  98 120 128  98 120 128  98 120 128  98 120 128  98 120 128  98 120 128  98 120 128  98 120 128  98 120 128  98 120 128  98 120 128  98 120 128  98 120 128  98 120 128  98 120 128  98 120 128  98 120 128  98 120 128  98 120 128  98 120 128  98 120 128  98 120 128  98 120 128  98 120 128  98 120 128  98 120 128  98 120 128  98 120 128  98 120 128  98 120 128  98 120 128  98 120 128  98 120 128  98 120 128  98 120 128  98 120 128  98 120 128  98 120 128  98 120 128  98 120 128  98 120 128  98 120 128  98 120 128  98 120 128  98 120 128  98 120 128  98 120 128  98 120 128  98 120 128  98 120 128  98 120 128  98 120 128  98 120 128  98 120 128  98 120 128  98 120 128  98 120 128  98 120 128  98 120 128  98 120 128  98 120 128  98 120 128  98 120 128  98 120 128  98 120 128  98 120 128  96 118 126  66 87 95  66 87 95  74 95 102  151 169 174  151 169 174  151 169 174  151 169 174  151 169 174  151 169 174  151 169 174  151 169 174  151 169 174  151 169 174  151 169 174  151 169 174  151 169 174  151 169 174  151 169 174  151 169 174  151 169 174  151 169 174  151 169 174  151 169 174  151 169 174  151 169 174  151 169 174  151 169 174  151 169 174  151 169 174  68 76 78  93 111 117  96 115 122  96 115 122  120 138 144  148 166 171  151 169 174  192 204 207  112 117 119  115 129 133  151 169 174  151 169 174  151 169 174  151 169 174  151 169 174  151 169 174  151 169 174  151 169 174  151 169 174  151 169 174  151 169 174  151 169 174  151 169 174  151 169 174  151 169 174  151 169 174  151 169 174  151 169 174  151 169 174  151 169 174  151 169 174  151 169 174  151 169 174  151 169 174  151 169 174  151 169 174  141 159 164  92 111 118  68 87 94  63 82 90  63 82 90  63 82 90  63 82 90  63 82 90  63 82 90  63 82 90  63 82 90  64 83 91  65 84 92  65 84 92  65 84 92  66 85 93  65 84 92  65 84 92  65 84 92  64 83 91  63 82 90  63 82 90  63 82 90  63 82 90  63 82 90
103 122 128  80 99 106  63 82 90  63 82 90  63 82 90  63 82 90  63 82 90  63 82 90  74 93 101  120 138 144  150 168 173  151 169 174  151 169 174  151 169 174  151 169 174  151 169 174  151 169 174  151 169 174  151 169 174  151 169 174  151 169 174  151 169 174  151 169 174  151 169 174  151 169 174  151 169 174  151 169 174  151 169 174  151 169 174  151 169 174  151 169 174  151 169 174  151 169 174  151 169 174  141 158 163  98 103 104  158 175 180  148 166 171  100 119 126  96 115 122  96 115 122  96 115 122  44 52 54  92 112 118  151 169 174  151 169 174  151 169 174  151 169 174  151 169 174  151 169 174  151 169 174  151 169 174  151 169 174  151 169 174  151 169 174  151 169 174  151 169 174  151 169 174  151 169 174  151 169 174  151 169 174  151 169 174  151 169 174  151 169 174  151 169 174  151 169 174  151 169 174  151 169 174  147 165 170  66 87 95  66 87 95  72 93 100  98 120 128  98 120 128  98 120 128  98 120 128  98 120 128  98 120 128  98 120 128  98 120 128  98 120 128  98 120 128  98 120 128  98 120 128  98 120 128  98 120 128  98 120 128  98 120 128  98 120 128  98 120 128  98 120 128  98 120 128  98 120 128  98 120 128  98 120 128  98 120 128  98 120 128  98 120 128  98 120 128  98 120 128  98 120 128  98 120 128  98 120 128  98 120 128  98 120 128  98 120 128  98 120 128  98 120 128  98 120 128  98 120 128  98 120 128  98 120 128  98 120 128  98 120 128  98 120 128  98 120 128  98 120 128  98 120 128  98 120 128  98 120 128  98 120 128  98 120 128  98 120 128  98 120 128  98 120 128  98 120 128  98 120 128  98 120 128  98 120 128  98 120 128  98 120 128  98 120 128  98 120 128  98 120 128  98 120 128  98 120 128  98 120 128  98 120 128  98 120 128  98 120 128  98 120 128  98 120 128  98 120 128  98 120 128  98 120 128  98 120 128  98 120 128  98 120 128  98 120 128  98 120 128  98 120 128  98 120 128  98 120 128  98 120 128  98 120 128  98 120 128  98 120 128  98 120 128  98 120 128  98 120 128  98 120 128  98 120 128  98 120 128  98 120 128  98 120 128  98 120 128  78 99 106  66 87 95  66 87 95  143 161 166  151 169 174  151 169 174  151 169 174  151 169 174  151 169 174  151 169 174  151 169 174  151 169 174  151 169 174  151 169 174  151 169 174  151 169 174  151 169 174  151 169 174  151 169 174  151 169 174  151 169 174  151 169 174  151 169 174  151 169 174  151 169 174  151 169 174  151 169 174  151 169 174  111 130 136  24 27 28  96 115 122  96 115 122  96 115 122  97 116 123  142 160 165  151 169 174  158 166 168  103 115 118  151 169 174  151 169 174  151 169 174  151 169 174  151 169 174  151 169 174  151 169 174  151 169 174  151 169 174  151 169 174  151 169 174  151 169 174  151 169 174  151 169 174  151 169 174  151 169 174  151 169 174  151 169 174  151 169 174  151 169 174  151 169 174  151 169 174  151 169 174  150 168 173  129 147 153  78 97 105  63 82 90  63 82 90  63 82 90  63 82 90  63 82 90  63 82 90  77 96 104  98 117 124  130 148 154  148 166 171  150 168 173  151 169 174  151 169 174  151 169 174  151 169 174  151 169 174  151 169 174  151 169 174  151 169 174  151 169 174  151 169 174  151 169 174  150 168 173  149 167 172  134 152 158  103 122 128
151 169 174  151 169 174  151 169 174  148 166 171  122 140 146  72 91 99  63 82 90  63 82 90  63 82 90  63 82 90  63 82 90  97 116 123  149 167 172  151 169 174  151 169 174  151 169 174  151 169 174  151 169 174  151 169 174  151 169 174  151 169 174  151 169 174  151 169 174  151 169 174  151 169 174  151 169 174  151 169 174  151 169 174  151 169 174  151 169 174  151 169 174  151 169 174  151 169 174  151 169 174  151 169 174  138 154 158  109 115 117  151 169 174  99 118 125  96 115 122  96 115 122  96 115 122  82 98 104  52 63 66  106 126 131  151 169 174  151 169 174  151 169 174  151 169 174  151 169 174  151 169 174  151 169 174  151 169 174  151 169 174  151 169 174  151 169 174  151 169 174  151 169 174  151 169 174  151 169 174  151 169 174  151 169 174  151 169 174  151 169 174  151 169 174  151 169 174  151 169 174  151 169 174  129 146 151  66 87 95  66 87 95  92 114 122  98 120 128  98 120 128  98 120 128  98 120 128  98 120 128  98 120 128  98 120 128  98 120 128  98 120 128  98 120 128  98 120 128  98 120 128  98 120 128  98 120 128  98 120 128  98 120 128  98 120 128  98 120 128  98 120 128  98 120 128  98 120 128  98 120 128  98 120 128  98 120 128  98 120 128  98 120 128  98 120 128  98 120 128  98 120 128  98 120 128  98 120 128  98 120 128  98 120 128  98 120 128  98 120 128  98 120 128  98 120 128  98 120 128  98 120 128  98 120 128  98 120 128  98 120 128  98 120 128  98 120 128  98 120 128  98 120 128  98 120 128  98 120 128  98 120 128  98 120 128  98 120 128  98 120 128  98 120 128  98 120 128  98 120 128  98 120 128  98 120 128  98 120 128  98 120 128  98 120 128  98 120 128  98 120 128  98 120 128  98 120 128  98 120 128  98 120 128  98 120 128  98 120 128  98 120 128  98 120 128  98 120 128  98 120 128  98 120 128  98 120 128  98 120 128  98 120 128  98 120 128  98 120 128  98 120 128  98 120 128  98 120 128  98 120 128  98 120 128  98 120 128  98 120 128  98 120 128  98 120 128  98 120 128  98 120 128  98 120 128  98 120 128  98 120 128  98 120 128  98 120 128  98 120 128  66 87 95  66 87 95  107 126 132  151 169 174  151 169 174  151 169 174  151 169 174  151 169 174  151 169 174  151 169 174  151 169 174  151 169 174  151 169 174  151 169 174  151 169 174  151 169 174  151 169 174  151 169 174  151 169 174  151 169 174  151 169 174  151 169 174  151 169 174  151 169 174  151 169 174  151 169 174  129 148 153  73 90 95  59 70 74  96 115 122  96 115 122  96 115 122  96 115 122  151 169 174  166 175 178  94 105 108  151 169 174  151 169 174  151 169 174  151 169 174  151 169 174  151 169 174  151 169 174  151 169 174  151 169 174  151 169 174  151 169 174  151 169 174  151 169 174  151 169 174  151 169 174  151 169 174  151 169 174  151 169 174  151 169 174  151 169 174  151 169 174  151 169 174  151 169 174  108 127 133  63 82 90  63 82 90  63 82 90  63 82 90  63 82 90  64 83 91  116 134 141  144 162 167  151 169 174  151 169 174  151 169 174  151 169 174  151 169 174  151 169 174  151 169 174  151 169 174  151 169 174  151 169 174  151 169 174  151 169 174  151 169 174  151 169 174  151 169 174  151 169 174  151 169 174  151 169 174  151 169 174  151 169 174  151 169 174
151 169 174  151 169 174  151 169 174  151 169 174  151 169 174  151 169 174  144 162 167  108 126 133  69 87 95  63 82 90  63 82 90  63 82 90  63 82 90  100 119 125  149 167 172  151 169 174  151 169 174  151 169 174  151 169 174  151 169 174  151 169 174  151 169 174  151 169 174  151 169 174  151 169 174  151 169 174  151 169 174  151 169 174  151 169 174  151 169 174  151 169 174  151 169 174  151 169 174  151 169 174  151 169 174  151 169 174  139 155 160  18 19 19  101 116 120  96 115 122  96 115 122  91 108 115  37 43 45  51 61 64  85 105 111  143 161 166  151 169 174  151 169 174  151 169 174  151 169 174  151 169 174  151 169 174  151 169 174  151 169 174  151 169 174  151 169 174  151 169 174  151 169 174  151 169 174  151 169 174  151 169 174  151 169 174  151 169 174  151 169 174  151 169 174  151 169 174  151 169 174  151 169 174  96 115 122  66 87 95  66 87 95  98 120 128  98 120 128  98 120 128  98 120 128  98 120 128  98 120 128  98 120 128  98 120 128  98 120 128  98 120 128  98 120 128  98 120 128  98 120 128  98 120 128  98 120 128  98 120 128  98 120 128  98 120 128  98 120 128  98 120 128  98 120 128  98 120 128  98 120 128  98 120 128  98 120 128  98 120 128  98 120 128  98 120 128  98 120 128  98 120 128  98 120 128  98 120 128  98 120 128  98 120 128  98 120 128  98 120 128  98 120 128  98 120 128  98 120 128  98 120 128  98 120 128  98 120 128  98 120 128  98 120 128  98 120 128  98 120 128  98 120 128  98 120 128  98 120 128  98 120 128  98 120 128  98 120 128  98 120 128  98 120 128  98 120 128  98 120 128  98 120 128  98 120 128  98 120 128  98 120 128  98 120 128  98 120 128  98 120 128  98 120 128  98 120 128  98 120 128  98 120 128  98 120 128  98 120 128  98 120 128  98 120 128  98 120 128  98 120 128  98 120 128  98 120 128  98 120 128  98 120 128  98 120 128  98 120 128  98 120 128  98 120 128  98 120 128  98 120 128  98 120 128  98 120 128  98 120 128  98 120 128  98 120 128  98 120 128  98 120 128  98 120 128  98 120 128  98 120 128  98 120 128  98 120 128  98 120 128  69 90 98  66 87 95  73 94 101  151 169 174  151 169 174  151 169 174  151 169 174  151 169 174  151 169 174  151 169 174  151 169 174  151 169 174  151 169 174  151 169 174  151 169 174  151 169 174  151 169 174  151 169 174  151 169 174  151 169 174  151 169 174  151 169 174  151 169 174  151 169 174  151 169 174  151 169 174  85 105 111  66 80 85  26 29 30  87 104 110  96 115 122  96 115 122  100 116 122  29 32 32  128 142 147  151 169 174  151 169 174  151 169 174  151 169 174  151 169 174  151 169 174  151 169 174  151 169 174  151 169 174  151 169 174  151 169 174  151 169 174  151 169 174  151 169 174  151 169 174  151 169 174  151 169 174  151 169 174  151 169 174  151 169 174  151 169 174  151 169 174  112 131 137  63 82 90  63 82 90  63 82 90  63 82 90  67 85 93  99 118 125  141 159 164  151 169 174  151 169 174  151 169 174  151 169 174  151 169 174  151 169 174  151 169 174  151 169 174  151 169 174  151 169 174  151 169 174  151 169 174  151 169 174  151 169 174  151 169 174  151 169 174  151 169 174  151 169 174  151 169 174  151 169 174  151 169 174  151 169 174  151 169 174  151 169 174
151 169 174  151 169 174  151 169 174  151 169 174  151 169 174  151 169 174  151 169 174  151 169 174  148 166 171  105 124 131  64 83 91  63 82 90  63 82 90  63 82 90  70 89 97  146 165 170  151 169 174  151 169 174  151 169 174  151 169 174  151 169 174  151 169 174  151 169 174  151 169 174  151 169 174  151 169 174  151 169 174  151 169 174  151 169 174  151 169 174  151 169 174  151 169 174  151 169 174  151 169 174  151 169 174  151 169 174  151 169 174  151 169 174  81 95 99  17 18 18  18 19 19  17 19 19  31 35 37  85 105 111  85 105 111  85 105 111  151 169 174  151 169 174  151 169 174  151 169 174  151 169 174  151 169 174  151 169 174  151 169 174  151 169 174  151 169 174  151 169 174  151 169 174  151 169 174  151 169 174  151 169 174  151 169 174  151 169 174  151 169 174  151 169 174  151 169 174  151 169 174  151 169 174  66 87 95  66 87 95  69 91 98  98 120 128  98 120 128  98 120 128  98 120 128  98 120 128  98 120 128  98 120 128  98 120 128  98 120 128  98 120 128  98 120 128  98 120 128  98 120 128  98 120 128  98 120 128  98 120 128  98 120 128  98 120 128  98 120 128  98 120 128  98 120 128  98 120 128  98 120 128  98 120 128  98 120 128  98 120 128  98 120 128  98 120 128  98 120 128  98 120 128  98 120 128  98 120 128  98 120 128  98 120 128  98 120 128  98 120 128  98 120 128  98 120 128  98 120 128  98 120 128  98 120 128  98 120 128  98 120 128  98 120 128  98 120 128  98 120 128  98 120 128  98 120 128  98 120 128  98 120 128  98 120 128  98 120 128  98 120 128  98 120 128  98 120 128  98 120 128  98 120 128  98 120 128  98 120 128  98 120 128  98 120 128  98 120 128  98 120 128  98 120 128  98 120 128  98 120 128  98 120 128  98 120 128  98 120 128  98 120 128  98 120 128  98 120 128  98 120 128  98 120 128  98 120 128  98 120 128  98 120 128  98 120 128  98 120 128  98 120 128  98 120 128  98 120 128  98 120 128  98 120 128  98 120 128  98 120 128  98 120 128  98 120 128  98 120 128  98 120 128  98 120 128  98 120 128  98 120 128  98 120 128  98 120 128  98 120 128  73 95 102  66 87 95  66 87 95  151 169 174  151 169 174  151 169 174  151 169 174  151 169 174  151 169 174  151 169 174  151 169 174  151 169 174  151 169 174  151 169 174  151 169 174  151 169 174  151 169 174  151 169 174  151 169 174  151 169 174  151 169 174  151 169 174  151 169 174  151 169 174  151 169 174  91 111 117  85 105 111  85 105 111  43 51 54  17 18 18  18 19 19  17 18 18  58 70 72  151 169 174  151 169 174  151 169 174  151 169 174  151 169 174  151 169 174  151 169 174  151 169 174  151 169 174  151 169 174  151 169 174  151 169 174  151 169 174  151 169 174  151 169 174  151 169 174  151 169 174  151 169 174  151 169 174  151 169 174  151 169 174  151 169 174  148 166 171  73 92 100  63 82 90  63 82 90  63 82 90  63 82 90  93 112 119  145 163 168  151 169 174  151 169 174  151 169 174  151 169 174  151 169 174  151 169 174  151 169 174  151 169 174  151 169 174  151 169 174  151 169 174  151 169 174  151 169 174  151 169 174  151 169 174  151 169 174  151 169 174  151 169 174  151 169 174  151 169 174  151 169 174  151 169 174  151 169 174  151 169 174  151 169 174  151 169 174
151 169 174  151 169 174  151 169 174  151 169 174  151 169 174  151 169 174  151 169 174  151 169 174  151 169 174  151 169 174  127 145 151  70 88 96  63 82 90  63 82 90  63 82 90  72 91 99  140 158 164  151 169 174  151 169 174  151 169 174  151 169 174  151 169 174  151 169 174  151 169 174  151 169 174  151 169 174  151 169 174  151 169 174  151 169 174  151 169 174  151 169 174  151 169 174  151 169 174  151 169 174  151 169 174  151 169 174  151 169 174  151 169 174  151 169 174  150 168 173  99 118 124  85 105 111  85 105 111  85 105 111  85 105 111  85 105 111  150 168 173  151 169 174  151 169 174  151 169 174  151 169 174  151 169 174  151 169 174  151 169 174  151 169 174  151 169 174  151 169 174  151 169 174  151 169 174  151 169 174  150 168 173  150 168 173  151 169 174  151 169 174  151 169 174  151 169 174  151 169 174  151 169 174  71 91 98  66 87 95  77 99 107  98 120 128  98 120 128  98 120 128  98 120 128  98 120 128  98 120 128  98 120 128  98 120 128  98 120 128  98 120 128  98 120 128  98 120 128  98 120 128  98 120 128  98 120 128  98 120 128  98 120 128  98 120 128  98 120 128  98 120 128  98 120 128  98 120 128  98 120 128  98 120 128  98 120 128  98 120 128  98 120 128  98 120 128  98 120 128  98 120 128  98 120 128  98 120 128  98 120 128  98 120 128  98 120 128  98 120 128  98 120 128  98 120 128  98 120 128  98 120 128  98 120 128  98 120 128  98 120 128  98 120 128  98 120 128  98 120 128  98 120 128  98 120 128  98 120 128  98 120 128  98 120 128  98 120 128  98 120 128  98 120 128  98 120 128  98 120 128  98 120 128  98 120 128  98 120 128  98 120 128  98 120 128  98 120 128  98 120 128  98 120 128  98 120 128  98 120 128  98 120 128  98 120 128  98 120 128  98 120 128  98 120 128  98 120 128  98 120 128  98 120 128  98 120 128  98 120 128  98 120 128  98 120 128  98 120 128  98 120 128  98 120 128  98 120 128  98 120 128  98 120 128  98 120 128  98 120 128  98 120 128  98 120 128  98 120 128  98 120 128  98 120 128  98 120 128  98 120 128  98 120 128  98 120 128  98 120 128  87 109 117  66 87 95  66 87 95  151 169 174  151 169 174  151 169 174  151 169 174  151 169 174  151 169 174  150 168 174  149 167 172  151 169 174  151 169 174  151 169 174  151 169 174  151 169 174  151 169 174  151 169 174  151 169 174  151 169 174  151 169 174  151 169 174  151 169 174  151 169 174  151 169 174  85 105 111  85 105 111  85 105 111  85 105 111  85 105 111  89 109 115  148 166 172  151 169 174  151 169 174  151 169 174  151 169 174  151 169 174  151 169 174  151 169 174  151 169 174  151 169 174  151 169 174  151 169 174  151 169 174  151 169 174  151 169 174  151 169 174  151 169 174  151 169 174  151 169 174  151 169 174  151 169 174  151 169 174  151 169 174  144 162 167  77 96 104  63 82 90  63 82 90  63 82 90  68 86 94  119 137 143  151 169 174  151 169 174  151 169 174  151 169 174  151 169 174  151 169 174  151 169 174  151 169 174  151 169 174  151 169 174  151 169 174  151 169 174  151 169 174  151 169 174  151 169 174  151 169 174  151 169 174  151 169 174  151 169 174  151 169 174  151 169 174  151 169 174  151 169 174  151 169 174  151 169 174  151 169 174  151 169 174  151 169 174
151 169 174  151 169 174  151 169 174  151 169 174  151 169 174  151 169 174  151 169 174  151 169 174  151 169 174  151 169 174  151 169 174  134 152 157  75 93 101  63 82 90  63 82 90  63 82 90  78 97 105  147 165 170  151 169 174  151 169 174  151 169 174  151 169 174  151 169 174  151 169 174  151 169 174  151 169 174  151 169 174  151 169 174  151 169 174  151 169 174  151 169 174  151 169 174  151 169 174  151 169 174  151 169 174  151 169 174  151 169 174  151 169 174  151 169 174  151 169 174  151 169 174  151 169 174  107 126 132  85 105 111  85 105 111  89 109 115  150 168 173  151 169 174  151 169 174  151 169 174  151 169 174  151 169 174  151 169 174  151 169 174  151 169 174  151 169 174  151 169 174  151 169 174  143 162 167  131 152 158  130 151 157  147 165 170  151 169 174  151 169 174  151 169 174  151 169 174  151 169 174  151 169 174  66 87 95  66 87 95  81 102 110  98 120 128  98 120 128  98 120 128  98 120 128  98 120 128  98 120 128  98 120 128  98 120 128  98 120 128  98 120 128  98 120 128  98 120 128  98 120 128  98 120 128  98 120 128  98 120 128  98 120 128  98 120 128  98 120 128  98 120 128  98 120 128  98 120 128  98 120 128  98 120 128  98 120 128  98 120 128  98 120 128  98 120 128  98 120 128  98 120 128  98 120 128  98 120 128  98 120 128  98 120 128  98 120 128  98 120 128  98 120 128  98 120 128  98 120 128  98 120 128  98 120 128  98 120 128  98 120 128  98 120 128  98 120 128  98 120 128  98 120 128  98 120 128  98 120 128  98 120 128  98 120 128  98 120 128  98 120 128  98 120 128  98 120 128  98 120 128  98 120 128  98 120 128  98 120 128  98 120 128  98 120 128  98 120 128  98 120 128  98 120 128  98 120 128  98 120 128  98 120 128  98 120 128  98 120 128  98 120 128  98 120 128  98 120 128  98 120 128  98 120 128  98 120 128  98 120 128  98 120 128  98 120 128  98 120 128  98 120 128  98 120 128  98 120 128  98 120 128  98 120 128  98 120 128  98 120 128  98 120 128  98 120 128  98 120 128  98 120 128  98 120 128  98 120 128  98 120 128  98 120 128  98 120 128  98 120 128  89 110 118  66 87 95  66 87 95  151 169 174  151 169 174  151 169 174  151 169 174  151 169 174  151 169 174  149 167 172  130 151 157  130 151 157  141 160 166  150 168 173  151 169 174  151 169 174  151 169 174  151 169 174  151 169 174  151 169 174  151 169 174  151 169 174  151 169 174  151 169 174  151 169 174  92 112 118  85 105 111  85 105 111  103 122 128  148 166 172  151 169 174  151 169 174  151 169 174  151 169 174  151 169 174  151 169 174  151 169 174  151 169 174  151 169 174  151 169 174  151 169 174  151 169 174  151 169 174  151 169 174  151 169 174  151 169 174  151 169 174  151 169 174  151 169 174  151 169 174  151 169 174  151 169 174  151 169 174  149 167 172  87 106 113  63 82 90  63 82 90  63 82 90  70 88 96  126 144 150  151 169 174  151 169 174  151 169 174  151 169 174  151 169 174  151 169 174  151 169 174  151 169 174  151 169 174  151 169 174  151 169 174  151 169 174  151 169 174  151 169 174  151 169 174  151 169 174  151 169 174  151 169 174  151 169 174  151 169 174  151 169 174  151 169 174  151 169 174  151 169 174  151 169 174  151 169 174  151 169 174  151 169 174  151 169 174
151 169 174  151 169 174  151 169 174  151 169 174  151 169 174  151 169 174  151 169 174  151 169 174  151 169 174  151 169 174  151 169 174  151 169 174  113 132 138  63 82 90  63 82 90  63 82 90  63 82 90  111 129 135  151 169 174  151 169 174  151 169 174  151 169 174  151 169 174  151 169 174  151 169 174  151 169 174  151 169 174  151 169 174  151 169 174  151 169 174  151 169 174  151 169 174  151 169 174  151 169 174  151 169 174  151 169 174  151 169 174  151 169 174  151 169 174  151 169 174  151 169 174  151 169 174  151 169 174  151 169 174  151 169 174  151 169 174  151 169 174  151 169 174  151 169 174  151 169 174  151 169 174  151 169 174  151 169 174  151 169 174  151 169 174  148 167 172  134 154 160  130 151 157  130 151 157  130 151 157  130 151 157  138 158 164  151 169 174  151 169 174  151 169 174  151 169 174  151 169 174  151 169 174  69 89 97  66 87 95  83 104 112  98 120 128  98 120 128  98 120 128  98 120 128  98 120 128  98 120 128  98 120 128  98 120 128  98 120 128  98 120 128  98 120 128  98 120 128  98 120 128  98 120 128  98 120 128  98 120 128  98 120 128  98 120 128  98 120 128  98 120 128  98 120 128  98 120 128  98 120 128  98 120 128  98 120 128  98 120 128  98 120 128  98 120 128  98 120 128  98 120 128  98 120 128  98 120 128  98 120 128  98 120 128  98 120 128  98 120 128  98 120 128  98 120 128  98 120 128  98 120 128  98 120 128  98 120 128  98 120 128  98 120 128  98 120 128  98 120 128  98 120 128  98 120 128  98 120 128  98 120 128  98 120 128  98 120 128  98 120 128  98 120 128  98 120 128  98 120 128  98 120 128  98 120 128  98 120 128  98 120 128  98 120 128  98 120 128  98 120 128  98 120 128  98 120 128  98 120 128  98 120 128  98 120 128  98 120 128  98 120 128  98 120 128  98 120 128  98 120 128  98 120 128  98 120 128  98 120 128  98 120 128  98 120 128  98 120 128  98 120 128  98 120 128  98 120 128  98 120 128  98 120 128  98 120 128  98 120 128  98 120 128  98 120 128  98 120 128  98 120 128  98 120 128  98 120 128  98 120 128  98 120 128  98 120 128  98 120 128  91 112 120  66 87 95  66 87 95  151 169 174  151 169 174  151 169 174  151 169 174  151 169 174  151 169 174  143 162 168  130 151 157  130 151 157  130 151 157  130 151 157  132 153 159  147 166 171  151 169 174  151 169 174  151 169 174  151 169 174  151 169 174  151 169 174  151 169 174  151 169 174  151 169 174  151 169 174  151 169 174  151 169 174  151 169 174  151 169 174  151 169 174  151 169 174  151 169 174  151 169 174  151 169 174  151 169 174  151 169 174  151 169 174  151 169 174  151 169 174  151 169 174  151 169 174  151 169 174  151 169 174  151 169 174  151 169 174  151 169 174  151 169 174  151 169 174  151 169 174  151 169 174  151 169 174  151 169 174  126 144 149  63 82 90  63 82 90  63 82 90  63 82 90  102 120 127  149 167 172  151 169 174  151 169 174  151 169 174  151 169 174  151 169 174  151 169 174  151 169 174  151 169 174  151 169 174  151 169 174  151 169 174  151 169 174  151 169 174  151 169 174  151 169 174  151 169 174  151 169 174  151 169 174  151 169 174  151 169 174  151 169 174  151 169 174  151 169 174  151 169 174  151 169 174  151 169 174  151 169 174  151 169 174  151 169 174
151 169 174  151 169 174  151 169 174  151 169 174  151 169 174  151 169 174  151 169 174  151 169 174  151 169 174  151 169 174  151 169 174  151 169 174  138 157 162  73 92 100  63 82 90  63 82 90  63 82 90  74 93 101  130 151 157  130 151 157  130 151 157  130 151 157  130 151 157  130 151 157  130 151 157  131 152 158  132 153 159  133 154 159  135 155 161  136 156 162  137 157 163  138 158 164  139 158 164  139 159 164  141 160 165  141 161 166  142 162 167  142 162 167  144 162 168  145 164 169  146 165 170  147 166 171  147 166 171  147 166 171  148 166 171  148 166 171  148 166 171  148 166 171  148 166 171  148 166 171  147 166 171  144 163 169  139 159 165  132 153 159  130 151 157  130 151 157  130 151 157  130 151 157  130 151 157  130 151 157  130 151 157  132 152 158  151 169 174  151 169 174  151 169 174  151 169 174  151 169 174  151 169 174  72 92 99  66 87 95  78 100 107  98 120 128  98 120 128  98 120 128  98 120 128  98 120 128  98 120 128  98 120 128  98 120 128  98 120 128  98 120 128  98 120 128  98 120 128  98 120 128  98 120 128  98 120 128  98 120 128  98 120 128  98 120 128  98 120 128  98 120 128  98 120 128  98 120 128  98 120 128  98 120 128  98 120 128  98 120 128  98 120 128  98 120 128  98 120 128  98 120 128  98 120 128  98 120 128  98 120 128  98 120 128  98 120 128  98 120 128  98 120 128  98 120 128  98 120 128  98 120 128  98 120 128  98 120 128  98 120 128  98 120 128  98 120 128  98 120 128  98 120 128  98 120 128  98 120 128  98 120 128  98 120 128  98 120 128  98 120 128  98 120 128  98 120 128  98 120 128  98 120 128  98 120 128  98 120 128  98 120 128  98 120 128  98 120 128  98 120 128  98 120 128  98 120 128  98 120 128  98 120 128  98 120 128  98 120 128  98 120 128  98 120 128  98 120 128  98 120 128  98 120 128  98 120 128  98 120 128  98 120 128  98 120 128  98 120 128  98 120 128  98 120 128  98 120 128  98 120 128  98 120 128  98 120 128  98 120 128  98 120 128  98 120 128  98 120 128  98 120 128  98 120 128  98 120 128  98 120 128  98 120 128  98 120 128  98 120 128  89 111 119  66 87 95  67 87 95  151 169 174  151 169 174  151 169 174  151 169 174  151 169 174  151 169 174  134 154 160  130 151 157  130 151 157  130 151 157  130 151 157  130 151 157  130 151 157  130 151 157  131 152 158  139 158 164  144 163 168  147 166 171  148 166 171  148 166 171  148 166 171  148 166 171  148 166 171  148 166 171  147 166 171  147 166 171  147 166 171  146 165 170  145 164 169  144 162 168  143 162 167  142 162 167  141 161 166  141 160 165  139 160 165  139 159 164  138 158 164  137 157 163  136 156 162  135 155 161  133 154 159  132 153 159  131 152 158  130 151 157  130 151 157  130 151 157  130 151 157  130 151 157  130 151 157  130 151 157  84 104 111  63 82 90  63 82 90  63 82 90  69 88 96  134 153 158  151 169 174  151 169 174  151 169 174  151 169 174  151 169 174  151 169 174  151 169 174  151 169 174  151 169 174  151 169 174  151 169 174  151 169 174  151 169 174  151 169 174  151 169 174  151 169 174  151 169 174  151 169 174  151 169 174  151 169 174  151 169 174  151 169 174  151 169 174  151 169 174  151 169 174  151 169 174  151 169 174  151 169 174  151 169 174  151 169 174
151 169 174  151 169 174  151 169 174  151 169 174  151 169 174  151 169 174  151 169 174  151 169 174  151 169 174  151 169 174  151 169 174  151 169 174  142 160 165  79 98 105  63 82 90  63 82 90  63 82 90  71 90 98  126 147 153  130 151 157  130 151 157  130 151 157  130 151 157  130 151 157  130 151 157  130 151 157  130 151 157  130 151 157  130 151 157  130 151 157  130 151 157  130 151 157  130 151 157  130 151 157  130 151 157  130 151 157  130 151 157  130 151 157  130 151 157  130 151 157  130 151 157  130 151 157  130 151 157  130 151 157  130 151 157  130 151 157  130 151 157  130 151 157  130 151 157  130 151 157  130 151 157  130 151 157  130 151 157  130 151 157  130 151 157  130 151 157  130 151 157  130 151 157  130 151 157  130 151 157  130 151 157  130 151 157  151 169 174  151 169 174  151 169 174  151 169 174  151 169 174  151 169 174  87 105 111  66 87 95  69 90 97  98 120 128  98 120 128  98 120 128  98 120 128  98 120 128  98 120 128  98 120 128  98 120 128  98 120 128  98 120 128  98 120 128  98 120 128  98 120 128  98 120 128  98 120 128  98 120 128  98 120 128  98 120 128  98 120 128  98 120 128  98 120 128  98 120 128  98 120 128  98 120 128  98 120 128  98 120 128  98 120 128  98 120 128  98 120 128  98 120 128  98 120 128  98 120 128  98 120 128  98 120 128  98 120 128  98 120 128  98 120 128  98 120 128  98 120 128  98 120 128  98 120 128  98 120 128  98 120 128  98 120 128  98 120 128  98 120 128  98 120 128  98 120 128  98 120 128  98 120 128  98 120 128  98 120 128  98 120 128  98 120 128  98 120 128  98 120 128  98 120 128  98 120 128  98 120 128  98 120 128  98 120 128  98 120 128  98 120 128  98 120 128  98 120 128  98 120 128  98 120 128  98 120 128  98 120 128  98 120 128  98 120 128  98 120 128  98 120 128  98 120 128  98 120 128  98 120 128  98 120 128  98 120 128  98 120 128  98 120 128  98 120 128  98 120 128  98 120 128  98 120 128  98 120 128  98 120 128  98 120 128  98 120 128  98 120 128  98 120 128  98 120 128  98 120 128  98 120 128  98 120 128  98 120 128  98 120 128  80 101 108  66 87 95  74 94 100  151 169 174  151 169 174  151 169 174  151 169 174  151 169 174  151 169 174  130 151 157  130 151 157  130 151 157  130 151 157  130 151 157  130 151 157  130 151 157  130 151 157  130 151 157  130 151 157  130 151 157  130 151 157  130 151 157  130 151 157  130 151 157  130 151 157  130 151 157  130 151 157  130 151 157  130 151 157  130 151 157  130 151 157  130 151 157  130 151 157  130 151 157  130 151 157  130 151 157  130 151 157  130 151 157  130 151 157  130 151 157  130 151 157  130 151 157  130 151 157  130 151 157  130 151 157  130 151 157  130 151 157  130 151 157  130 151 157  130 151 157  130 151 157  130 151 157  130 151 157  75 94 102  63 82 90  63 82 90  63 82 90  68 87 95  136 154 160  151 169 174  151 169 174  151 169 174  151 169 174  151 169 174  151 169 174  151 169 174  151 169 174  151 169 174  151 169 174  151 169 174  151 169 174  151 169 174  151 169 174  151 169 174  151 169 174  151 169 174  151 169 174  151 169 174  151 169 174  151 169 174  151 169 174  151 169 174  151 169 174  151 169 174  151 169 174  151 169 174  151 169 174  151 169 174  151 169 174
151 169 174  151 169 174  151 169 174  151 169 174  151 169 174  151 169 174  151 169 174  151 169 174  151 169 174  151 169 174  151 169 174  151 169 174  130 148 154  68 87 95  63 82 90  63 82 90  63 82 90  76 95 103  127 148 154  130 151 157  130 151 157  130 151 157  130 151 157  130 151 157  130 151 157  130 151 157  130 151 157  130 151 157  130 151 157  130 151 157  130 151 157  130 151 157  130 151 157  130 151 157  130 151 157  130 151 157  130 151 157  130 151 157  130 151 157  130 151 157  130 151 157  130 151 157  130 151 157  130 151 157  130 151 157  130 151 157  130 151 157  130 151 157  130 151 157  130 151 157  130 151 157  130 151 157  130 151 157  130 151 157  130 151 157  130 151 157  130 151 157  130 151 157  130 151 157  130 151 157  130 151 157  130 151 157  145 164 169  151 169 174  151 169 174  151 169 174  151 169 174  151 169 174  119 136 141  66 87 95  67 88 96  98 120 128  98 120 128  98 120 128  98 120 128  98 120 128  98 120 128  98 120 128  98 120 128  98 120 128  98 120 128  98 120 128  98 120 128  98 120 128  98 120 128  98 120 128  98 120 128  98 120 128  98 120 128  98 120 128  98 120 128  98 120 128  98 120 128  98 120 128  98 120 128  98 120 128  98 120 128  98 120 128  98 120 128  98 120 128  98 120 128  98 120 128  98 120 128  98 120 128  98 120 128  98 120 128  98 120 128  98 120 128  98 120 128  98 120 128  98 120 128  98 120 128  98 120 128  98 120 128  98 120 128  98 120 128  98 120 128  98 120 128  98 120 128  98 120 128  98 120 128  98 120 128  98 120 128  98 120 128  98 120 128  98 120 128  98 120 128  98 120 128  98 120 128  98 120 128  98 120 128  98 120 128  98 120 128  98 120 128  98 120 128  98 120 128  98 120 128  98 120 128  98 120 128  98 120 128  98 120 128  98 120 128  98 120 128  98 120 128  98 120 128  98 120 128  98 120 128  98 120 128  98 120 128  98 120 128  98 120 128  98 120 128  98 120 128  98 120 128  98 120 128  98 120 128  98 120 128  98 120 128  98 120 128  98 120 128  98 120 128  98 120 128  98 120 128  98 120 128  98 120 128  98 120 128  98 120 128  68 89 97  66 87 95  96 113 119  151 169 174  151 169 174  151 169 174  151 169 174  151 169 174  149 167 173  130 151 157  130 151 157  130 151 157  130 151 157  130 151 157  130 151 157  130 151 157  130 151 157  130 151 157  130 151 157  130 151 157  130 151 157  130 151 157  130 151 157  130 151 157  130 151 157  130 151 157  130 151 157  130 151 157  130 151 157  130 151 157  130 151 157  130 151 157  130 151 157  130 151 157  130 151 157  130 151 157  130 151 157  130 151 157  130 151 157  130 151 157  130 151 157  130 151 157  130 151 157  130 151 157  130 151 157  130 151 157  130 151 157  130 151 157  130 151 157  130 151 157  130 151 157  130 151 157  129 150 156  83 103 110  63 82 90  63 82 90  63 82 90  66 85 93  122 140 147  150 168 173  151 169 174  151 169 174  151 169 174  151 169 174  151 169 174  151 169 174  151 169 174  151 169 174  151 169 174  151 169 174  151 169 174  151 169 174  151 169 174  151 169 174  151 169 174  151 169 174  151 169 174  151 169 174  151 169 174  151 169 174  151 169 174  151 169 174  151 169 174  151 169 174  151 169 174  151 169 174  151 169 174  151 169 174  151 169 174
151 169 174  151 169 174  151 169 174  151 169 174  151 169 174  151 169 174  151 169 174  151 169 174  151 169 174  151 169 174  151 169 174  144 162 167  96 114 121  64 83 91  63 82 90  63 82 90  63 82 90  96 116 123  130 151 157  130 151 157  130 151 157  130 151 157  130 151 157  130 151 157  130 151 157  130 151 157  130 151 157  130 151 157  130 151 157  130 151 157  130 151 157  130 151 157  133 153 159  136 156 162  138 158 164  141 160 166  142 161 167  142 162 167  142 161 167  140 160 165  136 156 162  130 151 157  130 151 157  130 151 157  130 151 157  130 151 157  130 151 157  130 151 157  130 151 157  130 151 157  130 151 157  130 151 157  130 151 157  130 151 157  130 151 157  130 151 157  130 151 157  130 151 157  130 151 157  130 151 157  130 151 157  139 159 164  144 162 167  151 169 174  151 169 174  151 169 174  151 169 174  151 169 174  151 169 174  66 87 95  66 87 95  97 119 127  98 120 128  98 120 128  98 120 128  98 120 128  98 120 128  98 120 128  98 120 128  98 120 128  98 120 128  98 120 128  98 120 128  98 120 128  98 120 128  98 120 128  98 120 128  98 120 128  98 120 128  98 120 128  98 120 128  98 120 128  98 120 128  98 120 128  98 120 128  98 120 128  98 120 128  98 120 128  98 120 128  98 120 128  98 120 128  98 120 128  98 120 128  98 120 128  98 120 128  98 120 128  98 120 128  98 120 128  98 120 128  98 120 128  98 120 128  98 120 128  98 120 128  98 120 128  98 120 128  98 120 128  98 120 128  98 120 128  98 120 128  98 120 128  98 120 128  98 120 128  98 120 128  98 120 128  98 120 128  98 120 128  98 120 128  98 120 128  98 120 128  98 120 128  98 120 128  98 120 128  98 120 128  98 120 128  98 120 128  98 120 128  98 120 128  98 120 128  98 120 128  98 120 128  98 120 128  98 120 128  98 120 128  98 120 128  98 120 128  98 120 128  98 120 128  98 120 128  98 120 128  98 120 128  98 120 128  98 120 128  98 120 128  98 120 128  98 120 128  98 120 128  98 120 128  98 120 128  98 120 128  98 120 128  98 120 128  98 120 128  98 120 128  98 120 128  98 120 128  98 120 128  98 120 128  66 87 95  66 87 95  137 154 159  151 169 174  151 169 174  151 169 174  151 169 174  151 169 174  143 161 166  140 160 166  131 152 158  130 151 157  130 151 157  130 151 157  130 151 157  130 151 157  130 151 157  130 151 157  130 151 157  130 151 157  130 151 157  130 151 157  130 151 157  130 151 157  130 151 157  130 151 157  130 151 157  130 151 157  130 151 157  130 151 157  135 155 161  140 159 165  142 161 167  142 162 167  142 161 167  141 160 166  139 158 164  137 157 163  134 154 160  130 151 157  130 151 157  130 151 157  130 151 157  130 151 157  130 151 157  130 151 157  130 151 157  130 151 157  130 151 157  130 151 157  130 151 157  130 151 157  130 151 157  104 124 131  63 82 90  63 82 90  63 82 90  63 82 90  89 107 114  141 159 165  151 169 174  151 169 174  151 169 174  151 169 174  151 169 174  151 169 174  151 169 174  151 169 174  151 169 174  151 169 174  151 169 174  151 169 174  151 169 174  151 169 174  151 169 174  151 169 174  151 169 174  151 169 174  151 169 174  151 169 174  151 169 174  151 169 174  151 169 174  151 169 174  151 169 174  151 169 174  151 169 174  151 169 174  151 169 174
151 169 174  151 169 174  151 169 174  151 169 174  151 169 174  151 169 174  151 169 174  151 169 174  151 169 174  151 169 174  145 163 168  87 105 112  64 83 91  63 82 90  63 82 90  63 82 90  74 93 100  145 163 168  151 169 174  151 169 174  151 169 174  151 169 174  151 169 174  151 169 174  151 169 174  151 169 174  151 169 174  151 169 174  151 169 174  151 169 174  151 169 174  151 169 174  151 169 174  151 169 174  151 169 174  151 169 174  151 169 174  151 169 174  151 169 174  151 169 174  151 169 174  151 169 174  151 169 174  151 169 174  151 169 174  151 169 174  151 169 174  151 169 174  151 169 174  151 169 174  151 169 174  151 169 174  150 169 174  149 167 173  142 161 166  131 152 158  130 151 157  139 159 164  149 168 173  151 169 174  151 169 174  151 169 174  151 169 174  151 169 174  151 169 174  151 169 174  151 169 174  151 169 174  151 169 174  67 88 96  66 87 95  85 107 114  98 120 128  98 120 128  98 120 128  98 120 128  98 120 128  98 120 128  98 120 128  98 120 128  98 120 128  98 120 128  98 120 128  98 120 128  98 120 128  98 120 128  98 120 128  98 120 128  98 120 128  98 120 128  98 120 128  98 120 128  98 120 128  98 120 128  98 120 128  98 120 128  98 120 128  98 120 128  98 120 128  98 120 128  98 120 128  98 120 128  98 120 128  98 120 128  98 120 128  98 120 128  98 120 128  98 120 128  98 120 128  98 120 128  98 120 128  98 120 128  98 120 128  98 120 128  98 120 128  98 120 128  98 120 128  98 120 128  98 120 128  98 120 128  98 120 128  98 120 128  98 120 128  98 120 128  98 120 128  98 120 128  98 120 128  98 120 128  98 120 128  98 120 128  98 120 128  98 120 128  98 120 128  98 120 128  98 120 128  98 120 128  98 120 128  98 120 128  98 120 128  98 120 128  98 120 128  98 120 128  98 120 128  98 120 128  98 120 128  98 120 128  98 120 128  98 120 128  98 120 128  98 120 128  98 120 128  98 120 128  98 120 128  98 120 128  98 120 128  98 120 128  98 120 128  98 120 128  98 120 128  98 120 128  98 120 128  98 120 128  98 120 128  98 120 128  98 120 128  98 120 128  93 115 122  66 87 95  66 87 95  151 169 174  151 169 174  151 169 174  151 169 174  151 169 174  151 169 174  149 167 172  151 169 174  151 169 174  151 169 174  150 168 173  141 161 166  130 151 157  130 151 157  140 160 165  149 167 172  150 168 173  151 169 174  151 169 174  151 169 174  151 169 174  151 169 174  151 169 174  151 169 174  151 169 174  151 169 174  151 169 174  151 169 174  151 169 174  151 169 174  151 169 174  151 169 174  151 169 174  151 169 174  151 169 174  151 169 174  151 169 174  151 169 174  151 169 174  151 169 174  151 169 174  151 169 174  151 169 174  151 169 174  151 169 174  151 169 174  151 169 174  151 169 174  151 169 174  151 169 174  151 169 174  148 166 171  85 104 112  63 82 90  63 82 90  63 82 90  64 83 91  82 101 108  140 158 163  151 169 174  151 169 174  151 169 174  151 169 174  151 169 174  151 169 174  151 169 174  151 169 174  151 169 174  151 169 174  151 169 174  151 169 174  151 169 174  151 169 174  151 169 174  151 169 174  151 169 174  151 169 174  151 169 174  151 169 174  151 169 174  151 169 174  151 169 174  151 169 174  151 169 174  151 169 174  151 169 174  151 169 174
151 169 174  151 169 174  151 169 174  151 169 174  151 169 174  151 169 174  151 169 174  150 168 173  138 156 162  110 129 135  68 87 95  63 82 90  63 82 90  63 82 90  63 82 90  80 98 106  145 163 168  151 169 174  151 169 174  151 169 174  151 169 174  151 169 174  151 169 174  151 169 174  151 169 174  151 169 174  151 169 174  151 169 174  151 169 174  151 169 174  151 169 174  151 169 174  151 169 174  151 169 174  151 169 174  151 169 174  151 169 174  151 169 174  151 169 174  151 169 174  151 169 174  151 169 174  151 169 174  151 169 174  151 169 174  151 169 174  151 169 174  151 169 174  151 169 174  151 169 174  151 169 174  151 169 174  151 169 174  151 169 174  151 169 174  151 169 174  151 169 174  151 169 174  151 169 174  151 169 174  151 169 174  151 169 174  151 169 174  135 154 159  151 169 174  151 169 174  151 169 174  151 169 174  151 169 174  119 136 141  66 87 95  67 88 96  98 120 128  98 120 128  98 120 128  98 120 128  98 120 128  98 120 128  98 120 128  98 120 128  98 120 128  98 120 128  98 120 128  98 120 128  98 120 128  98 120 128  98 120 128  98 120 128  98 120 128  98 120 128  98 120 128  98 120 128  98 120 128  98 120 128  98 120 128  98 120 128  98 120 128  98 120 128  98 120 128  98 120 128  98 120 128  98 120 128  98 120 128  98 120 128  98 120 128  98 120 128  98 120 128  98 120 128  98 120 128  98 120 128  98 120 128  98 120 128  98 120 128  98 120 128  98 120 128  98 120 128  98 120 128  98 120 128  98 120 128  98 120 128  98 120 128  98 120 128  98 120 128  98 120 128  98 120 128  98 120 128  98 120 128  98 120 128  98 120 128  98 120 128  98 120 128  98 120 128  98 120 128  98 120 128  98 120 128  98 120 128  98 120 128  98 120 128  98 120 128  98 120 128  98 120 128  98 120 128  98 120 128  98 120 128  98 120 128  98 120 128  98 120 128  98 120 128  98 120 128  98 120 128  98 120 128  98 120 128  98 120 128  98 120 128  98 120 128  98 120 128  98 120 128  98 120 128  98 120 128  98 120 128  98 120 128  98 120 128  98 120 128  98 120 128  98 120 128  98 120 128  71 93 100  66 87 95  89 107 112  151 169 174  151 169 174  151 169 174  151 169 174  151 169 174  148 166 171  151 169 174  151 169 174  151 169 174  151 169 174  151 169 174  151 169 174  151 169 174  151 169 174  151 169 174  151 169 174  151 169 174  151 169 174  151 169 174  151 169 174  151 169 174  151 169 174  151 169 174  151 169 174  151 169 174  151 169 174  151 169 174  151 169 174  151 169 174  151 169 174  151 169 174  151 169 174  151 169 174  151 169 174  151 169 174  151 169 174  151 169 174  151 169 174  151 169 174  151 169 174  151 169 174  151 169 174  151 169 174  151 169 174  151 169 174  151 169 174  151 169 174  151 169 174  151 169 174  151 169 174  151 169 174  151 169 174  147 165 170  85 103 111  63 82 90  63 82 90  63 82 90  63 82 90  64 83 91  103 122 129  136 154 160  150 168 173  151 169 174  151 169 174  151 169 174  151 169 174  151 169 174  151 169 174  151 169 174  151 169 174  151 169 174  151 169 174  151 169 174  151 169 174  151 169 174  151 169 174  151 169 174  151 169 174  151 169 174  151 169 174  151 169 174  151 169 174  151 169 174  151 169 174  151 169 174  151 169 174  151 169 174
151 169 174  151 169 174  151 169 174  151 169 174  138 157 162  113 132 138  86 105 113  72 91 99  64 83 91  63 82 90  63 82 90  63 82 90  63 82 90  65 84 92  117 136 142  148 166 171  151 169 174  151 169 174  151 169 174  151 169 174  151 169 174  151 169 174  151 169 174  151 169 174  151 169 174  151 169 174  151 169 174  151 169 174  151 169 174  151 169 174  151 169 174  151 169 174  151 169 174  151 169 174  151 169 174  151 169 174  151 169 174  151 169 174  151 169 174  151 169 174  151 169 174  151 169 174  151 169 174  151 169 174  151 169 174  151 169 174  151 169 174  151 169 174  151 169 174  151 169 174  151 169 174  151 169 174  151 169 174  151 169 174  151 169 174  151 169 174  151 169 174  151 169 174  151 169 174  151 169 174  151 169 174  151 169 174  151 169 174  139 157 163  151 169 174  151 169 174  151 169 174  151 169 174  151 169 174  151 169 174  66 87 94  66 87 95  93 116 123  98 120 128  98 120 128  98 120 128  98 120 128  98 120 128  98 120 128  98 120 128  98 120 128  98 120 128  98 120 128  98 120 128  98 120 128  98 120 128  98 120 128  98 120 128  98 120 128  98 120 128  98 120 128  98 120 128  98 120 128  98 120 128  98 120 128  98 120 128  98 120 128  98 120 128  98 120 128  98 120 128  98 120 128  98 120 128  98 120 128  98 120 128  98 120 128  98 120 128  98 120 128  98 120 128  98 120 128  98 120 128  98 120 128  98 120 128  98 120 128  98 120 128  98 120 128  98 120 128  98 120 128  98 120 128  98 120 128  98 120 128  98 120 128  98 120 128  98 120 128  98 120 128  98 120 128  98 120 128  98 120 128  98 120 128  98 120 128  98 120 128  98 120 128  98 120 128  98 120 128  98 120 128  98 120 128  98 120 128  98 120 128  98 120 128  98 120 128  98 120 128  98 120 128  98 120 128  98 120 128  98 120 128  98 120 128  98 120 128  98 120 128  98 120 128  98 120 128  98 120 128  98 120 128  98 120 128  98 120 128  98 120 128  98 120 128  98 120 128  98 120 128  98 120 128  98 120 128  98 120 128  98 120 128  98 120 128  98 120 128  98 120 128  98 120 128  96 118 126  66 87 95  66 87 95  148 166 171  151 169 174  151 169 174  151 169 174  151 169 174  151 169 174  116 135 141  151 169 174  151 169 174  151 169 174  151 169 174  151 169 174  151 169 174  151 169 174  151 169 174  151 169 174  151 169 174  151 169 174  151 169 174  151 169 174  151 169 174  151 169 174  151 169 174  151 169 174  151 169 174  151 169 174  151 169 174  151 169 174  151 169 174  151 169 174  151 169 174  151 169 174  151 169 174  151 169 174  151 169 174  151 169 174  151 169 174  151 169 174  151 169 174  151 169 174  151 169 174  151 169 174  151 169 174  151 169 174  151 169 174  151 169 174  151 169 174  151 169 174  151 169 174  151 169 174  151 169 174  151 169 174  151 169 174  151 169 174  150 168 173  124 143 148  71 90 97  63 82 90  63 82 90  63 82 90  63 82 90  63 82 90  71 90 97  83 102 110  109 127 134  136 154 159  150 168 173  151 169 174  151 169 174  151 169 174  151 169 174  151 169 174  151 169 174  151 169 174  151 169 174  151 169 174  151 169 174  151 169 174  151 169 174  151 169 174  151 169 174  151 169 174  151 169 174  151 169 174  151 169 174  151 169 174  151 169 174  151 169 174
63 82 90  63 82 90  63 82 90  63 82 90  63 82 90  63 82 90  63 82 90  63 82 90  63 82 90  63 82 90  75 94 102  98 116 123  138 157 162  151 169 174  151 169 174  151 169 174  151 169 174  151 169 174  151 169 174  151 169 174  151 169 174  151 169 174  151 169 174  151 169 174  151 169 174  151 169 174  151 169 174  151 169 174  151 169 174  151 169 174  151 169 174  151 169 174  162 178 183  179 193 197  197 209 212  205 215 218  201 212 215  186 200 203  166 182 186  151 169 174  151 169 174  151 169 174  151 169 174  151 169 174  151 169 174  151 169 174  151 169 174  151 169 174  151 169 174  151 169 174  151 169 174  151 169 174  151 169 174  151 169 174  151 169 174  151 169 174  151 169 174  151 169 174  151 169 174  151 169 174  151 169 174  151 169 174  151 169 174  151 169 174  146 164 169  151 169 174  151 169 174  151 169 174  151 169 174  151 169 174  104 121 126  66 87 95  67 88 96  98 120 128  98 120 128  98 120 128  98 120 128  98 120 128  98 120 128  98 120 128  98 120 128  98 120 128  98 120 128  98 120 128  98 120 128  98 120 128  98 120 128  98 120 128  98 120 128  98 120 128  98 120 128  98 120 128  98 120 128  98 120 128  98 120 128  98 120 128  98 120 128  98 120 128  98 120 128  98 120 128  98 120 128  98 120 128  98 120 128  98 120 128  98 120 128  98 120 128  98 120 128  98 120 128  98 120 128  98 120 128  98 120 128  98 120 128  98 120 128  98 120 128  98 120 128  98 120 128  98 120 128  98 120 128  98 120 128  98 120 128  98 120 128  98 120 128  98 120 128  98 120 128  98 120 128  98 120 128  98 120 128  98 120 128  98 120 128  98 120 128  98 120 128  98 120 128  98 120 128  98 120 128  98 120 128  98 120 128  98 120 128  98 120 128  98 120 128  98 120 128  98 120 128  98 120 128  98 120 128  98 120 128  98 120 128  98 120 128  98 120 128  98 120 128  98 120 128  98 120 128  98 120 128  98 120 128  98 120 128  98 120 128  98 120 128  98 120 128  98 120 128  98 120 128  98 120 128  98 120 128  98 120 128  98 120 128  98 120 128  98 120 128  98 120 128  69 90 97  66 87 95  85 103 109  151 169 174  151 169 174  151 169 174  151 169 174  151 169 174  149 167 173  151 169 174  151 169 174  151 169 174  151 169 174  151 169 174  151 169 174  151 169 174  151 169 174  151 169 174  151 169 174  151 169 174  151 169 174  151 169 174  151 169 174  151 169 174  151 169 174  151 169 174  151 169 174  151 169 174  151 169 174  151 169 174  151 169 174  151 169 174  151 169 174  151 169 174  163 180 184  183 197 200  200 211 214  205 216 218  199 210 213  183 196 200  164 180 185  151 169 174  151 169 174  151 169 174  151 169 174  151 169 174  151 169 174  151 169 174  151 169 174  151 169 174  151 169 174  151 169 174  151 169 174  151 169 174  151 169 174  151 169 174  151 169 174  151 169 174  151 169 174  151 169 174  144 162 167  102 121 127  78 97 104  65 84 92  63 82 90  63 82 90  63 82 90  63 82 90  63 82 90  63 82 90  63 82 90  63 82 90  63 82 90  63 82 90  63 82 90  63 82 90  63 82 90  63 82 90  63 82 90  63 82 90  63 82 90  64 83 91  63 82 90  63 82 90  63 82 90  63 82 90  63 82 90  63 82 90  63 82 90  63 82 90  63 82 90
143 161 166  141 159 164  141 159 164  142 160 166  146 164 169  147 165 170  148 166 171  149 167 172  150 168 173  151 169 174  151 169 174  151 169 174  151 169 174  151 169 174  151 169 174  151 169 174  151 169 174  151 169 174  151 169 174  151 169 174  151 169 174  151 169 174  151 169 174  151 169 174  151 169 174  151 169 174  151 169 174  151 169 174  151 169 174  151 169 174  201 212 215  217 226 228  198 209 213  154 171 176  152 170 175  151 169 174  151 169 174  151 169 174  153 170 175  168 183 188  217 226 228  186 199 202  151 169 174  151 169 174  151 169 174  151 169 174  151 169 174  151 169 174  151 169 174  151 169 174  151 169 174  151 169 174  151 169 174  151 169 174  151 169 174  151 169 174  151 169 174  151 169 174  151 169 174  151 169 174  151 169 174  151 169 174  159 176 181  169 185 190  109 126 133  151 169 174  151 169 174  151 169 174  151 169 174  151 169 174  151 169 174  66 87 95  66 87 95  79 101 108  98 120 128  98 120 128  98 120 128  98 120 128  98 120 128  98 120 128  98 120 128  98 120 128  98 120 128  98 120 128  98 120 128  98 120 128  98 120 128  98 120 128  98 120 128  98 120 128  98 120 128  98 120 128  98 120 128  98 120 128  98 120 128  98 120 128  98 120 128  98 120 128  98 120 128  98 120 128  98 120 128  98 120 128  98 120 128  98 120 128  98 120 128  98 120 128  98 120 128  98 120 128  98 120 128  98 120 128  98 120 128  98 120 128  98 120 128  98 120 128  98 120 128  98 120 128  98 120 128  98 120 128  98 120 128  98 120 128  98 120 128  98 120 128  98 120 128  98 120 128  98 120 128  98 120 128  98 120 128  98 120 128  98 120 128  98 120 128  98 120 128  98 120 128  98 120 128  98 120 128  98 120 128  98 120 128  98 120 128  98 120 128  98 120 128  98 120 128  98 120 128  98 120 128  98 120 128  98 120 128  98 120 128  98 120 128  98 120 128  98 120 128  98 120 128  98 120 128  98 120 128  98 120 128  98 120 128  98 120 128  98 120 128  98 120 128  98 120 128  98 120 128  98 120 128  98 120 128  98 120 128  98 120 128  98 120 128  98 120 128  89 111 118  66 87 95  66 87 95  151 169 174  151 169 174  151 169 174  151 169 174  151 169 174  151 169 174  98 116 123  171 187 192  161 178 183  151 169 174  151 169 174  151 169 174  151 169 174  151 169 174  151 169 174  151 169 174  151 169 174  151 169 174  151 169 174  151 169 174  151 169 174  151 169 174  151 169 174  151 169 174  151 169 174  151 169 174  151 169 174  151 169 174  151 169 174  170 186 190  216 226 228  176 190 194  153 171 176  151 169 174  151 169 174  151 169 174  152 170 175  153 171 176  189 202 205  217 226 228  209 220 222  151 169 174  151 169 174  151 169 174  151 169 174  151 169 174  151 169 174  151 169 174  151 169 174  151 169 174  151 169 174  151 169 174  151 169 174  151 169 174  151 169 174  151 169 174  151 169 174  151 169 174  151 169 174  151 169 174  151 169 174  151 169 174  150 168 173  149 167 172  148 166 171  147 165 171  147 165 170  143 161 166  141 159 164  141 159 164  143 161 166  145 163 169  147 165 170  147 165 170  147 165 171  148 166 171  148 166 171  148 166 171  148 166 171  148 166 171  148 166 171  148 166 171  148 166 171  148 166 171  147 165 171  147 165 170  147 165 170  146 164 169  143 161 166
151 169 174  151 169 174  151 169 174  151 169 174  151 169 174  151 169 174  151 169 174  151 169 174  151 169 174  151 169 174  151 169 174  151 169 174  151 169 174  151 169 174  151 169 174  151 169 174  151 169 174  151 169 174  151 169 174  151 169 174  151 169 174  151 169 174  151 169 174  151 169 174  151 169 174  151 169 174  151 169 174  151 169 174  164 180 185  217 226 228  181 194 198  151 169 174  151 169 174  151 169 174  151 169 174  151 169 174  151 169 174  151 169 174  151 169 174  151 169 174  151 169 174  151 169 174  159 176 181  187 200 204  151 169 174  151 169 174  151 169 174  151 169 174  151 169 174  151 169 174  151 169 174  151 169 174  157 174 179  165 181 186  172 187 192  175 191 196  179 194 199  180 195 200  180 195 200  180 195 200  180 195 200  180 195 200  180 195 200  180 195 200  180 195 200  137 155 160  151 169 174  151 169 174  151 169 174  151 169 174  151 169 174  141 158 163  66 87 95  66 87 95  91 113 121  98 120 128  98 120 128  98 120 128  98 120 128  98 120 128  98 120 128  98 120 128  98 120 128  98 120 128  98 120 128  98 120 128  98 120 128  98 120 128  98 120 128  98 120 128  98 120 128  98 120 128  98 120 128  98 120 128  98 120 128  98 120 128  98 120 128  98 120 128  98 120 128  98 120 128  98 120 128  98 120 128  98 120 128  98 120 128  98 120 128  98 120 128  98 120 128  98 120 128  98 120 128  98 120 128  98 120 128  98 120 128  98 120 128  98 120 128  98 120 128  98 120 128  98 120 128  98 120 128  98 120 128  98 120 128  98 120 128  98 120 128  98 120 128  98 120 128  98 120 128  98 120 128  98 120 128  98 120 128  98 120 128  98 120 128  98 120 128  98 120 128  98 120 128  98 120 128  98 120 128  98 120 128  98 120 128  98 120 128  98 120 128  98 120 128  98 120 128  98 120 128  98 120 128  98 120 128  98 120 128  98 120 128  98 120 128  98 120 128  98 120 128  98 120 128  98 120 128  98 120 128  98 120 128  98 120 128  98 120 128  98 120 128  98 120 128  98 120 128  98 120 128  98 120 128  98 120 128  98 120 128  98 120 128  97 119 127  66 87 95  66 87 95  128 145 150  151 169 174  151 169 174  151 169 174  151 169 174  151 169 174  148 166 171  176 191 196  180 195 200  180 195 200  180 195 200  180 195 200  180 195 200  180 195 200  180 195 200  180 195 200  176 191 196  172 188 193  166 182 187  158 175 180  151 169 174  151 169 174  151 169 174  151 169 174  151 169 174  151 169 174  151 169 174  151 169 174  176 191 195  164 180 185  151 169 174  151 169 174  151 169 174  151 169 174  151 169 174  151 169 174  151 169 174  151 169 174  151 169 174  151 169 174  151 169 174  171 186 190  217 226 228  174 189 193  151 169 174  151 169 174  151 169 174  151 169 174  151 169 174  151 169 174  151 169 174  151 169 174  151 169 174  151 169 174  151 169 174  151 169 174  151 169 174  151 169 174  151 169 174  151 169 174  151 169 174  151 169 174  151 169 174  151 169 174  151 169 174  151 169 174  151 169 174  151 169 174  151 169 174  151 169 174  151 169 174  151 169 174  151 169 174  151 169 174  151 169 174  151 169 174  151 169 174  151 169 174  151 169 174  151 169 174  151 169 174  151 169 174  151 169 174  151 169 174  151 169 174  151 169 174  151 169 174  151 169 174  151 169 174  151 169 174
151 169 174  151 169 174  151 169 174  151 169 174  151 169 174  151 169 174  151 169 174  151 169 174  151 169 174  151 169 174  151 169 174  151 169 174  151 169 174  151 169 174  151 169 174  151 169 174  151 169 174  151 169 174  151 169 174  151 169 174  151 169 174  151 169 174  151 169 174  151 169 174  151 169 174  151 169 174  151 169 174  157 175 179  217 226 228  167 183 187  151 169 174  151 169 174  151 169 174  151 169 174  135 152 157  113 127 132  109 123 128  124 140 145  151 169 174  151 169 174  151 169 174  151 169 174  151 169 174  151 169 174  151 169 174  151 169 174  151 169 174  151 169 174  177 193 198  180 195 200  180 195 200  180 195 200  180 195 200  180 195 200  180 195 200  180 195 200  180 195 200  180 195 200  180 195 200  180 195 200  180 195 200  180 195 200  180 195 200  180 195 200  180 195 200  114 131 138  151 169 174  151 169 174  151 169 174  151 169 174  151 169 174  151 169 174  110 126 131  66 87 95  66 87 95  94 116 124  98 120 128  98 120 128  98 120 128  98 120 128  98 120 128  98 120 128  98 120 128  98 120 128  98 120 128  98 120 128  98 120 128  98 120 128  98 120 128  98 120 128  98 120 128  98 120 128  98 120 128  98 120 128  98 120 128  98 120 128  98 120 128  98 120 128  98 120 128  98 120 128  98 120 128  98 120 128  98 120 128  98 120 128  98 120 128  98 120 128  98 120 128  98 120 128  98 120 128  98 120 128  98 120 128  98 120 128  98 120 128  98 120 128  98 120 128  98 120 128  98 120 128  98 120 128  98 120 128  98 120 128  98 120 128  98 120 128  98 120 128  98 120 128  98 120 128  98 120 128  98 120 128  98 120 128  98 120 128  98 120 128  98 120 128  98 120 128  98 120 128  98 120 128  98 120 128  98 120 128  98 120 128  98 120 128  98 120 128  98 120 128  98 120 128  98 120 128  98 120 128  98 120 128  98 120 128  98 120 128  98 120 128  98 120 128  98 120 128  98 120 128  98 120 128  98 120 128  98 120 128  98 120 128  98 120 128  98 120 128  98 120 128  98 120 128  98 120 128  98 120 128  98 120 128  98 120 128  97 118 126  66 87 95  66 87 95  91 109 114  151 169 174  151 169 174  151 169 174  151 169 174  151 169 174  151 169 174  88 107 114  180 195 200  180 195 200  180 195 200  180 195 200  180 195 200  180 195 200  180 195 200  180 195 200  180 195 200  180 195 200  180 195 200  180 195 200  180 195 200  180 195 200  180 195 200  180 195 200  179 194 199  151 169 174  151 169 174  151 169 174  152 170 175  151 169 174  151 169 174  151 169 174  151 169 174  151 169 174  151 169 174  128 144 149  109 123 128  111 125 130  131 147 152  151 169 174  151 169 174  151 169 174  151 169 174  159 176 181  217 226 228  169 184 188  151 169 174  151 169 174  151 169 174  151 169 174  151 169 174  151 169 174  151 169 174  151 169 174  151 169 174  151 169 174  151 169 174  151 169 174  151 169 174  151 169 174  151 169 174  151 169 174  151 169 174  151 169 174  151 169 174  151 169 174  151 169 174  151 169 174  151 169 174  151 169 174  151 169 174  151 169 174  151 169 174  151 169 174  151 169 174  151 169 174  151 169 174  151 169 174  151 169 174  151 169 174  151 169 174  151 169 174  151 169 174  151 169 174  151 169 174  151 169 174  151 169 174  151 169 174  151 169 174  151 169 174  151 169 174
151 169 174  151 169 174  151 169 174  151 169 174  151 169 174  151 169 174  151 169 174  151 169 174  151 169 174  151 169 174  151 169 174  151 169 174  151 169 174  151 169 174  151 169 174  151 169 174  151 169 174  151 169 174  151 169 174  151 169 174  151 169 174  151 169 174  151 169 174  151 169 174  151 169 174  151 169 174  151 169 174  214 223 225  180 194 198  151 169 174  151 169 174  150 168 173  81 93 98  46 55 60  46 55 60  46 55 60  46 55 60  46 55 60  46 55 60  46 55 60  99 112 117  151 169 174  151 169 174  151 169 174  151 169 174  151 169 174  151 169 174  151 169 174  175 191 196  180 195 200  180 195 200  180 195 200  180 195 200  180 195 200  180 195 200  180 195 200  180 195 200  180 195 200  180 195 200  180 195 200  180 195 200  180 195 200  180 195 200  180 195 200  180 195 200  180 195 200  87 106 112  151 169 174  151 169 174  151 169 174  151 169 174  151 169 174  151 169 174  93 111 116  66 87 95  66 87 95  91 113 120  98 120 128  98 120 128  98 120 128  98 120 128  98 120 128  98 120 128  98 120 128  98 120 128  98 120 128  98 120 128  98 120 128  98 120 128  98 120 128  98 120 128  98 120 128  98 120 128  98 120 128  98 120 128  98 120 128  98 120 128  98 120 128  98 120 128  98 120 128  98 120 128  98 120 128  98 120 128  98 120 128  98 120 128  98 120 128  98 120 128  98 120 128  98 120 128  98 120 128  98 120 128  98 120 128  98 120 128  98 120 128  98 120 128  98 120 128  98 120 128  98 120 127  97 119 127  97 119 127  97 119 127  98 120 128  98 120 128  98 120 128  98 120 128  98 120 128  98 120 128  98 120 128  98 120 128  98 120 128  98 120 128  98 120 128  98 120 128  98 120 128  98 120 128  98 120 128  98 120 128  98 120 128  98 120 128  98 120 128  98 120 128  98 120 128  98 120 128  98 120 128  98 120 128  98 120 128  98 120 128  98 120 128  98 120 128  98 120 128  98 120 128  98 120 128  98 120 128  98 120 128  98 120 128  98 120 128  98 120 128  98 120 128  98 120 128  98 120 128  98 120 128  94 116 124  66 87 95  66 87 95  78 97 102  151 169 174  151 169 174  151 169 174  151 169 174  151 169 174  151 169 174  112 131 137  179 194 199  180 195 200  180 195 200  180 195 200  180 195 200  180 195 200  180 195 200  180 195 200  180 195 200  180 195 200  180 195 200  180 195 200  180 195 200  180 195 200  180 195 200  180 195 200  180 195 200  176 192 197  151 169 174  151 169 174  151 169 174  151 169 174  151 169 174  151 169 174  151 169 174  117 132 137  46 55 60  46 55 60  46 55 60  46 55 60  46 55 60  46 55 60  46 55 60  64 74 79  150 168 173  151 169 174  151 169 174  163 179 183  217 226 228  151 169 174  151 169 174  151 169 174  151 169 174  151 169 174  151 169 174  151 169 174  151 169 174  151 169 174  151 169 174  151 169 174  151 169 174  151 169 174  151 169 174  151 169 174  151 169 174  151 169 174  151 169 174  151 169 174  151 169 174  151 169 174  151 169 174  151 169 174  151 169 174  151 169 174  151 169 174  151 169 174  151 169 174  151 169 174  151 169 174  151 169 174  151 169 174  151 169 174  151 169 174  151 169 174  151 169 174  151 169 174  151 169 174  151 169 174  151 169 174  151 169 174  151 169 174  151 169 174  151 169 174  151 169 174
130 151 157  130 151 157  130 151 157  130 151 157  130 151 157  130 151 157  133 154 160  137 157 163  141 160 166  143 162 168  145 164 169  146 165 170  147 165 171  148 166 171  149 167 172  149 168 173  150 168 173  151 169 174  151 169 174  151 169 174  151 169 174  151 169 174  151 169 174  151 169 174  151 169 174  151 169 174  160 176 181  215 225 227  151 169 174  151 169 174  149 167 172  47 56 61  46 55 60  46 55 60  54 69 75  66 87 95  66 87 95  66 87 95  66 87 95  65 86 93  49 60 65  46 55 60  140 157 162  151 169 174  151 169 174  151 169 174  151 169 174  148 166 172  151 169 174  151 169 174  151 169 174  151 169 174  153 170 175  158 175 180  160 176 181  158 176 181  155 172 177  151 169 174  151 169 174  151 169 174  151 169 174  151 169 174  151 169 174  151 169 174  151 169 174  151 169 174  140 158 164  135 153 158  151 169 174  151 169 174  151 169 174  151 169 174  151 169 174  151 169 174  91 108 113  66 87 95  66 87 95  78 99 107  98 120 128  98 120 128  98 120 128  98 120 128  98 120 128  98 120 128  98 120 128  98 120 128  98 120 128  98 120 128  98 120 128  98 120 128  98 120 128  98 120 128  98 120 128  98 120 128  98 120 128  98 120 128  98 120 128  98 120 128  98 120 128  98 120 128  98 120 128  98 120 128  98 120 128  98 120 128  98 120 128  98 120 128  98 120 128  98 120 128  98 120 128  98 120 127  88 110 117  74 95 102  66 87 95  66 87 95  66 87 95  66 87 95  66 87 95  66 87 95  66 87 95  66 87 95  66 87 95  66 87 95  66 87 95  66 87 95  66 87 95  66 87 95  72 93 101  86 107 115  98 119 127  98 120 128  98 120 128  98 120 128  98 120 128  98 120 128  98 120 128  98 120 128  98 120 128  98 120 128  98 120 128  98 120 128  98 120 128  98 120 128  98 120 128  98 120 128  98 120 128  98 120 128  98 120 128  98 120 128  98 120 128  98 120 128  98 120 128  98 120 128  98 120 128  98 120 128  98 120 128  98 120 128  98 120 128  98 120 128  98 120 128  98 120 128  84 106 114  66 87 95  66 87 95  81 99 105  151 169 174  151 169 174  151 169 174  151 169 174  151 169 174  151 169 174  146 164 169  115 134 140  151 169 174  151 169 174  151 169 174  151 169 174  151 169 174  151 169 174  151 169 174  151 169 174  151 169 174  154 171 176  158 175 180  160 176 181  159 176 181  153 171 176  151 169 174  151 169 174  151 169 174  151 169 174  151 169 174  151 169 174  151 169 174  151 169 174  151 169 174  147 165 170  46 55 60  48 58 63  63 83 90  66 87 95  66 87 95  66 87 95  66 87 95  57 73 79  46 55 60  46 55 60  46 55 60  142 160 165  151 169 174  151 169 174  208 218 220  171 186 190  151 169 174  151 169 174  151 169 174  151 169 174  151 169 174  151 169 174  151 169 174  151 169 174  151 169 174  150 168 174  149 168 173  149 167 172  148 166 171  147 166 171  146 165 170  145 164 169  144 162 168  141 161 166  138 158 163  134 154 160  130 151 157  130 151 157  130 151 157  130 151 157  130 151 157  130 151 157  130 151 157  130 151 157  130 151 157  130 151 157  130 151 157  130 151 157  130 151 157  130 151 157  130 151 157  130 151 157  130 151 157  130 151 157  130 151 157  130 151 157  130 151 157  130 151 157  130 151 157  130 151 157
130 151 157  130 151 157  130 151 157  130 151 157  130 151 157  130 151 157  130 151 157  130 151 157  130 151 157  130 151 157  130 151 157  130 151 157  130 151 157  130 151 157  130 151 157  130 151 157  130 151 157  130 151 157  130 151 157  130 151 157  130 151 157  130 151 157  130 151 157  130 151 157  133 154 159  140 160 165  185 198 202  181 194 198  151 169 174  151 169 174  48 58 63  46 55 60  49 60 65  66 87 95  66 87 95  66 87 95  77 99 107  91 115 123  92 117 124  81 104 112  67 88 96  66 87 95  48 59 64  107 121 126  151 169 174  151 169 174  151 169 174  151 169 174  150 168 173  151 169 174  151 169 174  151 169 174  151 169 174  151 169 174  151 169 174  151 169 174  151 169 174  151 169 174  151 169 174  151 169 174  151 169 174  151 169 174  151 169 174  151 169 174  151 169 174  151 169 174  151 169 174  79 98 106  147 165 170  151 169 174  151 169 174  151 169 174  151 169 174  151 169 174  151 169 174  120 137 142  66 87 95  66 87 95  66 87 95  90 112 119  98 120 128  98 120 128  98 120 128  98 120 128  98 120 128  98 120 128  98 120 128  98 120 128  98 120 128  98 120 128  98 120 128  98 120 128  98 120 128  98 120 128  98 120 128  98 120 128  98 120 128  98 120 128  98 120 128  98 120 128  98 120 128  98 120 128  98 120 128  98 120 128  98 120 128  94 116 124  72 93 101  66 87 95  66 87 95  66 87 95  66 87 95  65 86 93  60 78 84  50 63 67  55 67 70  62 73 76  95 106 109  118 129 132  130 140 144  131 141 145  120 131 134  99 110 113  67 79 81  55 68 70  50 64 67  58 76 82  65 85 93  66 87 95  66 87 95  66 87 95  66 87 95  68 90 97  91 113 121  98 120 128  98 120 128  98 120 128  98 120 128  98 120 128  98 120 128  98 120 128  98 120 128  98 120 128  98 120 128  98 120 128  98 120 128  98 120 128  98 120 128  98 120 128  98 120 128  98 120 128  98 120 128  98 120 128  98 120 128  98 120 128  98 120 128  98 120 128  98 120 128  98 120 128  93 114 122  66 87 95  66 87 95  66 87 95  98 116 121  151 169 174  151 169 174  151 169 174  151 169 174  151 169 174  151 169 174  151 169 174  68 87 95  151 169 174  151 169 174  151 169 174  151 169 174  151 169 174  151 169 174  151 169 174  151 169 174  151 169 174  151 169 174  151 169 174  151 169 174  151 169 174  151 169 174  151 169 174  151 169 174  151 169 174  151 169 174  151 169 174  149 167 172  151 169 174  151 169 174  151 169 174  138 155 160  47 56 61  66 87 95  66 87 95  78 101 108  92 116 123  92 116 124  80 102 110  67 88 96  66 87 95  66 87 95  52 64 70  46 55 60  47 56 61  151 169 174  151 169 174  166 182 186  206 217 219  142 161 166  134 154 160  130 151 157  130 151 157  130 151 157  130 151 157  130 151 157  130 151 157  130 151 157  130 151 157  130 151 157  130 151 157  130 151 157  130 151 157  130 151 157  130 151 157  130 151 157  130 151 157  130 151 157  130 151 157  130 151 157  130 151 157  130 151 157  130 151 157  130 151 157  130 151 157  130 151 157  130 151 157  130 151 157  130 151 157  130 151 157  130 151 157  130 151 157  130 151 157  130 151 157  130 151 157  130 151 157  130 151 157  130 151 157  130 151 157  130 151 157  130 151 157  130 151 157  130 151 157
130 151 157  130 151 157  130 151 157  130 151 157  130 151 157  130 151 157  130 151 157  130 151 157  130 151 157  130 151 157  130 151 157  130 151 157  130 151 157  130 151 157  130 151 157  130 151 157  130 151 157  130 151 157  130 151 157  130 151 157  130 151 157  130 151 157  130 151 157  130 151 157  130 151 157  130 151 157  203 214 216  153 171 175  151 169 174  138 154 159  46 55 60  47 57 62  66 87 95  66 87 95  86 109 117  98 123 131  98 123 131  98 123 131  98 123 131  98 123 131  98 123 131  98 123 131  67 89 96  58 74 81  131 148 153  151 169 174  151 169 174  151 169 174  123 141 147  151 169 174  151 169 174  151 169 174  151 169 174  151 169 174  151 169 174  151 169 174  151 169 174  151 169 174  151 169 174  151 169 174  151 169 174  151 169 174  151 169 174  151 169 174  151 169 174  151 169 174  151 169 174  151 169 174  65 84 92  151 169 174  151 169 174  151 169 174  151 169 174  151 169 174  151 169 174  151 169 174  150 168 173  72 92 99  66 87 95  66 87 95  66 87 95  85 106 114  98 120 128  98 120 128  98 120 128  98 120 128  98 120 128  98 120 128  98 120 128  98 120 128  98 120 128  98 120 128  98 120 128  98 120 128  98 120 128  98 120 128  98 120 128  98 120 128  98 120 128  98 120 128  98 120 128  91 113 120  68 89 96  66 87 95  66 87 95  66 87 95  64 84 92  56 69 73  119 130 133  182 194 198  168 184 189  152 170 175  151 169 174  151 169 174  151 169 174  151 169 174  151 169 174  151 169 174  151 169 174  151 169 174  151 169 174  151 169 174  151 169 174  151 169 174  151 169 174  151 169 174  152 170 175  164 181 185  183 195 199  134 145 148  63 76 80  63 83 91  66 87 95  66 87 95  66 87 95  67 88 96  87 109 117  98 120 128  98 120 128  98 120 128  98 120 128  98 120 128  98 120 128  98 120 128  98 120 128  98 120 128  98 120 128  98 120 128  98 120 128  98 120 128  98 120 128  98 120 128  98 120 128  98 120 128  98 120 128  98 120 128  88 109 117  66 87 95  66 87 95  66 87 95  68 88 96  144 162 167  151 169 174  151 169 174  151 169 174  151 169 174  151 169 174  151 169 174  151 169 174  65 84 92  151 169 174  151 169 174  151 169 174  151 169 174  151 169 174  151 169 174  151 169 174  151 169 174  151 169 174  151 169 174  151 169 174  151 169 174  151 169 174  151 169 174  151 169 174  151 169 174  151 169 174  151 169 174  151 169 174  93 112 119  151 169 174  151 169 174  151 169 174  147 165 170  52 65 70  66 87 95  98 123 131  98 123 131  98 123 131  98 123 131  98 123 131  98 123 131  98 123 131  92 117 125  66 87 95  66 87 95  49 61 66  46 55 60  121 136 141  151 169 174  151 169 174  213 223 225  130 151 157  130 151 157  130 151 157  130 151 157  130 151 157  130 151 157  130 151 157  130 151 157  130 151 157  130 151 157  130 151 157  130 151 157  130 151 157  130 151 157  130 151 157  130 151 157  130 151 157  130 151 157  130 151 157  130 151 157  130 151 157  130 151 157  130 151 157  130 151 157  130 151 157  130 151 157  130 151 157  130 151 157  130 151 157  131 152 158  133 153 159  134 154 160  135 155 161  135 156 161  136 156 161  136 156 161  135 155 161  134 154 160  133 153 159  131 152 158  130 151 157  130 151 157  130 151 157  130 151 157
151 169 174  151 169 174  151 169 174  148 167 172  140 159 165  131 152 158  130 151 157  130 151 157  130 151 157  130 151 157  130 151 157  130 151 157  130 151 157  130 151 157  130 151 157  130 151 157  130 151 157  130 151 157  130 151 157  130 151 157  130 151 157  130 151 157  130 151 157  130 151 157  130 151 157  130 151 157  208 218 220  151 169 174  151 169 174  80 92 97  46 55 60  64 84 91  66 87 95  91 114 122  98 123 131  98 123 131  98 123 131  98 123 131  98 123 131  98 123 131  98 123 131  98 123 131  98 123 131  78 101 109  57 73 80  151 169 174  151 169 174  151 169 174  151 169 174  71 90 98  151 169 174  151 169 174  151 169 174  151 169 174  151 169 174  151 169 174  151 169 174  151 169 174  151 169 174  151 169 174  151 169 174  151 169 174  151 169 174  151 169 174  151 169 174  151 169 174  151 169 174  144 163 168  132 153 159  63 82 90  151 169 174  151 169 174  151 169 174  151 169 174  151 169 174  151 169 174  151 169 174  151 169 174  128 146 151  67 88 96  66 87 95  66 87 95  66 87 95  66 87 95  79 100 108  91 114 121  98 120 128  98 120 128  98 120 128  98 120 128  98 120 128  98 120 128  98 120 128  98 120 128  98 120 128  98 120 128  89 111 119  76 97 105  66 87 95  66 87 95  66 87 95  66 87 95  64 83 90  119 132 135  184 197 200  156 173 178  151 169 174  151 169 174  151 169 174  151 169 174  151 169 174  151 169 174  151 169 174  151 169 174  151 169 174  151 169 174  151 169 174  151 169 174  151 169 174  151 169 174  151 169 174  151 169 174  151 169 174  151 169 174  151 169 174  151 169 174  151 169 174  151 169 174  151 169 174  151 169 174  151 169 174  151 169 174  153 170 175  180 194 198  132 144 147  63 81 88  66 87 95  66 87 95  66 87 95  66 87 95  74 95 103  88 110 117  98 120 128  98 120 128  98 120 128  98 120 128  98 120 128  98 120 128  98 120 128  98 120 128  98 120 128  98 120 128  93 115 123  81 103 110  67 88 95  66 87 95  66 87 95  66 87 95  66 87 95  117 135 140  151 169 174  151 169 174  151 169 174  151 169 174  151 169 174  151 169 174  151 169 174  151 169 174  66 85 93  128 149 155  143 162 167  151 169 174  151 169 174  151 169 174  151 169 174  151 169 174  151 169 174  151 169 174  151 169 174  151 169 174  151 169 174  151 169 174  151 169 174  151 169 174  151 169 174  151 169 174  151 169 174  151 169 174  113 132 138  151 169 174  151 169 174  151 169 174  151 169 174  50 61 66  71 93 101  98 123 131  98 123 131  98 123 131  98 123 131  98 123 131  98 123 131  98 123 131  98 123 131  98 123 131  95 120 128  66 87 95  66 87 95  46 55 60  56 65 70  151 169 174  151 169 174  216 225 227  130 151 157  130 151 157  130 151 157  130 151 157  130 151 157  130 151 157  130 151 157  130 151 157  130 151 157  130 151 157  130 151 157  130 151 157  130 151 157  130 151 157  130 151 157  130 151 157  130 151 157  130 151 157  130 151 157  130 151 157  130 151 157  138 158 164  148 166 171  151 169 174  151 169 174  151 169 174  151 169 174  151 169 174  151 169 174  151 169 174  151 169 174  151 169 174  151 169 174  151 169 174  151 169 174  151 169 174  151 169 174  151 169 174  151 169 174  151 169 174  151 169 174  151 169 174  151 169 174  151 169 174
151 169 174  151 169 174  151 169 174  151 169 174  151 169 174  151 169 174  151 169 174  151 169 174  149 168 173  134 155 160  130 151 157  130 151 157  130 151 157  130 151 157  130 151 157  130 151 157  130 151 157  130 151 157  130 151 157  130 151 157  130 151 157  130 151 157  130 151 157  130 151 157  130 151 157  130 151 157  200 211 214  151 169 174  151 169 174  49 58 63  46 55 60  66 87 95  68 90 98  98 123 131  98 123 131  98 123 131  98 123 131  98 123 131  98 123 131  98 123 131  98 123 131  98 123 131  98 123 131  98 123 131  73 95 102  67 77 82  151 169 174  151 169 174  151 169 174  105 123 130  151 169 174  151 169 174  151 169 174  151 169 174  151 169 174  151 169 174  151 169 174  151 169 174  151 169 174  151 169 174  151 169 174  151 169 174  151 169 174  137 157 163  130 151 157  130 151 157  130 151 157  130 151 157  130 151 157  128 149 155  63 82 90  151 169 174  151 169 174  151 169 174  151 169 174  151 169 174  151 169 174  151 169 174  151 169 174  151 169 174  142 160 165  86 106 112  66 87 95  66 87 95  66 87 95  66 87 95  66 87 95  66 87 95  66 87 95  66 87 95  66 87 95  66 87 95  66 87 95  66 87 95  66 87 95  66 87 95  66 87 95  66 87 95  89 106 112  159 172 177  162 178 183  151 169 174  151 169 174  151 169 174  151 169 174  151 169 174  151 169 174  151 169 174  151 169 174  151 169 174  151 169 174  151 169 174  151 169 174  151 169 174  151 169 174  151 169 174  151 169 174  151 169 174  151 169 174  151 169 174  151 169 174  151 169 174  151 169 174  151 169 174  151 169 174  151 169 174  151 169 174  151 169 174  151 169 174  151 169 174  151 169 174  151 169 174  151 169 174  151 169 174  151 169 174  151 169 174  151 169 174  159 176 181  163 176 181  100 116 122  66 87 95  66 87 95  66 87 95  66 87 95  66 87 95  66 87 95  66 87 95  66 87 95  66 87 95  66 87 95  66 87 95  66 87 95  66 87 95  66 87 95  66 87 95  66 87 95  78 98 104  136 154 159  151 169 174  151 169 174  151 169 174  151 169 174  151 169 174  151 169 174  151 169 174  151 169 174  151 169 174  65 84 91  118 139 145  130 151 157  130 151 157  130 151 157  130 151 157  130 151 157  136 156 162  149 168 173  151 169 174  151 169 174  151 169 174  151 169 174  151 169 174  151 169 174  151 169 174  151 169 174  151 169 174  151 169 174  151 169 174  151 169 174  74 93 100  151 169 174  151 169 174  151 169 174  99 113 118  67 88 95  98 123 131  98 123 131  98 123 131  98 123 131  98 123 131  98 123 131  98 123 131  98 123 131  98 123 131  98 123 131  98 123 131  77 99 107  66 87 95  47 57 62  47 56 61  151 169 174  151 169 174  217 226 228  130 151 157  130 151 157  130 151 157  130 151 157  130 151 157  130 151 157  130 151 157  130 151 157  130 151 157  130 151 157  130 151 157  130 151 157  130 151 157  130 151 157  130 151 157  130 151 157  131 152 158  149 167 172  151 169 174  151 169 174  151 169 174  151 169 174  151 169 174  151 169 174  151 169 174  151 169 174  151 169 174  151 169 174  151 169 174  151 169 174  151 169 174  151 169 174  151 169 174  151 169 174  151 169 174  151 169 174  151 169 174  151 169 174  151 169 174  151 169 174  151 169 174  151 169 174  151 169 174  151 169 174
151 169 174  151 169 174  151 169 174  151 169 174  151 169 174  151 169 174  151 169 174  151 169 174  151 169 174  151 169 174  151 169 174  136 156 162  130 151 157  130 151 157  130 151 157  130 151 157  130 151 157  130 151 157  130 151 157  130 151 157  130 151 157  130 151 157  130 151 157  130 151 157  130 151 157  130 151 157  186 199 203  152 170 175  151 169 174  50 60 65  48 58 63  66 87 95  92 116 124  98 123 131  98 123 131  98 123 131  98 123 131  98 123 131  98 123 131  98 123 131  98 123 131  98 123 131  98 123 131  98 123 131  98 123 131  66 87 95  151 169 174  151 169 174  151 169 174  151 169 174  75 94 102  130 151 157  131 152 158  131 152 158  131 152 158  131 152 158  131 152 158  131 152 158  131 152 158  131 152 158  130 151 157  130 151 157  130 151 157  130 151 157  130 151 157  130 151 157  130 151 157  130 151 157  130 151 157  130 151 157  128 149 155  63 82 90  129 147 153  151 169 174  151 169 174  151 169 174  151 169 174  151 169 174  151 169 174  151 169 174  151 169 174  151 169 174  151 169 174  150 168 173  142 161 166  97 116 122  67 88 96  66 87 95  66 87 95  66 87 95  66 87 95  66 87 95  87 106 113  130 147 152  148 166 171  152 170 175  151 169 174  151 169 174  151 169 174  151 169 174  151 169 174  151 169 174  151 169 174  151 169 174  151 169 174  151 169 174  151 169 174  151 169 174  151 169 174  151 169 174  151 169 174  151 169 174  151 169 174  151 169 174  151 169 174  151 169 174  151 169 174  151 169 174  145 163 168  144 162 168  149 167 172  151 169 174  151 169 174  151 169 174  151 169 174  151 169 174  151 169 174  151 169 174  151 169 174  151 169 174  151 169 174  151 169 174  151 169 174  151 169 174  151 169 174  151 169 174  151 169 174  151 169 174  151 169 174  151 169 174  151 169 174  151 169 174  152 170 175  149 167 171  137 154 159  93 112 119  66 87 95  66 87 95  66 87 95  66 87 95  66 87 95  66 87 95  93 111 118  140 158 163  149 167 172  151 169 174  151 169 174  151 169 174  151 169 174  151 169 174  151 169 174  151 169 174  151 169 174  151 169 174  151 169 174  146 164 169  63 82 90  123 144 150  130 151 157  130 151 157  130 151 157  130 151 157  130 151 157  130 151 157  130 151 157  130 151 157  130 151 157  130 151 157  131 152 158  131 152 158  131 152 158  131 152 158  131 152 158  131 152 158  131 152 158  131 152 158  131 151 157  115 135 142  151 169 174  151 169 174  151 169 174  151 169 174  65 84 92  98 123 131  98 123 131  98 123 131  98 123 131  98 123 131  98 123 131  98 123 131  98 123 131  98 123 131  98 123 131  98 123 131  98 123 131  98 122 130  66 87 95  51 63 68  46 55 60  151 169 174  151 169 174  204 215 217  130 151 157  130 151 157  130 151 157  130 151 157  130 151 157  130 151 157  130 151 157  130 151 157  130 151 157  130 151 157  130 151 157  130 151 157  130 151 157  130 151 157  131 152 158  151 169 174  151 169 174  151 169 174  151 169 174  151 169 174  151 169 174  151 169 174  151 169 174  151 169 174  151 169 174  151 169 174  151 169 174  150 168 173  147 165 170  115 134 139  92 112 118  92 112 118  92 112 118  92 112 118  92 112 118  92 112 118  92 112 118  92 112 118  92 112 118  110 129 135  145 163 169  150 168 173  151 169 174  151 169 174
116 137 143  130 151 157  130 151 157  130 151 157  130 151 157  130 151 157  130 151 157  130 151 157  130 151 157  130 151 157  130 151 157  130 151 157  130 151 157  130 151 157  130 151 157  130 151 157  130 151 157  130 151 157  130 151 157  130 151 157  130 151 157  130 151 157  130 151 157  130 151 157  130 151 157  130 151 157  140 160 165  153 171 176  151 169 174  49 59 64  47 56 61  66 87 95  98 123 131  98 123 131  98 123 131  98 123 131  98 123 131  98 123 131  98 123 131  98 123 131  98 123 131  98 123 131  98 123 131  98 123 131  98 123 131  88 112 119  151 169 174  151 169 174  151 169 174  151 169 174  63 82 90  130 151 157  130 151 157  130 151 157  130 151 157  130 151 157  130 151 157  130 151 157  130 151 157  130 151 157  130 151 157  130 151 157  130 151 157  130 151 157  130 151 157  130 151 157  130 151 157  130 151 157  130 151 157  130 151 157  130 151 157  130 151 157  64 83 91  69 88 96  150 168 173  151 169 174  151 169 174  151 169 174  151 169 174  151 169 174  151 169 174  151 169 174  151 169 174  151 169 174  151 169 174  151 169 174  151 169 174  151 169 174  151 169 174  151 169 174  151 169 174  151 169 174  151 169 174  151 169 174  151 169 174  151 169 174  151 169 174  151 169 174  151 169 174  151 169 174  151 169 174  151 169 174  151 169 174  151 169 174  151 169 174  151 169 174  151 169 174  151 169 174  149 167 172  123 141 147  71 90 97  63 82 90  63 82 90  63 82 90  63 82 90  64 83 91  73 92 100  82 100 108  86 105 112  86 105 113  82 101 109  75 94 102  64 83 91  63 82 90  63 82 90  63 82 90  63 82 90  69 88 96  114 132 139  148 166 171  151 169 174  151 169 174  151 169 174  151 169 174  151 169 174  151 169 174  151 169 174  151 169 174  151 169 174  151 169 174  151 169 174  151 169 174  151 169 174  151 169 174  151 169 174  151 169 174  151 169 174  151 169 174  151 169 174  151 169 174  151 169 174  151 169 174  151 169 174  151 169 174  151 169 174  151 169 174  151 169 174  151 169 174  151 169 174  151 169 174  151 169 174  151 169 174  151 169 174  151 169 174  85 104 112  63 82 90  129 150 156  130 151 157  130 151 157  130 151 157  130 151 157  130 151 157  130 151 157  130 151 157  130 151 157  130 151 157  130 151 157  130 151 157  130 151 157  130 151 157  130 151 157  130 151 157  130 151 157  130 151 157  130 151 157  130 151 157  130 151 157  63 82 90  151 169 174  151 169 174  151 169 174  151 169 174  70 91 99  98 123 131  98 123 131  98 123 131  98 123 131  98 123 131  98 123 131  98 123 131  98 123 131  98 123 131  98 123 131  98 123 131  98 123 131  98 123 131  66 87 95  56 71 77  46 55 60  151 169 174  152 170 175  169 185 189  130 151 157  130 151 157  130 151 157  130 151 157  130 151 157  130 151 157  130 151 157  130 151 157  130 151 157  130 151 157  130 151 157  130 151 157  130 151 157  130 151 157  130 151 157  130 151 157  130 151 157  130 151 157  130 151 157  130 151 157  130 151 157  130 151 157  130 151 157  130 151 157  130 151 157  119 139 145  98 118 124  92 112 118  92 112 118  92 112 118  92 112 118  92 112 118  92 112 118  92 112 118  92 112 118  92 112 118  92 112 118  92 112 118  92 112 118  92 112 118  92 112 118  92 112 118  95 116 122  116 137 143
92 112 118  92 112 118  124 145 151  130 151 157  130 151 157  130 151 157  130 151 157  130 151 157  130 151 157  130 151 157  130 151 157  130 151 157  130 151 157  130 151 157  130 151 157  130 151 157  130 151 157  130 151 157  130 151 157  130 151 157  130 151 157  130 151 157  130 151 157  130 151 157  130 151 157  130 151 157  130 151 157  195 207 210  151 169 174  107 121 126  46 55 60  66 87 95  98 123 131  98 123 131  98 123 131  98 123 131  98 123 131  98 123 131  98 123 131  98 123 131  98 123 131  98 123 131  98 123 131  98 123 131  98 123 131  98 123 131  111 130 136  151 169 174  151 169 174  151 169 174  63 82 90  130 151 157  130 151 157  130 151 157  130 151 157  130 151 157  130 151 157  130 151 157  130 151 157  130 151 157  30 33 34  36 41 41  130 151 157  130 151 157  130 151 157  130 151 157  130 151 157  130 151 157  134 154 160  144 163 168  151 169 174  151 169 174  151 169 174  80 99 106  63 82 90  100 119 125  151 169 174  151 169 174  151 169 174  151 169 174  151 169 174  151 169 174  151 169 174  151 169 174  151 169 174  151 169 174  151 169 174  151 169 174  151 169 174  151 169 174  151 169 174  151 169 174  151 169 174  151 169 174  151 169 174  151 169 174  151 169 174  151 169 174  151 169 174  151 169 174  151 169 174  151 169 174  151 169 174  151 169 174  125 144 150  72 91 98  63 82 90  63 82 90  63 82 90  74 93 100  106 124 131  122 140 147  124 142 149  124 142 149  124 142 149  124 142 149  124 142 149  124 142 149  124 142 149  124 142 149  124 142 149  124 142 149  124 142 149  124 142 149  124 142 149  124 142 149  123 141 148  110 129 136  78 97 104  63 82 90  63 82 90  63 82 90  66 85 93  116 135 141  151 169 174  151 169 174  151 169 174  151 169 174  151 169 174  151 169 174  151 169 174  151 169 174  151 169 174  151 169 174  151 169 174  151 169 174  151 169 174  151 169 174  151 169 174  151 169 174  151 169 174  151 169 174  151 169 174  151 169 174  151 169 174  151 169 174  151 169 174  151 169 174  151 169 174  151 169 174  151 169 174  151 169 174  114 132 138  63 82 90  65 84 92  151 169 174  151 169 174  151 169 174  145 164 169  135 156 161  130 151 157  130 151 157  130 151 157  130 151 157  130 151 157  130 151 157  44 50 52  22 24 24  130 150 156  130 151 157  130 151 157  130 151 157  130 151 157  130 151 157  130 151 157  130 151 157  130 151 157  63 82 90  151 169 174  151 169 174  151 169 174  148 166 171  97 122 130  98 123 131  98 123 131  98 123 131  98 123 131  98 123 131  98 123 131  98 123 131  98 123 131  98 123 131  98 123 131  98 123 131  98 123 131  98 123 131  66 87 95  50 62 67  66 76 81  151 169 174  172 187 191  132 152 158  130 151 157  130 151 157  130 151 157  130 151 157  130 151 157  130 151 157  130 151 157  130 151 157  130 151 157  130 151 157  130 151 157  130 151 157  130 151 157  130 151 157  130 151 157  130 151 157  130 151 157  130 151 157  130 151 157  130 151 157  130 151 157  130 151 157  130 151 157  126 147 153  98 118 124  92 112 118  92 112 118  92 112 118  92 112 118  92 112 118  92 112 118  92 112 118  92 112 118  92 112 118  92 112 118  92 112 118  92 112 118  92 112 118  92 112 118  92 112 118  92 112 118  92 112 118  92 112 118  92 112 118
92 112 118  92 112 118  94 114 120  124 145 151  130 151 157  130 151 157  130 151 157  130 151 157  130 151 157  130 151 157  130 151 157  130 151 157  130 151 157  130 151 157  130 151 157  130 151 157  130 151 157  130 151 157  130 151 157  130 151 157  130 151 157  130 151 157  130 151 157  130 151 157  130 151 157  130 151 157  130 151 157  217 226 228  151 169 174  151 169 174  46 55 60  66 87 95  98 123 131  98 123 131  98 123 131  98 123 131  98 123 131  98 123 131  98 123 131  98 123 131  98 123 131  98 123 131  98 123 131  98 123 131  98 123 131  98 123 131  80 101 109  151 169 174  151 169 174  151 169 174  63 82 90  130 151 157  130 151 157  130 151 157  130 151 157  130 151 157  130 151 157  130 151 157  118 136 142  157 165 167  195 207 210  179 193 197  60 64 65  130 151 157  141 161 167  151 169 174  151 169 174  151 169 174  151 169 174  151 169 174  151 169 174  151 169 174  151 169 174  151 169 174  147 165 170  63 82 90  63 82 90  79 98 105  151 169 174  151 169 174  151 169 174  151 169 174  151 169 174  151 169 174  151 169 174  151 169 174  151 169 174  151 169 174  151 169 174  151 169 174  151 169 174  151 169 174  151 169 174  151 169 174  151 169 174  151 169 174  151 169 174  151 169 174  151 169 174  151 169 174  110 128 134  63 82 90  63 82 90  63 82 90  63 82 90  64 83 91  137 155 161  147 165 170  124 142 149  124 142 149  124 142 149  124 142 149  124 142 149  124 142 149  124 142 149  124 142 149  124 142 149  124 142 149  124 142 149  124 142 149  124 142 149  124 142 149  124 142 149  124 142 149  124 142 149  124 142 149  124 142 149  124 142 149  124 142 149  124 142 149  142 160 166  143 161 166  71 90 97  63 82 90  63 82 90  63 82 90  63 82 90  97 115 122  151 169 174  151 169 174  151 169 174  151 169 174  151 169 174  151 169 174  151 169 174  151 169 174  151 169 174  151 169 174  151 169 174  151 169 174  151 169 174  151 169 174  151 169 174  151 169 174  151 169 174  151 169 174  151 169 174  151 169 174  151 169 174  151 169 174  97 116 123  63 82 90  63 82 90  127 145 150  151 169 174  151 169 174  151 169 174  151 169 174  151 169 174  151 169 174  151 169 174  151 169 174  151 169 174  146 165 170  130 151 157  18 19 19  181 195 198  189 201 205  203 213 216  87 100 104  130 151 157  130 151 157  130 151 157  130 151 157  130 151 157  130 151 157  130 151 157  63 82 90  151 169 174  151 169 174  151 169 174  134 152 158  98 123 131  98 123 131  98 123 131  98 123 131  98 123 131  98 123 131  98 123 131  98 123 131  98 123 131  98 123 131  98 123 131  98 123 131  98 123 131  98 123 131  66 87 95  46 55 60  151 169 174  151 169 174  217 226 228  130 151 157  130 151 157  130 151 157  130 151 157  130 151 157  130 151 157  130 151 157  130 151 157  130 151 157  130 151 157  130 151 157  130 151 157  130 151 157  130 151 157  130 151 157  130 151 157  130 151 157  130 151 157  130 151 157  130 151 157  130 151 157  130 151 157  130 151 157  127 148 154  99 120 126  92 112 118  92 112 118  92 112 118  92 112 118  92 112 118  92 112 118  92 112 118  92 112 118  92 112 118  92 112 118  92 112 118  92 112 118  92 112 118  92 112 118  92 112 118  92 112 118  92 112 118  92 112 118  92 112 118  92 112 118
92 112 118  92 112 118  92 112 118  126 145 151  149 167 172  146 165 170  143 162 167  139 159 165  137 157 162  133 154 160  130 151 157  130 151 157  130 151 157  130 151 157  130 151 157  130 151 157  130 151 157  130 151 157  130 151 157  130 151 157  130 151 157  130 151 157  130 151 157  130 151 157  130 151 157  130 151 157  130 151 157  130 151 157  151 169 174  151 169 174  46 55 60  66 87 95  91 116 124  98 123 131  98 123 131  98 123 131  98 123 131  98 123 131  98 123 131  98 123 131  98 123 131  98 123 131  98 123 131  98 123 131  98 123 131  98 123 131  106 126 132  151 169 174  151 169 174  151 169 174  63 82 90  130 151 157  130 151 157  130 151 157  130 151 157  130 151 157  130 151 157  130 151 157  89 93 95  153 170 175  151 169 174  151 169 174  93 112 118  89 109 115  151 169 174  151 169 174  151 169 174  151 169 174  151 169 174  151 169 174  151 169 174  151 169 174  151 169 174  151 169 174  151 169 174  151 169 174  107 126 132  63 82 90  63 82 90  63 82 90  96 114 121  140 158 163  151 169 174  151 169 174  151 169 174  151 169 174  151 169 174  151 169 174  151 169 174  151 169 174  151 169 174  151 169 174  151 169 174  151 169 174  151 169 174  125 144 150  81 100 107  63 82 90  63 82 90  63 82 90  63 82 90  64 83 91  108 127 134  151 169 174  151 169 174  151 169 174  125 143 150  124 142 149  124 142 149  124 142 149  124 142 149  124 142 149  124 142 149  124 142 149  124 142 149  124 142 149  124 142 149  124 142 149  124 142 149  124 142 149  124 142 149  124 142 149  124 142 149  124 142 149  124 142 149  124 142 149  124 142 149  124 142 149  124 142 149  124 142 149  124 142 149  124 142 149  147 165 170  151 169 174  151 169 174  120 138 144  65 84 92  63 82 90  63 82 90  63 82 90  63 82 90  75 94 101  120 138 144  150 168 173  151 169 174  151 169 174  151 169 174  151 169 174  151 169 174  151 169 174  151 169 174  151 169 174  151 169 174  151 169 174  151 169 174  151 169 174  145 163 168  103 122 128  63 82 90  63 82 90  63 82 90  95 113 120  151 169 174  151 169 174  151 169 174  151 169 174  151 169 174  151 169 174  151 169 174  151 169 174  151 169 174  151 169 174  151 169 174  151 169 174  106 126 132  51 59 62  151 169 174  151 169 174  151 169 174  172 180 183  130 151 157  130 151 157  130 151 157  130 151 157  130 151 157  130 151 157  130 151 157  63 82 90  151 169 174  151 169 174  151 169 174  139 158 163  98 123 131  98 123 131  98 123 131  98 123 131  98 123 131  98 123 131  98 123 131  98 123 131  98 123 131  98 123 131  98 123 131  98 123 131  98 123 131  98 123 131  66 87 95  46 55 60  151 169 174  151 169 174  151 169 174  130 151 157  130 151 157  130 151 157  130 151 157  130 151 157  130 151 157  130 151 157  130 151 157  130 151 157  130 151 157  130 151 157  130 151 157  130 151 157  130 151 157  130 151 157  130 151 157  130 151 157  133 153 159  136 156 162  139 159 164  143 162 167  146 164 170  148 167 172  136 154 160  95 115 121  92 112 118  92 112 118  92 112 118  92 112 118  92 112 118  92 112 118  92 112 118  92 112 118  92 112 118  92 112 118  92 112 118  92 112 118  92 112 118  92 112 118  92 112 118  92 112 118  92 112 118  92 112 118  92 112 118  92 112 118
92 112 118  92 112 118  93 113 119  139 157 162  151 169 174  151 169 174  151 169 174  151 169 174  151 169 174  151 169 174  151 169 174  151 169 174  151 169 174  151 169 174  151 169 174  151 169 174  151 169 174  150 168 173  147 166 171  137 157 162  130 151 157  130 151 157  130 151 157  130 151 157  130 151 157  130 151 157  130 151 157  130 151 157  194 206 209  151 169 174  151 169 174  51 63 68  66 87 95  98 123 131  98 123 131  98 123 131  98 123 131  98 123 131  98 123 131  98 123 131  98 123 131  98 123 131  98 123 131  98 123 131  98 123 131  98 123 131  149 167 172  151 169 174  151 169 174  151 169 174  63 82 90  130 151 157  130 151 157  130 151 157  130 151 157  130 151 157  130 151 157  150 168 173  193 205 209  151 169 174  151 169 174  97 116 123  96 115 122  85 105 111  151 169 174  151 169 174  151 169 174  151 169 174  151 169 174  151 169 174  151 169 174  151 169 174  151 169 174  151 169 174  151 169 174  146 165 170  130 151 157  130 151 157  121 142 148  63 82 90  63 82 90  63 82 90  63 82 90  63 82 90  63 82 90  65 84 92  66 85 93  67 86 94  67 86 93  66 85 93  64 83 91  63 82 90  63 82 90  63 82 90  63 82 90  63 82 90  63 82 90  63 82 90  68 86 94  148 166 171  151 169 174  151 169 174  151 169 174  151 169 174  128 146 153  124 142 149  124 142 149  124 142 149  124 142 149  124 142 149  124 142 149  124 142 149  124 142 149  124 142 149  124 142 149  124 142 149  124 142 149  124 142 149  124 142 149  124 142 149  124 142 149  124 142 149  124 142 149  124 142 149  124 142 149  124 142 149  124 142 149  124 142 149  124 142 149  124 142 149  124 142 149  124 142 149  124 142 149  127 145 152  151 169 174  151 169 174  151 169 174  151 169 174  149 167 172  79 98 105  63 82 90  63 82 90  63 82 90  63 82 90  63 82 90  63 82 90  63 82 90  64 83 91  66 85 93  67 86 93  67 86 94  66 85 93  65 84 92  64 83 91  63 82 90  63 82 90  63 82 90  63 82 90  63 82 90  109 129 136  130 151 157  130 151 157  142 161 166  151 169 174  151 169 174  151 169 174  151 169 174  151 169 174  151 169 174  151 169 174  151 169 174  151 169 174  151 169 174  151 169 174  85 105 111  84 101 106  96 115 122  151 169 174  151 169 174  173 188 193  143 161 165  130 151 157  130 151 157  130 151 157  130 151 157  130 151 157  130 151 157  63 82 90  151 169 174  151 169 174  151 169 174  151 169 174  98 123 131  98 123 131  98 123 131  98 123 131  98 123 131  98 123 131  98 123 131  98 123 131  98 123 131  98 123 131  98 123 131  98 123 131  98 123 131  75 97 105  63 81 88  104 118 123  151 169 174  168 184 188  130 151 157  130 151 157  130 151 157  130 151 157  130 151 157  130 151 157  130 151 157  130 151 157  136 156 161  145 164 169  150 168 173  151 169 174  151 169 174  151 169 174  151 169 174  151 169 174  151 169 174  151 169 174  151 169 174  151 169 174  151 169 174  151 169 174  151 169 174  151 169 174  144 162 167  100 120 126  92 112 118  92 112 118  92 112 118  92 112 118  92 112 118  92 112 118  92 112 118  92 112 118  92 112 118  92 112 118  92 112 118  92 112 118  92 112 118  92 112 118  92 112 118  92 112 118  92 112 118  92 112 118  92 112 118  92 112 118
92 112 118  100 120 126  136 155 160  151 169 174  151 169 174  151 169 174  151 169 174  151 169 174  151 169 174  151 169 174  151 169 174  151 169 174  151 169 174  151 169 174  151 169 174  151 169 174  151 169 174  151 169 174  151 169 174  151 169 174  151 169 174  151 169 174  151 169 174  151 169 174  144 163 168  130 151 157  130 151 157  130 151 157  133 153 159  151 169 174  151 169 174  46 55 60  66 87 95  98 123 131  98 123 131  98 123 131  98 123 131  98 123 131  98 123 131  98 123 131  98 123 131  98 123 131  98 123 131  98 123 131  98 123 131  98 123 131  151 169 174  151 169 174  151 169 174  151 169 174  63 82 90  140 159 165  139 159 164  139 159 165  144 163 168  151 169 174  151 169 174  151 169 174  153 170 175  146 164 169  96 115 122  96 115 122  96 115 122  85 105 111  120 139 144  151 169 174  151 169 174  151 169 174  151 169 174  151 169 174  151 169 174  150 168 173  137 157 162  130 151 157  130 151 157  130 151 157  130 151 157  130 151 157  130 151 157  130 151 157  130 151 157  112 133 139  78 97 105  63 82 90  63 82 90  63 82 90  63 82 90  63 82 90  63 82 90  63 82 90  63 82 90  63 82 90  63 82 90  64 83 91  98 117 124  143 161 167  151 169 174  151 169 174  151 169 174  151 169 174  151 169 174  151 169 174  151 169 174  124 142 149  124 142 149  124 142 149  124 142 149  124 142 149  124 142 149  124 142 149  124 142 149  124 142 149  124 142 149  124 142 149  124 142 149  124 142 149  124 142 149  124 142 149  124 142 149  124 142 149  124 142 149  124 142 149  124 142 149  124 142 149  124 142 149  124 142 149  124 142 149  124 142 149  124 142 149  124 142 149  124 142 149  124 142 149  124 142 149  124 142 149  124 142 149  147 165 170  151 169 174  151 169 174  151 169 174  151 169 174  151 169 174  151 169 174  148 166 171  104 122 129  66 85 93  63 82 90  63 82 90  63 82 90  63 82 90  63 82 90  63 82 90  63 82 90  63 82 90  63 82 90  63 82 90  74 93 101  107 127 134  130 151 157  130 151 157  130 151 157  130 151 157  130 151 157  130 151 157  130 151 157  130 151 157  135 155 161  148 167 172  151 169 174  151 169 174  151 169 174  151 169 174  151 169 174  151 169 174  145 164 169  85 105 111  71 84 89  96 115 122  96 115 122  134 152 158  151 169 174  116 130 134  151 169 174  151 169 174  146 164 170  140 159 165  139 159 164  140 160 165  63 82 90  151 169 174  151 169 174  151 169 174  151 169 174  97 122 130  98 123 131  98 123 131  98 123 131  98 123 131  98 123 131  98 123 131  98 123 131  98 123 131  98 123 131  98 123 131  98 123 131  98 123 131  66 87 95  46 55 60  151 169 174  151 169 174  137 158 163  130 151 157  130 151 157  130 151 157  141 161 166  151 169 174  151 169 174  151 169 174  151 169 174  151 169 174  151 169 174  151 169 174  151 169 174  151 169 174  151 169 174  151 169 174  151 169 174  151 169 174  151 169 174  151 169 174  151 169 174  151 169 174  151 169 174  151 169 174  151 169 174  151 169 174  140 158 164  103 123 128  92 112 118  92 112 118  92 112 118  92 112 118  92 112 118  92 112 118  92 112 118  92 112 118  92 112 118  92 112 118  92 112 118  92 112 118  92 112 118  92 112 118  92 112 118  92 112 118  92 112 118  92 112 118  92 112 118
151 169 174  151 169 174  151 169 174  151 169 174  151 169 174  151 169 174  151 169 174  151 169 174  151 169 174  151 169 174  151 169 174  151 169 174  151 169 174  151 169 174  151 169 174  151 169 174  151 169 174  151 169 174  151 169 174  151 169 174  151 169 174  151 169 174  151 169 174  151 169 174  151 169 174  151 169 174  151 169 174  151 169 174  131 152 158  154 171 176  151 169 174  151 169 174  48 58 63  69 90 98  98 123 131  98 123 131  98 123 131  98 123 131  98 123 131  98 123 131  98 123 131  98 123 131  98 123 131  98 123 131  98 123 131  93 118 125  151 169 174  151 169 174  151 169 174  148 166 171  63 82 90  151 169 174  151 169 174  151 169 174  151 169 174  151 169 174  151 169 174  151 169 174  92 110 116  96 115 122  96 115 122  96 115 122  18 20 20  85 105 111  110 130 135  151 169 174  151 169 174  150 168 173  134 155 160  130 151 157  130 151 157  130 151 157  130 151 157  130 151 157  130 151 157  130 151 157  130 151 157  130 151 157  130 151 157  130 151 157  130 151 157  130 151 157  130 151 157  130 151 157  131 151 157  150 168 173  151 169 174  151 169 174  151 169 174  151 169 174  151 169 174  151 169 174  151 169 174  151 169 174  151 169 174  151 169 174  151 169 174  151 169 174  151 169 174  151 169 174  151 169 174  143 161 167  124 142 149  124 142 149  124 142 149  124 142 149  124 142 149  124 142 149  123 141 148  114 134 141  107 127 134  106 127 134  106 127 134  106 127 134  106 127 134  106 127 134  106 127 134  106 127 134  106 127 134  106 127 134  106 127 134  106 127 134  106 127 134  106 127 134  106 127 134  106 127 134  106 127 134  107 127 134  113 132 139  122 140 147  124 142 149  124 142 149  124 142 149  124 142 149  124 142 149  124 142 149  136 154 160  151 169 174  151 169 174  151 169 174  151 169 174  151 169 174  151 169 174  151 169 174  151 169 174  151 169 174  151 169 174  151 169 174  151 169 174  151 169 174  151 169 174  151 169 174  151 169 174  131 152 158  130 151 157  130 151 157  130 151 157  130 151 157  130 151 157  130 151 157  130 151 157  130 151 157  130 151 157  130 151 157  130 151 157  130 151 157  130 151 157  130 151 157  130 151 157  131 152 158  149 167 172  151 169 174  151 169 174  139 158 163  85 105 111  17 18 19  96 115 122  96 115 122  96 115 122  96 115 122  140 157 161  151 169 174  151 169 174  151 169 174  151 169 174  151 169 174  151 169 174  63 82 90  117 136 142  151 169 174  151 169 174  151 169 174  96 117 124  98 123 131  98 123 131  98 123 131  98 123 131  98 123 131  98 123 131  98 123 131  98 123 131  98 123 131  98 123 131  98 123 131  77 100 107  54 67 73  151 169 174  151 169 174  151 169 174  131 152 158  150 168 173  151 169 174  151 169 174  151 169 174  151 169 174  151 169 174  151 169 174  151 169 174  151 169 174  151 169 174  151 169 174  151 169 174  151 169 174  151 169 174  151 169 174  151 169 174  151 169 174  151 169 174  151 169 174  151 169 174  151 169 174  151 169 174  151 169 174  151 169 174  151 169 174  151 169 174  151 169 174  151 169 174  150 168 173  133 151 157  110 130 135  100 120 126  95 115 121  94 114 120  94 114 120  94 114 120  94 114 120  94 114 120  94 114 120  94 114 120  95 115 121  99 119 125  108 127 132  129 148 153  148 166 171  151 169 174
131 152 158  134 154 160  138 158 163  145 164 169  151 169 174  151 169 174  151 169 174  151 169 174  151 169 174  151 169 174  151 169 174  151 169 174  151 169 174  151 169 174  151 169 174  151 169 174  151 169 174  151 169 174  151 169 174  151 169 174  151 169 174  151 169 174  151 169 174  151 169 174  151 169 174  151 169 174  151 169 174  151 169 174  151 169 174  151 169 174  151 169 174  151 169 174  151 169 174  59 76 82  89 112 121  98 123 131  98 123 131  98 123 131  98 123 131  98 123 131  98 123 131  98 123 131  98 123 131  98 123 131  98 123 131  151 169 174  151 169 174  151 169 174  151 169 174  67 86 93  63 82 90  151 169 174  151 169 174  151 169 174  151 169 174  151 169 174  151 169 174  151 169 174  67 76 79  38 43 45  55 66 69  36 42 44  85 105 111  85 105 111  129 150 156  130 151 157  130 151 157  130 151 157  130 151 157  130 151 157  130 151 157  130 151 157  130 151 157  130 151 157  130 151 157  130 151 157  130 151 157  130 151 157  130 151 157  130 151 157  130 151 157  130 151 157  146 165 170  151 169 174  151 169 174  151 169 174  151 169 174  151 169 174  151 169 174  151 169 174  151 169 174  151 169 174  151 169 174  151 169 174  151 169 174  151 169 174  151 169 174  151 169 174  151 169 174  151 169 174  137 155 161  124 142 149  124 142 149  120 139 146  108 129 136  106 127 134  106 127 134  106 127 134  106 127 134  106 127 134  106 127 134  106 127 134  106 127 134  106 127 134  106 127 134  106 127 134  106 127 134  106 127 134  106 127 134  106 127 134  106 127 134  106 127 134  106 127 134  106 127 134  106 127 134  106 127 134  106 127 134  106 127 134  106 127 134  106 127 134  106 127 134  106 127 134  106 127 134  108 128 135  118 136 144  124 142 149  124 142 149  129 147 154  151 169 174  151 169 174  151 169 174  151 169 174  151 169 174  151 169 174  151 169 174  151 169 174  151 169 174  151 169 174  151 169 174  151 169 174  151 169 174  151 169 174  151 169 174  151 169 174  151 169 174  148 166 172  130 151 157  130 151 157  130 151 157  130 151 157  130 151 157  130 151 157  130 151 157  130 151 157  130 151 157  130 151 157  130 151 157  130 151 157  130 151 157  130 151 157  130 151 157  130 151 157  130 151 157  130 151 157  85 105 111  85 105 111  53 64 67  44 52 54  44 50 53  32 36 37  151 169 174  151 169 174  151 169 174  151 169 174  151 169 174  151 169 174  151 169 174  63 82 90  63 82 90  151 169 174  151 169 174  151 169 174  151 169 174  98 123 131  98 123 131  98 123 131  98 123 131  98 123 131  98 123 131  98 123 131  98 123 131  98 123 131  98 123 131  95 120 128  66 87 95  137 153 158  151 169 174  151 169 174  151 169 174  151 169 174  151 169 174  151 169 174  151 169 174  151 169 174  151 169 174  151 169 174  151 169 174  151 169 174  151 169 174  151 169 174  151 169 174  151 169 174  151 169 174  151 169 174  151 169 174  151 169 174  151 169 174  151 169 174  151 169 174  151 169 174  151 169 174  151 169 174  151 169 174  151 169 174  146 165 170  138 158 164  134 155 160  132 152 158  130 151 157  130 151 157  130 151 157  130 151 157  130 151 157  130 151 157  130 151 157  130 151 157  130 151 157  130 151 157  130 151 157  130 151 157  130 151 157  130 151 157  130 151 157  130 151 157  130 151 157  131 152 158
130 151 157  130 151 157  130 151 157  130 151 157  130 151 157  130 151 157  130 151 157  130 151 157  130 151 157  130 151 157  130 151 157  130 151 157  130 151 157  130 151 157  130 151 157  130 151 157  130 151 157  130 151 157  130 151 157  130 151 157  130 151 157  130 151 157  130 151 157  132 152 158  136 157 162  142 161 166  145 164 169  148 166 171  151 169 174  151 169 174  151 169 174  151 169 174  151 169 174  151 169 174  61 78 85  88 112 120  98 123 131  98 123 131  98 123 131  98 123 131  98 123 131  98 123 131  98 123 131  98 123 131  143 161 167  151 169 174  151 169 174  151 169 174  150 168 173  63 82 90  113 133 140  130 151 157  130 151 157  130 151 157  130 151 157  130 151 157  130 151 157  130 151 157  130 151 157  130 151 157  101 121 127  86 106 112  91 111 117  130 151 157  130 151 157  130 151 157  130 151 157  130 151 157  130 151 157  130 151 157  130 151 157  130 151 157  130 151 157  130 151 157  130 151 157  130 151 157  130 151 157  130 151 157  130 151 157  138 158 164  151 169 174  151 169 174  151 169 174  151 169 174  151 169 174  151 169 174  151 169 174  151 169 174  151 169 174  151 169 174  151 169 174  151 169 174  151 169 174  151 169 174  151 169 174  151 169 174  151 169 174  151 169 174  151 169 174  133 151 158  107 128 135  106 127 134  106 127 134  106 127 134  106 127 134  106 127 134  106 127 134  106 127 134  106 127 134  106 127 134  106 127 134  106 127 134  106 127 134  106 127 134  106 127 134  107 128 135  108 129 136  109 129 137  110 130 137  110 130 137  109 129 137  109 129 136  108 128 135  106 127 134  106 127 134  106 127 134  106 127 134  106 127 134  106 127 134  106 127 134  106 127 134  106 127 134  106 127 134  106 127 134  106 127 134  106 127 134  106 127 134  107 128 135  124 143 150  151 169 174  151 169 174  151 169 174  151 169 174  151 169 174  151 169 174  151 169 174  151 169 174  151 169 174  151 169 174  151 169 174  151 169 174  151 169 174  151 169 174  151 169 174  151 169 174  151 169 174  151 169 174  151 169 174  141 161 167  130 151 157  130 151 157  130 151 157  130 151 157  130 151 157  130 151 157  130 151 157  130 151 157  130 151 157  130 151 157  130 151 157  130 151 157  130 151 157  130 151 157  130 151 157  130 151 157  93 113 119  86 106 112  97 117 123  130 151 157  130 151 157  130 151 157  130 151 157  130 151 157  130 151 157  130 151 157  130 151 157  130 151 157  126 147 153  63 82 90  144 162 167  151 169 174  151 169 174  151 169 174  150 168 173  98 123 131  98 123 131  98 123 131  98 123 131  98 123 131  98 123 131  98 123 131  98 123 131  95 119 127  65 86 93  144 162 167  151 169 174  151 169 174  151 169 174  151 169 174  151 169 174  148 167 172  145 164 170  142 161 167  137 157 163  133 153 159  130 151 157  130 151 157  130 151 157  130 151 157  130 151 157  130 151 157  130 151 157  130 151 157  130 151 157  130 151 157  130 151 157  130 151 157  130 151 157  130 151 157  130 151 157  130 151 157  130 151 157  130 151 157  130 151 157  130 151 157  130 151 157  130 151 157  130 151 157  130 151 157  130 151 157  130 151 157  130 151 157  130 151 157  130 151 157  130 151 157  130 151 157  130 151 157  130 151 157  130 151 157  130 151 157  130 151 157  130 151 157  130 151 157  130 151 157  130 151 157  130 151 157
151 169 174  151 169 174  151 169 174  151 169 174  151 169 174  151 169 174  146 165 170  141 160 166  135 156 161  131 152 157  130 151 157  130 151 157  130 151 157  130 151 157  130 151 157  130 151 157  130 151 157  130 151 157  130 151 157  130 151 157  130 151 157  130 151 157  130 151 157  130 151 157  130 151 157  130 151 157  130 151 157  130 151 157  130 151 157  130 151 157  130 151 157  130 151 157  151 169 174  151 169 174  151 169 174  79 92 98  66 87 95  98 123 131  98 123 131  98 123 131  98 123 131  98 123 131  98 123 131  151 169 174  151 169 174  151 169 174  151 169 174  151 169 174  63 82 90  63 82 90  130 151 157  130 151 157  130 151 157  130 151 157  130 151 157  130 151 157  130 151 157  130 151 157  130 151 157  130 151 157  130 151 157  130 151 157  130 151 157  130 151 157  130 151 157  130 151 157  130 151 157  130 151 157  130 151 157  130 151 157  130 151 157  130 151 157  130 151 157  130 151 157  130 151 157  130 151 157  130 151 157  151 169 174  151 169 174  151 169 174  151 169 174  151 169 174  151 169 174  151 169 174  151 169 174  151 169 174  151 169 174  151 169 174  151 169 174  151 169 174  151 169 174  151 169 174  151 169 174  151 169 174  151 169 174  151 169 174  136 156 161  130 151 157  116 136 143  106 127 134  106 127 134  106 127 134  106 127 134  106 127 134  106 127 134  106 127 134  106 127 134  106 126 133  95 114 121  108 127 134  115 134 141  115 134 141  115 134 141  115 134 141  115 134 141  115 134 141  115 134 141  115 134 141  115 134 141  115 134 141  115 134 141  115 134 141  115 134 141  115 134 141  115 134 141  115 134 141  115 134 141  115 134 141  113 131 138  94 112 119  104 125 132  106 127 134  106 127 134  106 127 134  106 127 134  106 127 134  106 127 134  106 127 134  106 127 134  112 132 139  130 151 157  132 152 158  151 169 174  151 169 174  151 169 174  151 169 174  151 169 174  151 169 174  151 169 174  151 169 174  151 169 174  151 169 174  151 169 174  151 169 174  151 169 174  151 169 174  151 169 174  151 169 174  151 169 174  151 169 174  151 169 174  131 152 158  130 151 157  130 151 157  130 151 157  130 151 157  130 151 157  130 151 157  130 151 157  130 151 157  130 151 157  130 151 157  130 151 157  130 151 157  130 151 157  130 151 157  130 151 157  130 151 157  130 151 157  130 151 157  130 151 157  130 151 157  130 151 157  130 151 157  130 151 157  130 151 157  130 151 157  130 151 157  63 82 90  63 82 90  151 169 174  151 169 174  151 169 174  151 169 174  151 169 174  98 123 131  98 123 131  98 123 131  98 123 131  98 123 131  98 123 131  68 89 96  56 70 76  151 169 174  151 169 174  151 169 174  118 139 145  130 151 157  130 151 157  130 151 157  130 151 157  130 151 157  130 151 157  130 151 157  130 151 157  130 151 157  130 151 157  130 151 157  130 151 157  130 151 157  130 151 157  130 151 157  130 151 157  130 151 157  130 151 157  130 151 157  130 151 157  130 151 157  131 152 157  135 155 161  141 160 165  145 164 170  150 168 173  151 169 174  151 169 174  151 169 174  151 169 174  151 169 174  151 169 174  151 169 174  151 169 174  151 169 174  151 169 174  151 169 174  151 169 174  151 169 174  151 169 174  151 169 174  151 169 174  151 169 174  151 169 174  151 169 174  151 169 174  151 169 174  151 169 174  151 169 174
151 169 174  151 169 174  151 169 174  151 169 174  151 169 174  151 169 174  151 169 174  151 169 174  151 169 174  151 169 174  151 169 174  151 169 174  151 169 174  151 169 174  151 169 174  151 169 174  151 169 174  150 169 174  148 166 171  142 161 166  131 152 158  130 151 157  130 151 157  130 151 157  130 151 157  130 151 157  130 151 157  130 151 157  130 151 157  130 151 157  130 151 157  130 151 157  114 134 141  151 169 174  151 169 174  151 169 174  151 169 174  139 157 163  102 122 128  88 108 116  113 133 140  147 165 170  151 169 174  151 169 174  151 169 174  151 169 174  151 169 174  72 91 99  63 82 90  116 137 143  130 151 157  130 151 157  130 151 157  130 151 157  130 151 157  130 151 157  130 151 157  130 151 157  130 151 157  130 151 157  130 151 157  130 151 157  130 151 157  130 151 157  130 151 157  130 151 157  130 151 157  130 151 157  130 151 157  130 151 157  130 151 157  130 151 157  130 151 157  130 151 157  147 166 171  151 169 174  151 169 174  151 169 174  151 169 174  151 169 174  151 169 174  151 169 174  151 169 174  151 169 174  151 169 174  151 169 174  151 169 174  151 169 174  151 169 174  151 169 174  151 169 174  151 169 174  148 166 171  132 152 158  130 151 157  130 151 157  130 151 157  119 140 147  106 127 134  106 127 134  106 127 134  106 127 134  106 127 134  106 127 134  101 119 127  77 92 97  114 133 140  115 134 141  115 134 141  115 134 141  115 134 141  115 134 141  115 134 141  115 134 141  115 134 141  115 134 141  115 134 141  115 134 141  115 134 141  115 134 141  115 134 141  115 134 141  115 134 141  115 134 141  115 134 141  115 134 141  115 134 141  115 134 141  115 134 141  115 134 141  115 134 141  114 133 140  83 99 105  92 110 117  106 127 134  106 127 134  106 127 134  106 127 134  106 127 134  106 127 134  111 132 139  130 151 157  130 151 157  130 151 157  131 151 157  144 163 168  151 169 174  151 169 174  151 169 174  151 169 174  151 169 174  151 169 174  151 169 174  151 169 174  151 169 174  151 169 174  151 169 174  151 169 174  151 169 174  151 169 174  151 169 174  151 169 174  151 169 174  148 167 172  130 151 157  130 151 157  130 151 157  130 151 157  130 151 157  130 151 157  130 151 157  130 151 157  130 151 157  130 151 157  130 151 157  130 151 157  130 151 157  130 151 157  130 151 157  130 151 157  130 151 157  130 151 157  130 151 157  130 151 157  130 151 157  130 151 157  130 151 157  130 151 157  130 151 157  63 82 90  64 83 91  151 169 174  151 169 174  151 169 174  151 169 174  151 169 174  150 168 173  120 139 146  89 110 118  97 117 123  136 154 160  151 169 174  151 169 174  151 169 174  151 169 174  94 114 121  130 151 157  130 151 157  130 151 157  130 151 157  130 151 157  130 151 157  130 151 157  130 151 157  130 151 157  130 151 157  130 151 157  131 151 157  140 160 165  147 166 171  150 168 173  151 169 174  151 169 174  151 169 174  151 169 174  151 169 174  151 169 174  151 169 174  151 169 174  151 169 174  151 169 174  151 169 174  151 169 174  151 169 174  151 169 174  151 169 174  151 169 174  151 169 174  151 169 174  151 169 174  151 169 174  151 169 174  151 169 174  151 169 174  151 169 174  151 169 174  151 169 174  151 169 174  151 169 174  151 169 174  151 169 174  151 169 174  151 169 174  151 169 174  151 169 174  151 169 174
141 156 160  144 159 164  151 169 174  151 169 174  151 169 174  151 169 174  151 169 174  151 169 174  151 169 174  151 169 174  151 169 174  151 169 174  151 169 174  151 169 174  151 169 174  151 169 174  151 169 174  151 169 174  151 169 174  151 169 174  151 169 174  151 169 174  151 169 174  151 169 174  150 168 173  139 159 165  130 151 157  130 151 157  130 151 157  130 151 157  130 151 157  130 151 157  130 151 157  109 130 136  94 113 120  151 169 174  151 169 174  151 169 174  151 169 174  151 169 174  151 169 174  151 169 174  151 169 174  151 169 174  151 169 174  151 169 174  65 84 92  63 82 90  76 95 103  130 151 157  130 151 157  130 151 157  130 151 157  130 151 157  130 151 157  130 151 157  130 151 157  130 151 157  130 151 157  130 151 157  130 151 157  130 151 157  130 151 157  130 151 157  130 151 157  130 151 157  130 151 157  130 151 157  130 151 157  130 151 157  136 156 161  149 168 173  151 169 174  151 169 174  151 169 174  151 169 174  151 169 174  151 169 174  151 169 174  151 169 174  151 169 174  151 169 174  151 169 174  151 169 174  151 169 174  151 169 174  151 169 174  151 169 174  151 169 174  142 161 167  130 151 157  130 151 157  130 151 157  130 151 157  130 151 157  130 151 157  123 143 150  106 127 134  106 127 134  106 127 134  113 133 140  124 142 149  97 112 119  73 87 93  115 134 141  115 134 141  115 134 141  115 134 141  115 134 141  115 134 141  115 134 141  115 134 141  115 134 141  115 134 141  114 133 140  108 126 134  101 119 127  96 114 123  94 111 121  93 111 121  96 113 123  100 118 127  107 125 133  113 132 139  115 134 141  115 134 141  115 134 141  115 134 141  115 134 141  115 134 141  115 134 141  115 134 141  115 134 141  115 134 141  84 99 106  85 100 105  124 142 149  116 135 142  106 127 134  106 127 134  106 127 134  117 137 144  130 151 157  130 151 157  130 151 157  130 151 157  130 151 157  130 151 157  139 159 165  151 169 174  151 169 174  151 169 174  151 169 174  151 169 174  151 169 174  151 169 174  151 169 174  151 169 174  151 169 174  151 169 174  151 169 174  151 169 174  151 169 174  151 169 174  151 169 174  151 169 174  150 169 174  137 157 163  130 151 157  130 151 157  130 151 157  130 151 157  130 151 157  130 151 157  130 151 157  130 151 157  130 151 157  130 151 157  130 151 157  130 151 157  130 151 157  130 151 157  130 151 157  130 151 157  130 151 157  130 151 157  130 151 157  130 151 157  130 151 157  97 117 124  63 82 90  63 82 90  151 169 174  151 169 174  151 169 174  151 169 174  151 169 174  151 169 174  151 169 174  151 169 174  151 169 174  151 169 174  151 169 174  114 132 138  90 110 117  130 151 157  130 151 157  130 151 157  130 151 157  130 151 157  130 151 157  130 151 157  138 158 163  149 167 172  151 169 174  151 169 174  151 169 174  151 169 174  151 169 174  151 169 174  151 169 174  151 169 174  151 169 174  151 169 174  151 169 174  151 169 174  151 169 174  151 169 174  151 169 174  151 169 174  151 169 174  151 169 174  151 169 174  151 169 174  151 169 174  152 170 175  145 161 165  141 156 160  133 147 150  123 134 137  117 125 127  118 124 126  121 127 129  124 130 132  127 132 134  128 133 135  128 134 135  128 133 135  127 133 135  125 131 133  122 128 130  118 125 127  116 124 126  122 132 135  132 145 148  141 156 160
151 169 174  151 169 174  151 169 174  151 169 174  151 169 174  151 169 174  151 169 174  151 169 174  151 169 174  151 169 174  151 169 174  151 169 174  151 169 174  151 169 174  151 169 174  151 169 174  151 169 174  151 169 174  151 169 174  151 169 174  151 169 174  151 169 174  151 169 174  151 169 174  151 169 174  151 169 174  151 169 174  151 169 174  151 169 174  143 163 168  133 153 159  130 151 157  130 151 157  130 151 157  130 151 157  63 82 90  100 119 125  151 169 174  151 169 174  151 169 174  151 169 174  151 169 174  151 169 174  151 169 174  111 129 136  63 82 90  63 82 90  73 93 100  130 151 157  130 151 157  130 151 157  130 151 157  130 151 157  130 151 157  130 151 157  130 151 157  130 151 157  130 151 157  130 151 157  130 151 157  130 151 157  130 151 157  130 151 157  130 151 157  130 151 157  130 151 157  138 157 163  151 169 174  151 169 174  151 169 174  151 169 174  151 169 174  151 169 174  151 169 174  151 169 174  151 169 174  151 169 174  151 169 174  151 169 174  151 169 174  151 169 174  151 169 174  151 169 174  151 169 174  151 169 174  151 169 174  145 164 169  130 151 157  130 151 157  130 151 157  130 151 157  130 151 157  130 151 157  130 151 157  130 151 157  128 148 155  107 127 134  120 138 145  124 142 149  124 142 149  123 141 148  51 63 68  108 126 133  115 134 141  115 134 141  115 134 141  115 134 141  115 134 141  115 134 141  115 134 141  104 123 131  80 98 108  78 95 106  78 95 106  78 95 106  78 95 106  78 95 106  78 95 106  78 95 106  78 95 106  78 95 106  78 95 106  78 95 106  78 95 106  78 95 106  78 95 106  80 97 108  100 118 127  114 133 140  115 134 141  115 134 141  115 134 141  115 134 141  115 134 141  115 134 141  115 134 141  48 59 64  121 139 146  124 142 149  124 142 149  122 140 147  107 128 135  125 145 152  130 151 157  130 151 157  130 151 157  130 151 157  130 151 157  130 151 157  130 151 157  130 151 157  142 161 167  151 169 174  151 169 174  151 169 174  151 169 174  151 169 174  151 169 174  151 169 174  151 169 174  151 169 174  151 169 174  151 169 174  151 169 174  151 169 174  151 169 174  151 169 174  151 169 174  151 169 174  151 169 174  151 169 174  140 160 165  131 152 158  130 151 157  130 151 157  130 151 157  130 151 157  130 151 157  130 151 157  130 151 157  130 151 157  130 151 157  130 151 157  130 151 157  130 151 157  130 151 157  130 151 157  130 151 157  130 151 157  130 151 157  92 112 119  63 82 90  63 82 90  89 108 115  151 169 174  151 169 174  151 169 174  151 169 174  151 169 174  151 169 174  151 169 174  117 136 142  63 82 90  119 139 146  130 151 157  130 151 157  130 151 157  132 153 159  141 161 166  151 169 174  151 169 174  151 169 174  151 169 174  151 169 174  151 169 174  151 169 174  151 169 174  151 169 174  151 169 174  151 169 174  151 169 174  151 169 174  151 169 174  151 169 174  151 169 174  151 169 174  151 169 174  151 169 174  151 169 174  151 169 174  151 169 174  151 169 174  151 169 174  151 169 174  151 169 174  151 169 174  151 169 174  151 169 174  151 169 174  151 169 174  151 169 174  151 169 174  151 169 174  151 169 174  151 169 174  151 169 174  151 169 174  151 169 174  151 169 174  151 169 174  151 169 174  151 169 174  151 169 174  151 169 174  151 169 174  151 169 174
151 169 174  151 169 174  151 169 174  151 169 174  151 169 174  151 169 174  151 169 174  151 169 174  151 169 174  151 169 174  151 169 174  151 169 174  151 169 174  151 169 174  151 169 174  151 169 174  151 169 174  151 169 174  151 169 174  151 169 174  151 169 174  151 169 174  151 169 174  151 169 174  151 169 174  151 169 174  151 169 174  151 169 174  151 169 174  151 169 174  151 169 174  151 169 174  151 169 174  151 169 174  151 169 174  151 169 174  86 105 112  63 82 90  63 82 90  63 82 90  63 82 90  63 82 90  63 82 90  63 82 90  63 82 90  63 82 90  122 143 149  130 151 157  130 151 157  130 151 157  130 151 157  130 151 157  130 151 157  130 151 157  130 151 157  130 151 157  130 151 157  130 151 157  130 151 157  130 151 157  130 151 157  130 151 157  146 165 170  151 169 174  151 169 174  151 169 174  151 169 174  151 169 174  151 169 174  151 169 174  151 169 174  151 169 174  151 169 174  151 169 174  151 169 174  151 169 174  151 169 174  151 169 174  151 169 174  151 169 174  151 169 174  151 169 174  151 169 174  151 169 174  130 151 157  130 151 157  130 151 157  130 151 157  130 151 157  130 151 157  130 151 157  130 151 157  130 151 157  130 151 157  142 161 167  124 142 149  124 142 149  124 142 149  124 142 149  124 142 149  47 59 64  115 134 141  115 134 141  115 134 141  115 134 141  115 134 141  115 134 141  115 134 141  88 106 116  78 95 106  78 95 106  78 95 106  78 95 106  78 95 106  78 95 106  78 95 106  78 95 106  78 95 106  78 95 106  78 95 106  78 95 106  78 95 106  78 95 106  78 95 106  78 95 106  78 95 106  78 95 106  78 95 106  78 95 106  85 102 113  113 132 139  115 134 141  115 134 141  115 134 141  115 134 141  115 134 141  115 134 141  50 62 67  123 141 148  124 142 149  124 142 149  124 142 149  124 142 149  145 164 169  130 151 157  130 151 157  130 151 157  130 151 157  130 151 157  130 151 157  130 151 157  130 151 157  130 151 157  130 151 157  151 169 174  151 169 174  151 169 174  151 169 174  151 169 174  151 169 174  151 169 174  151 169 174  151 169 174  151 169 174  151 169 174  151 169 174  151 169 174  151 169 174  151 169 174  151 169 174  151 169 174  151 169 174  151 169 174  151 169 174  151 169 174  149 168 173  130 151 157  130 151 157  130 151 157  130 151 157  130 151 157  130 151 157  130 151 157  130 151 157  130 151 157  130 151 157  130 151 157  130 151 157  130 151 157  130 151 157  130 151 157  130 151 157  63 82 90  63 82 90  63 82 90  63 82 90  63 82 90  63 82 90  63 82 90  63 82 90  63 82 90  67 86 94  150 168 173  151 169 174  151 169 174  151 169 174  151 169 174  151 169 174  151 169 174  151 169 174  151 169 174  151 169 174  151 169 174  151 169 174  151 169 174  151 169 174  151 169 174  151 169 174  151 169 174  151 169 174  151 169 174  151 169 174  151 169 174  151 169 174  151 169 174  151 169 174  151 169 174  150 168 173  151 169 174  151 169 174  151 169 174  151 169 174  151 169 174  151 169 174  151 169 174  151 169 174  151 169 174  151 169 174  151 169 174  151 169 174  151 169 174  151 169 174  151 169 174  151 169 174  151 169 174  151 169 174  151 169 174  151 169 174  151 169 174  151 169 174  151 169 174  151 169 174  151 169 174  151 169 174  151 169 174  151 169 174
88 110 117  88 110 117  91 112 118  100 118 123  142 159 164  151 169 174  151 169 174  151 169 174  151 169 174  151 169 174  151 169 174  151 169 174  148 166 171  141 159 164  151 169 174  151 169 174  151 169 174  151 169 174  151 169 174  151 169 174  151 169 174  151 169 174  151 169 174  151 169 174  151 169 174  151 169 174  151 169 174  151 169 174  151 169 174  151 169 174  151 169 174  151 169 174  151 169 174  151 169 174  151 169 174  151 169 174  151 169 174  151 169 174  139 157 162  66 85 93  63 82 90  63 82 90  63 82 90  67 86 94  122 143 149  130 151 157  130 151 157  130 151 157  130 151 157  130 151 157  130 151 157  130 151 157  130 151 157  130 151 157  130 151 157  130 151 157  131 152 158  146 164 169  150 168 173  151 169 174  151 169 174  151 169 174  151 169 174  151 169 174  151 169 174  151 169 174  151 169 174  151 169 174  151 169 174  151 169 174  151 169 174  151 169 174  151 169 174  151 169 174  151 169 174  151 169 174  151 169 174  151 169 174  151 169 174  151 169 174  151 169 174  145 164 169  130 151 157  130 151 157  130 151 157  130 151 157  130 151 157  130 151 157  130 151 157  130 151 157  130 151 157  130 151 157  150 168 173  151 169 174  125 143 150  124 142 149  124 142 149  124 142 149  124 142 149  49 61 66  103 121 127  115 134 141  115 134 141  115 134 141  115 134 141  115 134 141  103 122 130  78 95 106  78 95 106  78 95 106  78 95 106  78 95 106  78 95 106  78 95 106  78 95 106  78 95 106  78 95 106  78 95 106  78 95 106  78 95 106  78 95 106  78 95 106  78 95 106  78 95 106  78 95 106  78 95 106  78 95 106  78 95 106  78 95 106  78 95 106  78 95 106  98 116 125  115 134 141  115 134 141  115 134 141  115 134 141  115 134 141  111 129 136  46 57 62  124 142 149  124 142 149  124 142 149  124 142 149  124 142 149  151 169 174  151 169 174  130 151 157  130 151 157  130 151 157  130 151 157  130 151 157  130 151 157  130 151 157  130 151 157  130 151 157  130 151 157  141 160 166  151 169 174  151 169 174  151 169 174  151 169 174  151 169 174  151 169 174  151 169 174  151 169 174  151 169 174  151 169 174  151 169 174  151 169 174  151 169 174  151 169 174  151 169 174  151 169 174  151 169 174  151 169 174  151 169 174  151 169 174  151 169 174  151 169 174  151 169 174  147 166 171  133 153 159  130 151 157  130 151 157  130 151 157  130 151 157  130 151 157  130 151 157  130 151 157  130 151 157  130 151 157  130 151 157  130 151 157  125 146 152  75 94 102  63 82 90  63 82 90  63 82 90  63 82 90  133 152 157  151 169 174  151 169 174  151 169 174  151 169 174  151 169 174  151 169 174  151 169 174  151 169 174  151 169 174  151 169 174  151 169 174  151 169 174  151 169 174  151 169 174  151 169 174  151 169 174  151 169 174  151 169 174  151 169 174  151 169 174  151 169 174  151 169 174  151 169 174  151 169 174  149 167 172  144 162 167  151 169 174  151 169 174  151 169 174  151 169 174  151 169 174  151 169 174  151 169 174  149 166 171  105 123 128  91 112 118  88 110 118  88 110 117  86 108 115  83 105 112  80 101 107  75 96 103  70 90 96  65 85 91  63 81 88  62 79 86  62 78 85  62 79 86  63 81 88  65 84 91  69 89 96  74 95 102  79 100 107  83 104 111  85 107 115  88 110 117
98 123 131  98 123 131  98 123 131  98 123 131  98 123 131  98 123 131  98 123 131  110 133 140  151 169 174  151 169 174  151 169 174  151 169 174  151 169 174  151 169 174  81 100 107  151 169 174  151 169 174  151 169 174  151 169 174  151 169 174  151 169 174  151 169 174  151 169 174  151 169 174  151 169 174  151 169 174  151 169 174  151 169 174  151 169 174  151 169 174  151 169 174  151 169 174  151 169 174  151 169 174  151 169 174  151 169 174  151 169 174  151 169 174  151 169 174  151 169 174  151 169 174  130 151 157  130 151 157  130 151 157  130 151 157  130 151 157  130 151 157  130 151 157  130 151 157  130 151 157  130 151 157  141 160 166  148 167 172  151 169 174  151 169 174  151 169 174  151 169 174  151 169 174  151 169 174  151 169 174  151 169 174  151 169 174  151 169 174  151 169 174  151 169 174  151 169 174  151 169 174  151 169 174  151 169 174  151 169 174  151 169 174  151 169 174  151 169 174  151 169 174  151 169 174  151 169 174  151 169 174  151 169 174  151 169 174  138 157 163  130 151 157  130 151 157  130 151 157  130 151 157  130 151 157  130 151 157  130 151 157  130 151 157  130 151 157  130 151 157  147 166 171  151 169 174  151 169 174  130 149 155  124 142 149  124 142 149  124 142 149  124 142 149  98 113 119  64 77 83  115 134 141  115 134 141  115 134 141  115 134 141  115 134 141  99 118 127  78 95 106  78 95 106  78 95 106  78 95 106  78 95 106  78 95 106  78 95 106  78 95 106  78 95 106  78 95 106  78 95 106  78 95 106  78 95 106  78 95 106  78 95 106  78 95 106  78 95 106  78 95 106  78 95 106  78 95 106  78 95 106  78 95 106  78 95 106  78 95 106  78 95 106  78 95 106  94 112 121  115 134 141  115 134 141  115 134 141  115 134 141  115 134 141  81 95 101  83 97 103  124 142 149  124 142 149  124 142 149  124 142 149  125 144 150  151 169 174  151 169 174  150 168 173  130 151 157  130 151 157  130 151 157  130 151 157  130 151 157  130 151 157  130 151 157  130 151 157  130 151 157  130 151 157  135 155 161  151 169 174  151 169 174  151 169 174  151 169 174  151 169 174  151 169 174  151 169 174  151 169 174  151 169 174  151 169 174  151 169 174  151 169 174  151 169 174  151 169 174  151 169 174  151 169 174  151 169 174  151 169 174  151 169 174  151 169 174  151 169 174  151 169 174  151 169 174  151 169 174  151 169 174  151 169 174  149 168 173  142 161 167  131 152 158  130 151 157  130 151 157  130 151 157  130 151 157  130 151 157  130 151 157  130 151 157  130 151 157  130 151 157  150 168 173  151 169 174  151 169 174  151 169 174  151 169 174  151 169 174  151 169 174  151 169 174  151 169 174  151 169 174  151 169 174  151 169 174  151 169 174  151 169 174  151 169 174  151 169 174  151 169 174  151 169 174  151 169 174  151 169 174  151 169 174  151 169 174  151 169 174  151 169 174  151 169 174  151 169 174  87 106 113  151 169 174  151 169 174  151 169 174  151 169 174  151 169 174  151 169 174  116 139 146  98 123 131  98 123 131  98 123 131  98 123 131  98 123 131  98 123 131  98 123 131  98 123 131  98 123 131  98 123 131  98 123 131  98 123 131  98 123 131  98 123 131  98 123 131  98 123 131  98 123 131  98 123 131  98 123 131  98 123 131  98 123 131  98 123 131  98 123 131  98 123 131  98 123 131
98 123 131  98 123 131  98 123 131  98 123 131  98 123 131  98 123 131  98 123 131  98 123 131  98 123 131  100 125 133  149 168 173  151 169 174  151 169 174  151 169 174  151 169 174  89 108 114  149 167 172  151 169 174  151 169 174  151 169 174  151 169 174  151 169 174  151 169 174  151 169 174  151 169 174  151 169 174  151 169 174  151 169 174  151 169 174  151 169 174  151 169 174  151 169 174  151 169 174  151 169 174  151 169 174  151 169 174  151 169 174  151 169 174  151 169 174  151 169 174  151 169 174  151 169 174  151 169 174  151 169 174  149 168 173  151 169 174  151 169 174  151 169 174  151 169 174  151 169 174  151 169 174  151 169 174  151 169 174  151 169 174  151 169 174  151 169 174  151 169 174  151 169 174  151 169 174  151 169 174  151 169 174  151 169 174  151 169 174  151 169 174  151 169 174  153 171 176  151 169 174  151 169 174  151 169 174  151 169 174  151 169 174  151 169 174  151 169 174  151 169 174  151 169 174  151 169 174  151 169 174  134 155 160  130 151 157  130 151 157  130 151 157  130 151 157  130 151 157  130 151 157  130 151 157  130 151 157  130 151 157  130 151 157  141 160 166  151 169 174  151 169 174  151 169 174  145 163 168  124 142 149  124 142 149  124 142 149  124 142 149  124 142 149  46 57 62  104 122 128  115 134 141  115 134 141  115 134 141  115 134 141  112 131 138  78 95 106  78 95 106  78 95 106  78 95 106  78 95 106  78 95 106  78 95 106  78 95 106  78 95 106  78 95 106  78 95 106  78 95 106  78 95 106  78 95 106  78 95 106  78 95 106  78 95 106  78 95 106  78 95 106  78 95 106  78 95 106  78 95 106  78 95 106  78 95 106  78 95 106  78 95 106  78 95 106  78 95 106  107 126 134  115 134 141  115 134 141  115 134 141  115 134 141  115 134 141  46 57 62  124 142 149  124 142 149  124 142 149  124 142 149  124 142 149  138 156 162  151 169 174  151 169 174  151 169 174  145 164 169  130 151 157  130 151 157  130 151 157  130 151 157  130 151 157  130 151 157  130 151 157  130 151 157  130 151 157  130 151 157  132 153 158  151 169 174  151 169 174  151 169 174  151 169 174  151 169 174  151 169 174  151 169 174  151 169 174  151 169 174  151 169 174  151 169 174  153 171 176  151 169 174  151 169 174  151 169 174  151 169 174  151 169 174  151 169 174  151 169 174  151 169 174  151 169 174  151 169 174  151 169 174  151 169 174  151 169 174  151 169 174  151 169 174  151 169 174  151 169 174  151 169 174  151 169 174  151 169 174  149 168 173  151 169 174  151 169 174  151 169 174  151 169 174  151 169 174  151 169 174  151 169 174  151 169 174  151 169 174  151 169 174  151 169 174  151 169 174  151 169 174  151 169 174  151 169 174  151 169 174  151 169 174  151 169 174  151 169 174  151 169 174  151 169 174  151 169 174  151 169 174  151 169 174  151 169 174  151 169 174  151 169 174  151 169 174  68 87 94  151 169 174  151 169 174  151 169 174  151 169 174  151 169 174  107 131 139  98 123 131  98 123 131  98 123 131  98 123 131  98 123 131  98 123 131  98 123 131  98 123 131  98 123 131  98 123 131  98 123 131  98 123 131  98 123 131  98 123 131  98 123 131  98 123 131  98 123 131  98 123 131  98 123 131  98 123 131  98 123 131  98 123 131  98 123 131  98 123 131  98 123 131  98 123 131  98 123 131
98 123 131  98 123 131  98 123 131  98 123 131  98 123 131  98 123 131  98 123 131  98 123 131  98 123 131  98 123 131  98 123 131  140 159 165  151 169 174  151 169 174  151 169 174  151 169 174  67 86 94  147 165 171  151 169 174  151 169 174  151 169 174  151 169 174  151 169 174  151 169 174  151 169 174  151 169 174  151 169 174  151 169 174  151 169 174  151 169 174  151 169 174  151 169 174  151 169 174  151 169 174  151 169 174  151 169 174  151 169 174  151 169 174  151 169 174  151 169 174  151 169 174  151 169 174  151 169 174  151 169 174  151 169 174  151 169 174  151 169 174  151 169 174  151 169 174  151 169 174  151 169 174  151 169 174  151 169 174  151 169 174  151 169 174  151 169 174  151 169 174  151 169 174  151 169 174  151 169 174  151 169 174  154 172 177  217 226 228  203 214 217  157 174 179  151 169 174  151 169 174  164 181 185  208 219 221  159 176 180  151 169 174  151 169 174  151 169 174  151 169 174  138 158 164  130 151 157  130 151 157  130 151 157  130 151 157  130 151 157  130 151 157  130 151 157  130 151 157  130 151 157  130 151 157  130 151 157  135 155 161  151 169 174  151 169 174  151 169 174  151 169 174  151 169 174  124 142 149  124 142 149  124 142 149  124 142 149  122 141 148  107 128 135  46 57 62  115 134 141  115 134 141  115 134 141  115 134 141  115 134 141  100 118 127  78 95 106  78 95 106  78 95 106  78 95 106  78 95 106  78 95 106  78 95 106  78 95 106  78 95 106  78 95 106  78 95 106  78 95 106  78 95 106  78 95 106  78 95 106  78 95 106  78 95 106  78 95 106  78 95 106  78 95 106  78 95 106  78 95 106  78 95 106  78 95 106  78 95 106  78 95 106  78 95 106  78 95 106  91 108 118  115 134 141  115 134 141  115 134 141  115 134 141  115 134 141  46 57 62  106 127 134  121 139 146  124 142 149  124 142 149  124 142 149  124 142 149  150 168 173  151 169 174  151 169 174  151 169 174  151 169 174  139 158 164  130 151 157  130 151 157  130 151 157  130 151 157  130 151 157  130 151 157  130 151 157  130 151 157  130 151 157  130 151 157  130 151 157  135 155 161  150 168 173  151 169 174  151 169 174  151 169 174  154 172 177  212 221 224  171 186 190  151 169 174  151 169 174  153 171 176  198 211 213  217 226 228  159 176 181  151 169 174  151 169 174  151 169 174  151 169 174  151 169 174  151 169 174  151 169 174  151 169 174  151 169 174  151 169 174  151 169 174  151 169 174  151 169 174  151 169 174  151 169 174  151 169 174  151 169 174  151 169 174  151 169 174  151 169 174  151 169 174  151 169 174  151 169 174  151 169 174  151 169 174  151 169 174  151 169 174  151 169 174  151 169 174  151 169 174  151 169 174  151 169 174  151 169 174  151 169 174  151 169 174  151 169 174  151 169 174  151 169 174  151 169 174  151 169 174  151 169 174  151 169 174  151 169 174  148 166 171  64 83 91  151 169 174  151 169 174  151 169 174  151 169 174  146 165 170  98 123 131  98 123 131  98 123 131  98 123 131  98 123 131  98 123 131  98 123 131  98 123 131  98 123 131  98 123 131  98 123 131  98 123 131  98 123 131  98 123 131  98 123 131  98 123 131  98 123 131  98 123 131  98 123 131  98 123 131  98 123 131  98 123 131  98 123 131  98 123 131  98 123 131  98 123 131  98 123 131  98 123 131  98 123 131
98 123 131  98 123 131  98 123 131  98 123 131  98 123 131  98 123 131  98 123 131  98 123 131  98 123 131  98 123 131  98 123 131  98 123 131  137 157 163  151 169 174  151 169 174  151 169 174  144 163 168  72 91 99  130 151 157  130 151 157  130 151 157  130 151 157  130 151 157  142 161 166  150 168 173  151 169 174  151 169 174  151 169 174  151 169 174  151 169 174  151 169 174  151 169 174  151 169 174  151 169 174  151 169 174  151 169 174  151 169 174  151 169 174  151 169 174  151 169 174  151 169 174  151 169 174  151 169 174  151 169 174  151 169 174  151 169 174  151 169 174  151 169 174  151 169 174  151 169 174  151 169 174  151 169 174  151 169 174  151 169 174  151 169 174  151 169 174  151 169 174  151 169 174  151 169 174  151 169 174  215 225 227  154 172 177  151 169 174  151 169 174  151 169 174  151 169 174  151 169 174  151 169 174  151 169 174  151 169 174  200 212 214  130 151 157  130 151 157  130 151 157  130 151 157  130 151 157  130 151 157  130 151 157  130 151 157  130 151 157  130 151 157  130 151 157  130 151 157  130 151 157  135 155 161  151 169 174  151 169 174  151 169 174  151 169 174  151 169 174  151 169 174  124 142 149  124 142 149  124 142 149  113 133 140  106 127 134  106 127 134  106 127 134  46 57 62  115 134 141  115 134 141  115 134 141  115 134 141  115 134 141  95 113 122  78 95 106  78 95 106  78 95 106  78 95 106  78 95 106  78 95 106  78 95 106  78 95 106  78 95 106  78 95 106  78 95 106  78 95 106  78 95 106  78 95 106  78 95 106  78 95 106  78 95 106  78 95 106  78 95 106  78 95 106  78 95 106  78 95 106  78 95 106  78 95 106  78 95 106  78 95 106  78 95 106  78 95 106  85 102 113  115 134 141  115 134 141  115 134 141  115 134 141  115 134 141  46 57 62  102 122 129  106 127 134  106 127 134  110 130 137  124 142 149  124 142 149  124 142 149  151 169 174  151 169 174  151 169 174  151 169 174  151 169 174  151 169 174  140 159 165  130 151 157  130 151 157  130 151 157  130 151 157  130 151 157  130 151 157  130 151 157  130 151 157  130 151 157  130 151 157  130 151 157  130 151 157  130 151 157  207 218 220  151 169 174  151 169 174  151 169 174  151 169 174  151 169 174  151 169 174  151 169 174  151 169 174  151 169 174  217 226 228  151 169 174  151 169 174  151 169 174  151 169 174  151 169 174  151 169 174  151 169 174  151 169 174  151 169 174  151 169 174  151 169 174  151 169 174  151 169 174  151 169 174  151 169 174  151 169 174  151 169 174  151 169 174  151 169 174  151 169 174  151 169 174  151 169 174  151 169 174  151 169 174  151 169 174  151 169 174  151 169 174  151 169 174  151 169 174  151 169 174  151 169 174  151 169 174  151 169 174  151 169 174  151 169 174  150 168 173  144 163 168  131 152 158  130 151 157  130 151 157  130 151 157  130 151 157  86 106 113  138 156 161  151 169 174  151 169 174  151 169 174  148 166 171  98 123 131  98 123 131  98 123 131  98 123 131  98 123 131  98 123 131  98 123 131  98 123 131  98 123 131  98 123 131  98 123 131  98 123 131  98 123 131  98 123 131  98 123 131  98 123 131  98 123 131  98 123 131  98 123 131  98 123 131  98 123 131  98 123 131  98 123 131  98 123 131  98 123 131  98 123 131  98 123 131  98 123 131  98 123 131  98 123 131
98 123 131  98 123 131  98 123 131  98 123 131  98 123 131  98 123 131  98 123 131  98 123 131  98 123 131  98 123 131  98 123 131  98 123 131  98 123 131  151 169 174  151 169 174  151 169 174  151 169 174  68 87 95  130 151 157  130 151 157  130 151 157  130 151 157  130 151 157  130 151 157  130 151 157  130 151 157  130 151 157  130 151 157  130 151 157  130 151 157  131 151 157  131 152 158  132 153 158  139 158 164  145 164 169  151 169 174  151 169 174  151 169 174  151 169 174  151 169 174  151 169 174  151 169 174  151 169 174  151 169 174  151 169 174  151 169 174  151 169 174  151 169 174  151 169 174  151 169 174  151 169 174  151 169 174  151 169 174  151 169 174  151 169 174  151 169 174  151 169 174  151 169 174  151 169 174  214 224 226  151 169 174  151 169 174  139 157 163  96 121 129  97 121 129  95 120 127  66 87 95  55 69 75  124 139 144  151 169 174  151 169 174  152 170 175  130 151 157  130 151 157  130 151 157  130 151 157  130 151 157  130 151 157  130 151 157  130 151 157  130 151 157  130 151 157  150 168 173  151 169 174  151 169 174  151 169 174  151 169 174  151 169 174  151 169 174  151 169 174  129 147 153  124 142 149  107 128 135  106 127 134  106 127 134  106 127 134  106 127 134  106 127 134  46 57 62  115 134 141  115 134 141  115 134 141  115 134 141  115 134 141  101 119 128  78 95 106  78 95 106  78 95 106  78 95 106  78 95 106  78 95 106  78 95 106  78 95 106  78 95 106  78 95 106  78 95 106  78 95 106  78 95 106  78 95 106  78 95 106  78 95 106  78 95 106  78 95 106  78 95 106  78 95 106  78 95 106  78 95 106  78 95 106  78 95 106  78 95 106  78 95 106  78 95 106  78 95 106  94 112 122  115 134 141  115 134 141  115 134 141  115 134 141  115 134 141  46 57 62  105 125 132  106 127 134  106 127 134  106 127 134  106 127 134  107 127 134  124 142 149  126 144 151  151 169 174  151 169 174  151 169 174  151 169 174  151 169 174  151 169 174  151 169 174  150 168 173  130 151 157  130 151 157  130 151 157  130 151 157  130 151 157  130 151 157  130 151 157  130 151 157  130 151 157  130 151 157  155 172 177  151 169 174  151 169 174  146 163 168  51 61 67  66 87 95  93 117 125  97 121 129  96 121 129  117 136 143  151 169 174  151 169 174  205 215 218  151 169 174  151 169 174  151 169 174  151 169 174  151 169 174  151 169 174  151 169 174  151 169 174  151 169 174  151 169 174  151 169 174  151 169 174  151 169 174  151 169 174  151 169 174  151 169 174  151 169 174  151 169 174  151 169 174  151 169 174  151 169 174  151 169 174  151 169 174  151 169 174  146 165 170  139 159 164  132 153 159  131 152 158  131 152 157  130 151 157  130 151 157  130 151 157  130 151 157  130 151 157  130 151 157  130 151 157  130 151 157  130 151 157  130 151 157  130 151 157  130 151 157  63 82 90  151 169 174  151 169 174  151 169 174  151 169 174  98 123 131  98 123 131  98 123 131  98 123 131  98 123 131  98 123 131  98 123 131  98 123 131  98 123 131  98 123 131  98 123 131  98 123 131  98 123 131  98 123 131  98 123 131  98 123 131  98 123 131  98 123 131  98 123 131  98 123 131  98 123 131  98 123 131  98 123 131  98 123 131  98 123 131  98 123 131  98 123 131  98 123 131  98 123 131  98 123 131  98 123 131
98 123 131  98 123 131  98 123 131  98 123 131  98 123 131  98 123 131  98 123 131  98 123 131  98 123 131  98 123 131  98 123 131  98 123 131  98 123 131  131 152 158  151 169 174  151 169 174  151 169 174  91 109 116  105 123 130  151 169 174  151 169 174  151 169 174  148 166 172  145 164 169  140 159 165  136 156 162  133 154 159  130 151 157  130 151 157  130 151 157  130 151 157  130 151 157  130 151 157  130 151 157  130 151 157  130 151 157  130 151 157  130 151 157  130 151 157  130 151 157  130 151 157  130 151 157  130 151 157  132 152 158  134 155 160  140 160 165  147 166 171  132 153 159  130 151 157  130 151 157  130 151 157  130 151 157  130 151 157  130 151 157  130 151 157  130 151 157  130 151 157  130 151 157  216 225 227  151 169 174  151 169 174  99 123 131  98 123 131  98 123 131  98 123 131  98 123 131  98 123 131  98 123 131  66 87 95  46 55 60  151 169 174  151 169 174  151 169 174  130 151 157  130 151 157  130 151 157  130 151 157  130 151 157  131 152 158  148 166 172  151 169 174  151 169 174  151 169 174  151 169 174  151 169 174  151 169 174  151 169 174  151 169 174  151 169 174  145 163 168  107 128 135  106 127 134  106 127 134  106 127 134  106 127 134  106 127 134  106 127 134  106 127 134  64 78 84  76 89 95  115 134 141  115 134 141  115 134 141  115 134 141  115 134 141  80 97 108  78 95 106  78 95 106  78 95 106  78 95 106  78 95 106  78 95 106  78 95 106  78 95 106  78 95 106  78 95 106  78 95 106  78 95 106  78 95 106  78 95 106  78 95 106  78 95 106  78 95 106  78 95 106  78 95 106  78 95 106  78 95 106  78 95 106  78 95 106  78 95 106  78 95 106  78 95 106  79 96 107  115 133 141  115 134 141  115 134 141  115 134 141  115 134 141  91 106 113  53 65 70  106 127 134  106 127 134  106 127 134  106 127 134  106 127 134  106 127 134  106 127 134  106 127 134  135 153 159  151 169 174  151 169 174  151 169 174  151 169 174  151 169 174  151 169 174  151 169 174  151 169 174  151 169 174  149 167 172  134 154 160  130 151 157  130 151 157  130 151 157  130 151 157  130 151 157  151 169 174  151 169 174  151 169 174  50 59 64  66 87 95  97 122 130  98 123 131  98 123 131  98 123 131  98 123 131  98 123 131  98 123 131  151 169 174  151 169 174  200 212 214  130 151 157  130 151 157  130 151 157  130 151 157  130 151 157  130 151 157  130 151 157  130 151 157  130 151 157  130 151 157  132 152 158  148 167 172  141 160 166  135 155 161  132 153 159  130 151 157  130 151 157  130 151 157  130 151 157  130 151 157  130 151 157  130 151 157  130 151 157  130 151 157  130 151 157  130 151 157  130 151 157  130 151 157  130 151 157  130 151 157  130 151 157  132 153 159  136 156 162  139 159 164  144 163 168  147 166 171  150 168 173  151 169 174  151 169 174  134 153 158  74 93 101  151 169 174  151 169 174  151 169 174  145 164 169  98 123 131  98 123 131  98 123 131  98 123 131  98 123 131  98 123 131  98 123 131  98 123 131  98 123 131  98 123 131  98 123 131  98 123 131  98 123 131  98 123 131  98 123 131  98 123 131  98 123 131  98 123 131  98 123 131  98 123 131  98 123 131  98 123 131  98 123 131  98 123 131  98 123 131  98 123 131  98 123 131  98 123 131  98 123 131  98 123 131  98 123 131
98 123 131  98 123 131  98 123 131  98 123 131  98 123 131  98 123 131  98 123 131  98 123 131  98 123 131  98 123 131  98 123 131  98 123 131  98 123 131  114 137 144  151 169 174  151 169 174  151 169 174  130 148 154  86 104 111  151 169 174  151 169 174  151 169 174  151 169 174  151 169 174  151 169 174  151 169 174  151 169 174  151 169 174  151 169 174  151 169 174  151 169 174  151 169 174  151 169 174  151 169 174  151 169 174  151 169 174  151 169 174  151 169 174  151 169 174  151 169 174  151 169 174  151 169 174  145 164 170  138 158 164  130 151 157  130 151 157  130 151 157  130 151 157  130 151 157  130 151 157  130 151 157  130 151 157  130 151 157  130 151 157  130 151 157  130 151 157  130 151 157  174 189 192  151 169 174  151 169 174  98 123 131  98 123 131  98 123 131  98 123 131  98 123 131  98 123 131  98 123 131  98 123 131  98 123 131  66 87 95  46 55 60  151 169 174  151 169 174  151 169 174  135 155 161  146 164 170  151 169 174  151 169 174  151 169 174  151 169 174  151 169 174  151 169 174  151 169 174  151 169 174  151 169 174  151 169 174  151 169 174  151 169 174  131 152 158  106 127 134  106 127 134  106 127 134  106 127 134  106 127 134  106 127 134  106 127 134  106 127 134  114 133 141  118 136 143  46 57 62  115 134 141  115 134 141  115 134 141  115 134 141  115 134 141  113 132 139  79 96 107  78 95 106  78 95 106  78 95 106  78 95 106  78 95 106  78 95 106  78 95 106  78 95 106  78 95 106  78 95 106  78 95 106  78 95 106  78 95 106  78 95 106  78 95 106  78 95 106  78 95 106  78 95 106  78 95 106  78 95 106  78 95 106  78 95 106  78 95 106  78 95 106  78 95 106  105 124 132  115 134 141  115 134 141  115 134 141  115 134 141  115 134 141  50 61 66  103 119 126  118 136 144  106 127 134  106 127 134  106 127 134  106 127 134  106 127 134  106 127 134  106 127 134  106 127 134  129 150 156  150 168 173  151 169 174  151 169 174  151 169 174  151 169 174  151 169 174  151 169 174  151 169 174  151 169 174  151 169 174  151 169 174  151 169 174  147 166 171  137 156 162  151 169 174  151 169 174  151 169 174  46 55 60  66 87 95  98 123 131  98 123 131  98 123 131  98 123 131  98 123 131  98 123 131  98 123 131  98 123 131  98 123 131  151 169 174  151 169 174  210 220 222  130 151 157  130 151 157  130 151 157  130 151 157  130 151 157  130 151 157  130 151 157  130 151 157  130 151 157  130 151 157  130 151 157  130 151 157  130 151 157  137 157 163  145 164 169  151 169 174  151 169 174  151 169 174  151 169 174  151 169 174  151 169 174  151 169 174  151 169 174  151 169 174  151 169 174  151 169 174  151 169 174  151 169 174  151 169 174  151 169 174  151 169 174  151 169 174  151 169 174  151 169 174  151 169 174  151 169 174  151 169 174  151 169 174  110 128 135  96 115 121  151 169 174  151 169 174  151 169 174  124 146 152  98 123 131  98 123 131  98 123 131  98 123 131  98 123 131  98 123 131  98 123 131  98 123 131  98 123 131  98 123 131  98 123 131  98 123 131  98 123 131  98 123 131  98 123 131  98 123 131  98 123 131  98 123 131  98 123 131  98 123 131  98 123 131  98 123 131  98 123 131  98 123 131  98 123 131  98 123 131  98 123 131  98 123 131  98 123 131  98 123 131  98 123 131
98 123 131  98 123 131  98 123 131  98 123 131  98 123 131  98 123 131  98 123 131  98 123 131  98 123 131  98 123 131  98 123 131  98 123 131  98 123 131  99 124 132  151 169 174  151 169 174  151 169 174  118 136 142  73 92 100  151 169 174  151 169 174  151 169 174  151 169 174  151 169 174  151 169 174  151 169 174  151 169 174  151 169 174  151 169 174  151 169 174  151 169 174  151 169 174  151 169 174  151 169 174  151 169 174  151 169 174  151 169 174  151 169 174  151 169 174  151 169 174  151 169 174  151 169 174  151 169 174  151 169 174  151 169 174  151 169 174  151 169 174  151 169 174  151 169 174  150 169 174  135 155 161  131 152 158  130 151 157  130 151 157  130 151 157  130 151 157  130 151 157  171 186 190  151 169 174  118 140 147  98 123 131  98 123 131  98 123 131  98 123 131  98 123 131  98 123 131  98 123 131  98 123 131  98 123 131  98 123 131  66 87 95  46 55 60  151 169 174  151 169 174  151 169 174  151 169 174  151 169 174  151 169 174  151 169 174  151 169 174  151 169 174  151 169 174  151 169 174  151 169 174  151 169 174  151 169 174  132 153 159  130 151 157  106 127 134  106 127 134  106 127 134  106 127 134  106 127 134  106 127 134  106 127 134  107 128 135  124 142 149  124 142 149  124 142 149  85 100 106  47 58 63  115 134 141  115 134 141  115 134 141  115 134 141  115 134 141  113 132 139  81 99 109  78 95 106  78 95 106  78 95 106  78 95 106  78 95 106  78 95 106  78 95 106  78 95 106  78 95 106  78 95 106  78 95 106  78 95 106  78 95 106  78 95 106  78 95 106  78 95 106  78 95 106  78 95 106  78 95 106  78 95 106  78 95 106  78 95 106  80 98 108  112 131 138  115 134 141  115 134 141  115 134 141  115 134 141  115 134 141  63 76 82  62 75 80  124 142 149  124 142 149  124 142 149  109 130 137  106 127 134  106 127 134  106 127 134  106 127 134  106 127 134  106 127 134  106 127 134  130 151 157  131 152 158  150 168 173  151 169 174  151 169 174  151 169 174  151 169 174  151 169 174  151 169 174  151 169 174  151 169 174  151 169 174  151 169 174  151 169 174  151 169 174  151 169 174  54 64 69  63 82 89  96 121 128  98 123 131  98 123 131  98 123 131  98 123 131  98 123 131  98 123 131  98 123 131  98 123 131  98 123 131  98 123 131  151 169 174  153 170 175  130 151 157  130 151 157  130 151 157  130 151 157  130 151 157  131 152 158  134 154 160  148 167 172  151 169 174  151 169 174  151 169 174  151 169 174  151 169 174  151 169 174  151 169 174  151 169 174  151 169 174  151 169 174  151 169 174  151 169 174  151 169 174  151 169 174  151 169 174  151 169 174  151 169 174  151 169 174  151 169 174  151 169 174  151 169 174  151 169 174  151 169 174  151 169 174  151 169 174  151 169 174  151 169 174  151 169 174  151 169 174  151 169 174  96 115 122  78 97 105  151 169 174  151 169 174  151 169 174  120 142 149  98 123 131  98 123 131  98 123 131  98 123 131  98 123 131  98 123 131  98 123 131  98 123 131  98 123 131  98 123 131  98 123 131  98 123 131  98 123 131  98 123 131  98 123 131  98 123 131  98 123 131  98 123 131  98 123 131  98 123 131  98 123 131  98 123 131  98 123 131  98 123 131  98 123 131  98 123 131  98 123 131  98 123 131  98 123 131  98 123 131  98 123 131
98 123 131  98 123 131  98 123 131  98 123 131  98 123 131  98 123 131  98 123 131  98 123 131  98 123 131  98 123 131  98 123 131  98 123 131  98 123 131  124 145 152  151 169 174  151 169 174  151 169 174  76 94 102  94 113 119  151 169 174  151 169 174  151 169 174  151 169 174  151 169 174  151 169 174  151 169 174  151 169 174  151 169 174  151 169 174  151 169 174  151 169 174  151 169 174  151 169 174  151 169 174  151 169 174  151 169 174  151 169 174  151 169 174  151 169 174  151 169 174  151 169 174  151 169 174  151 169 174  151 169 174  151 169 174  151 169 174  151 169 174  151 169 174  151 169 174  151 169 174  151 169 174  151 169 174  151 169 174  151 169 174  151 169 174  151 169 174  181 195 199  151 169 174  151 169 174  98 123 131  98 123 131  98 123 131  98 123 131  98 123 131  98 123 131  98 123 131  98 123 131  98 123 131  98 123 131  98 123 131  73 95 102  48 59 64  116 131 136  151 169 174  151 169 174  151 169 174  151 169 174  151 169 174  151 169 174  151 169 174  151 169 174  151 169 174  151 169 174  149 167 172  130 151 157  130 151 157  130 151 157  110 130 138  106 127 134  106 127 134  106 127 134  106 127 134  106 127 134  107 128 135  123 141 148  124 142 149  124 142 149  124 142 149  124 142 149  124 142 149  78 92 98  48 59 64  115 134 141  115 134 141  115 134 141  115 134 141  115 134 141  115 134 141  114 133 140  89 107 117  78 95 106  78 95 106  78 95 106  78 95 106  78 95 106  78 95 106  78 95 106  78 95 106  78 95 106  78 95 106  78 95 106  78 95 106  78 95 106  78 95 106  78 95 106  78 95 106  78 95 106  78 95 106  86 103 113  110 129 137  115 134 141  115 134 141  115 134 141  115 134 141  115 134 141  115 134 141  58 70 75  59 71 76  124 142 149  124 142 149  124 142 149  124 142 149  124 142 149  124 142 149  108 129 136  106 127 134  106 127 134  106 127 134  106 127 134  106 127 134  107 127 135  130 151 157  130 151 157  130 151 157  148 166 171  151 169 174  151 169 174  151 169 174  151 169 174  151 169 174  151 169 174  151 169 174  151 169 174  151 169 174  151 169 174  146 163 168  46 55 60  66 87 95  98 123 131  98 123 131  98 123 131  98 123 131  98 123 131  98 123 131  98 123 131  98 123 131  98 123 131  98 123 131  98 123 131  151 169 174  151 169 174  208 219 221  151 169 174  151 169 174  151 169 174  151 169 174  151 169 174  151 169 174  151 169 174  151 169 174  151 169 174  151 169 174  151 169 174  151 169 174  151 169 174  151 169 174  151 169 174  151 169 174  151 169 174  151 169 174  151 169 174  151 169 174  151 169 174  151 169 174  151 169 174  151 169 174  151 169 174  151 169 174  151 169 174  151 169 174  151 169 174  151 169 174  151 169 174  151 169 174  151 169 174  151 169 174  151 169 174  151 169 174  151 169 174  130 148 153  63 82 90  151 169 174  151 169 174  151 169 174  145 164 169  98 123 131  98 123 131  98 123 131  98 123 131  98 123 131  98 123 131  98 123 131  98 123 131  98 123 131  98 123 131  98 123 131  98 123 131  98 123 131  98 123 131  98 123 131  98 123 131  98 123 131  98 123 131  98 123 131  98 123 131  98 123 131  98 123 131  98 123 131  98 123 131  98 123 131  98 123 131  98 123 131  98 123 131  98 123 131  98 123 131  98 123 131
98 123 131  98 123 131  98 123 131  98 123 131  98 123 131  98 123 131  98 123 131  98 123 131  98 123 131  98 123 131  98 123 131  98 123 131  98 123 131  151 169 174  151 169 174  151 169 174  151 169 174  63 82 90  141 159 164  151 169 174  151 169 174  151 169 174  151 169 174  151 169 174  151 169 174  151 169 174  151 169 174  151 169 174  151 169 174  151 169 174  151 169 174  151 169 174  151 169 174  151 169 174  151 169 174  151 169 174  151 169 174  151 169 174  151 169 174  151 169 174  151 169 174  151 169 174  151 169 174  151 169 174  151 169 174  151 169 174  151 169 174  151 169 174  151 169 174  151 169 174  151 169 174  151 169 174  151 169 174  151 169 174  151 169 174  151 169 174  214 224 226  151 169 174  137 157 162  98 123 131  98 123 131  98 123 131  98 123 131  98 123 131  98 123 131  98 123 131  98 123 131  98 123 131  98 123 131  98 123 131  98 123 131  66 87 95  46 55 60  151 169 174  151 169 174  151 169 174  151 169 174  151 169 174  151 169 174  151 169 174  151 169 174  132 153 159  130 151 157  130 151 157  130 151 157  130 151 157  121 142 148  106 127 134  106 127 134  106 127 134  106 127 134  119 138 144  124 142 149  124 142 149  124 142 149  124 142 149  124 142 149  124 142 149  124 142 149  124 142 149  124 142 149  110 127 134  46 57 62  96 112 119  115 134 141  115 134 141  115 134 141  115 134 141  115 134 141  115 134 141  115 134 141  115 134 141  114 133 140  102 120 129  88 105 115  78 95 106  78 95 106  78 95 106  78 95 106  78 95 106  78 95 106  78 95 106  78 95 106  86 103 114  100 118 127  112 131 139  115 134 141  115 134 141  115 134 141  115 134 141  115 134 141  115 134 141  115 134 141  115 134 141  110 129 136  46 57 62  90 105 111  124 142 149  124 142 149  124 142 149  124 142 149  124 142 149  124 142 149  124 142 149  124 142 149  124 142 149  121 140 146  106 127 134  106 127 134  106 127 134  106 127 134  110 130 138  130 151 157  130 151 157  130 151 157  130 151 157  131 152 158  151 169 174  151 169 174  151 169 174  151 169 174  151 169 174  151 169 174  151 169 174  151 169 174  46 55 60  65 86 93  98 123 131  98 123 131  98 123 131  98 123 131  98 123 131  98 123 131  98 123 131  98 123 131  98 123 131  98 123 131  98 123 131  98 123 131  116 138 145  151 169 174  193 205 208  151 169 174  151 169 174  151 169 174  151 169 174  151 169 174  151 169 174  151 169 174  151 169 174  151 169 174  151 169 174  151 169 174  151 169 174  151 169 174  151 169 174  151 169 174  151 169 174  151 169 174  151 169 174  151 169 174  151 169 174  151 169 174  151 169 174  151 169 174  151 169 174  151 169 174  151 169 174  151 169 174  151 169 174  151 169 174  151 169 174  151 169 174  151 169 174  151 169 174  151 169 174  151 169 174  151 169 174  151 169 174  151 169 174  63 82 90  151 169 174  151 169 174  151 169 174  151 169 174  98 123 131  98 123 131  98 123 131  98 123 131  98 123 131  98 123 131  98 123 131  98 123 131  98 123 131  98 123 131  98 123 131  98 123 131  98 123 131  98 123 131  98 123 131  98 123 131  98 123 131  98 123 131  98 123 131  98 123 131  98 123 131  98 123 131  98 123 131  98 123 131  98 123 131  98 123 131  98 123 131  98 123 131  98 123 131  98 123 131  98 123 131
98 123 131  98 123 131  98 123 131  98 123 131  98 123 131  98 123 131  98 123 131  98 123 131  98 123 131  98 123 131  98 123 131  98 123 131  116 138 146  151 169 174  151 169 174  151 169 174  117 135 141  65 84 92  151 169 174  151 169 174  151 169 174  151 169 174  151 169 174  151 169 174  151 169 174  151 169 174  151 169 174  151 169 174  151 169 174  151 169 174  151 169 174  151 169 174  151 169 174  151 169 174  151 169 174  151 169 174  151 169 174  151 169 174  151 169 174  151 169 174  151 169 174  151 169 174  151 169 174  151 169 174  151 169 174  151 169 174  151 169 174  151 169 174  151 169 174  151 169 174  151 169 174  151 169 174  151 169 174  151 169 174  151 169 174  151 169 174  168 184 188  151 169 174  100 124 132  98 123 131  98 123 131  98 123 131  98 123 131  98 123 131  98 123 131  98 123 131  98 123 131  98 123 131  98 123 131  98 123 131  98 123 131  66 87 95  46 55 60  151 169 174  151 169 174  151 169 174  151 169 174  147 166 171  132 153 159  130 151 157  130 151 157  130 151 157  130 151 157  130 151 157  130 151 157  128 149 155  106 127 134  106 127 134  108 129 136  123 141 148  124 142 149  124 142 149  124 142 149  124 142 149  124 142 149  124 142 149  124 142 149  124 142 149  124 142 149  124 142 149  124 142 149  124 142 149  124 142 149  90 105 111  46 57 62  80 95 101  115 134 141  115 134 141  115 134 141  115 134 141  115 134 141  115 134 141  115 134 141  115 134 141  115 134 141  115 134 141  115 134 141  115 134 141  115 134 141  115 134 141  115 134 141  115 134 141  115 134 141  115 134 141  115 134 141  115 134 141  115 134 141  115 134 141  115 134 141  115 134 141  115 134 141  115 134 141  90 106 112  47 58 63  80 93 99  124 142 149  124 142 149  124 142 149  124 142 149  124 142 149  124 142 149  124 142 149  124 142 149  124 142 149  124 142 149  124 142 149  124 142 149  124 142 149  124 142 149  111 131 138  106 127 134  106 127 134  123 143 150  130 151 157  130 151 157  130 151 157  130 151 157  130 151 157  130 151 157  131 152 158  144 163 169  151 169 174  134 152 158  151 169 174  151 169 174  46 55 60  66 87 95  98 123 131  98 123 131  98 123 131  98 123 131  98 123 131  98 123 131  98 123 131  98 123 131  98 123 131  98 123 131  98 123 131  98 123 131  98 123 131  151 169 174  151 169 174  151 169 174  151 169 174  151 169 174  151 169 174  151 169 174  151 169 174  151 169 174  151 169 174  151 169 174  151 169 174  151 169 174  151 169 174  151 169 174  151 169 174  151 169 174  151 169 174  151 169 174  151 169 174  151 169 174  151 169 174  151 169 174  151 169 174  151 169 174  151 169 174  151 169 174  151 169 174  151 169 174  151 169 174  151 169 174  151 169 174  151 169 174  151 169 174  151 169 174  151 169 174  151 169 174  151 169 174  151 169 174  151 169 174  76 95 103  96 115 122  151 169 174  151 169 174  151 169 174  130 150 157  98 123 131  98 123 131  98 123 131  98 123 131  98 123 131  98 123 131  98 123 131  98 123 131  98 123 131  98 123 131  98 123 131  98 123 131  98 123 131  98 123 131  98 123 131  98 123 131  98 123 131  98 123 131  98 123 131  98 123 131  98 123 131  98 123 131  98 123 131  98 123 131  98 123 131  98 123 131  98 123 131  98 123 131  98 123 131  98 123 131
98 123 131  98 123 131  98 123 131  98 123 131  98 123 131  98 123 131  98 123 131  98 123 131  98 123 131  98 123 131  98 123 131  107 131 138  151 169 174  151 169 174  151 169 174  150 168 173  63 82 90  124 145 151  131 152 158  143 163 168  151 169 174  151 169 174  151 169 174  151 169 174  151 169 174  151 169 174  151 169 174  151 169 174  151 169 174  89 99 101  73 77 78  152 159 161  104 109 111  68 75 77  151 169 174  151 169 174  151 169 174  151 169 174  151 169 174  151 169 174  151 169 174  151 169 174  151 169 174  151 169 174  151 169 174  151 169 174  151 169 174  151 169 174  151 169 174  151 169 174  151 169 174  151 169 174  151 169 174  151 169 174  151 169 174  151 169 174  151 169 174  151 169 174  98 123 131  98 123 131  98 123 131  98 123 131  98 123 131  98 123 131  98 123 131  98 123 131  98 123 131  98 123 131  98 123 131  98 123 131  98 123 131  67 88 95  47 56 61  86 98 103  151 169 174  151 169 174  130 151 157  130 151 157  130 151 157  130 151 157  130 151 157  130 151 157  130 151 157  130 151 157  130 151 157  106 127 134  116 136 143  124 142 149  124 142 149  124 142 149  124 142 149  124 142 149  124 142 149  124 142 149  124 142 149  124 142 149  124 142 149  124 142 149  124 142 149  124 142 149  124 142 149  124 142 149  124 142 149  124 142 149  124 142 149  124 142 149  86 101 107  48 59 64  52 64 69  80 95 100  107 125 132  115 134 141  115 134 141  115 134 141  115 134 141  115 134 141  115 134 141  115 134 141  115 134 141  115 134 141  115 134 141  115 134 141  115 134 141  115 134 141  115 134 141  115 134 141  115 134 141  108 127 134  84 100 106  54 66 71  47 58 63  79 93 99  123 140 147  124 142 149  124 142 149  124 142 149  124 142 149  124 142 149  124 142 149  124 142 149  124 142 149  124 142 149  124 142 149  124 142 149  124 142 149  124 142 149  124 142 149  124 142 149  124 142 149  124 142 149  124 142 149  119 137 145  106 127 134  127 147 154  130 151 157  130 151 157  130 151 157  130 151 157  130 151 157  130 151 157  130 151 157  130 151 157  151 169 174  151 169 174  123 138 143  46 55 60  66 87 95  98 123 131  98 123 131  98 123 131  98 123 131  98 123 131  98 123 131  98 123 131  98 123 131  98 123 131  98 123 131  98 123 131  98 123 131  98 123 131  151 169 174  151 169 174  151 169 174  151 169 174  151 169 174  151 169 174  151 169 174  151 169 174  151 169 174  151 169 174  151 169 174  151 169 174  151 169 174  151 169 174  151 169 174  151 169 174  151 169 174  151 169 174  151 169 174  151 169 174  151 169 174  151 169 174  151 169 174  151 169 174  92 102 105  82 86 87  154 161 164  95 100 101  55 61 62  151 169 174  151 169 174  151 169 174  151 169 174  151 169 174  151 169 174  151 169 174  151 169 174  151 169 174  145 164 170  132 153 159  130 151 157  63 82 90  150 168 173  151 169 174  151 169 174  151 169 174  122 144 150  98 123 131  98 123 131  98 123 131  98 123 131  98 123 131  98 123 131  98 123 131  98 123 131  98 123 131  98 123 131  98 123 131  98 123 131  98 123 131  98 123 131  98 123 131  98 123 131  98 123 131  98 123 131  98 123 131  98 123 131  98 123 131  98 123 131  98 123 131  98 123 131  98 123 131  98 123 131  98 123 131  98 123 131  98 123 131
98 123 131  98 123 131  98 123 131  98 123 131  98 123 131  98 123 131  98 123 131  98 123 131  98 123 131  98 123 131  130 151 157  151 169 174  151 169 174  151 169 174  151 169 174  63 82 90  99 119 126  130 151 157  130 151 157  130 151 157  130 151 157  130 151 157  134 155 160  148 166 171  151 169 174  151 169 174  151 169 174  151 169 174  46 51 52  205 215 218  205 215 218  205 215 218  194 205 209  193 205 209  38 40 40  150 167 172  151 169 174  151 169 174  151 169 174  151 169 174  151 169 174  151 169 174  151 169 174  151 169 174  151 169 174  151 169 174  151 169 174  151 169 174  151 169 174  151 169 174  151 169 174  151 169 174  151 169 174  151 169 174  151 169 174  151 169 174  151 169 174  151 169 174  98 123 131  98 123 131  98 123 131  98 123 131  98 123 131  98 123 131  98 123 131  98 123 131  98 123 131  98 123 131  98 123 131  98 123 131  98 123 131  66 87 95  47 57 62  52 61 66  151 169 174  151 169 174  90 109 117  130 151 157  130 151 157  130 151 157  130 151 157  130 151 157  130 151 157  130 151 157  122 140 147  124 142 149  124 142 149  124 142 149  124 142 149  124 142 149  124 142 149  124 142 149  124 142 149  124 142 149  124 142 149  124 142 149  124 142 149  124 142 149  124 142 149  124 142 149  124 142 149  124 142 149  124 142 149  124 142 149  124 142 149  124 142 149  124 142 149  124 142 149  124 142 149  124 142 149  124 142 149  124 142 149  122 140 147  115 132 139  102 118 125  93 109 115  88 103 110  85 100 106  83 98 104  83 98 104  85 99 105  88 103 109  93 108 114  100 117 123  113 130 137  121 139 146  124 142 149  124 142 149  124 142 149  124 142 149  124 142 149  124 142 149  124 142 149  124 142 149  124 142 149  124 142 149  124 142 149  124 142 149  124 142 149  124 142 149  124 142 149  124 142 149  124 142 149  124 142 149  124 142 149  124 142 149  124 142 149  124 142 149  124 142 149  124 142 149  124 142 149  124 142 149  124 142 149  124 142 149  131 151 158  130 151 157  130 151 157  130 151 157  130 151 157  130 151 157  130 151 157  112 132 139  151 169 174  151 169 174  74 85 90  46 55 60  66 87 95  98 123 131  98 123 131  98 123 131  98 123 131  98 123 131  98 123 131  98 123 131  98 123 131  98 123 131  98 123 131  98 123 131  98 123 131  98 123 131  151 169 174  151 169 174  165 182 186  151 169 174  151 169 174  151 169 174  151 169 174  151 169 174  151 169 174  151 169 174  151 169 174  151 169 174  151 169 174  151 169 174  151 169 174  151 169 174  151 169 174  151 169 174  151 169 174  151 169 174  151 169 174  151 169 174  151 169 174  24 25 25  195 207 210  193 204 208  205 215 218  205 215 218  205 215 218  20 21 21  151 169 174  151 169 174  151 169 174  151 169 174  149 167 172  136 157 162  130 151 157  130 151 157  130 151 157  130 151 157  130 151 157  124 145 151  63 82 90  151 169 174  151 169 174  151 169 174  151 169 174  144 163 168  98 123 131  98 123 131  98 123 131  98 123 131  98 123 131  98 123 131  98 123 131  98 123 131  98 123 131  98 123 131  98 123 131  98 123 131  98 123 131  98 123 131  98 123 131  98 123 131  98 123 131  98 123 131  98 123 131  98 123 131  98 123 131  98 123 131  98 123 131  98 123 131  98 123 131  98 123 131  98 123 131  98 123 131
98 123 131  98 123 131  98 123 131  98 123 131  98 123 131  98 123 131  98 123 131  98 123 131  115 137 145  151 169 174  151 169 174  151 169 174  151 169 174  146 164 169  63 82 90  102 122 129  130 151 157  130 151 157  130 151 157  130 151 157  130 151 157  130 151 157  130 151 157  130 151 157  130 151 157  130 151 157  131 152 157  61 69 71  205 215 218  205 215 218  164 180 184  151 169 174  151 169 174  151 169 174  151 169 174  50 56 57  151 169 174  151 169 174  151 169 174  151 169 174  151 169 174  151 169 174  151 169 174  151 169 174  151 169 174  151 169 174  151 169 174  151 169 174  151 169 174  151 169 174  151 169 174  151 169 174  151 169 174  151 169 174  151 169 174  151 169 174  151 169 174  151 169 174  86 109 117  98 123 131  98 123 131  98 123 131  98 123 131  98 123 131  98 123 131  98 123 131  98 123 131  98 123 131  98 123 131  98 123 131  98 123 131  67 89 96  49 59 64  46 55 60  151 169 174  151 169 174  63 82 90  130 151 157  130 151 157  130 151 157  130 151 157  130 151 157  151 169 174  124 142 149  124 142 149  124 142 149  124 142 149  124 142 149  124 142 149  124 142 149  124 142 149  124 142 149  124 142 149  124 142 149  124 142 149  124 142 149  124 142 149  124 142 149  124 142 149  124 142 149  124 142 149  124 142 149  124 142 149  124 142 149  124 142 149  124 142 149  124 142 149  124 142 149  124 142 149  124 142 149  124 142 149  124 142 149  124 142 149  124 142 149  124 142 149  124 142 149  124 142 149  124 142 149  124 142 149  124 142 149  124 142 149  124 142 149  124 142 149  124 142 149  124 142 149  124 142 149  124 142 149  124 142 149  124 142 149  124 142 149  124 142 149  124 142 149  124 142 149  124 142 149  124 142 149  124 142 149  124 142 149  124 142 149  124 142 149  124 142 149  124 142 149  124 142 149  124 142 149  124 142 149  124 142 149  124 142 149  124 142 149  124 142 149  124 142 149  124 142 149  124 142 149  124 142 149  124 142 149  124 142 149  124 142 149  151 169 174  131 152 158  130 151 157  130 151 157  130 151 157  130 151 157  63 82 90  151 169 174  151 169 174  68 79 84  46 55 60  66 87 95  98 123 131  98 123 131  98 123 131  98 123 131  98 123 131  98 123 131  98 123 131  98 123 131  98 123 131  98 123 131  98 123 131  98 123 131  98 123 131  151 169 174  151 169 174  167 183 188  151 169 174  151 169 174  151 169 174  151 169 174  151 169 174  151 169 174  151 169 174  151 169 174  151 169 174  151 169 174  151 169 174  151 169 174  151 169 174  151 169 174  151 169 174  151 169 174  151 169 174  151 169 174  151 169 174  17 18 18  151 169 174  151 169 174  151 169 174  151 169 174  154 172 177  205 215 218  205 215 218  28 31 31  132 153 159  130 151 157  130 151 157  130 151 157  130 151 157  130 151 157  130 151 157  130 151 157  130 151 157  130 151 157  130 151 157  124 145 151  63 82 90  141 159 164  151 169 174  151 169 174  151 169 174  151 169 174  127 148 155  98 123 131  98 123 131  98 123 131  98 123 131  98 123 131  98 123 131  98 123 131  98 123 131  98 123 131  98 123 131  98 123 131  98 123 131  98 123 131  98 123 131  98 123 131  98 123 131  98 123 131  98 123 131  98 123 131  98 123 131  98 123 131  98 123 131  98 123 131  98 123 131  98 123 131  98 123 131
97 122 130  98 123 131  97 121 129  92 117 125  87 111 118  120 140 146  150 168 173  151 169 174  151 169 174  151 169 174  151 169 174  151 169 174  73 92 99  63 82 90  127 148 154  130 151 157  130 151 157  130 151 157  130 151 157  130 151 157  130 151 157  130 151 157  130 151 157  130 151 157  130 151 157  130 151 157  100 116 120  205 215 218  205 215 218  151 169 174  151 169 174  151 169 174  151 169 174  151 169 174  151 169 174  119 138 144  24 27 28  143 162 167  144 162 168  144 164 169  146 164 169  146 165 170  147 166 171  149 168 173  27 30 31  10 11 11  10 11 11  151 169 174  151 169 174  151 169 174  151 169 174  151 169 174  151 169 174  151 169 174  151 169 174  151 169 174  151 169 174  151 169 174  70 91 98  98 123 131  98 123 131  98 123 131  98 123 131  98 123 131  98 123 131  98 123 131  98 123 131  98 123 131  98 123 131  98 123 131  98 123 131  66 87 95  46 55 60  48 57 62  151 169 174  151 169 174  64 83 91  130 151 157  130 151 157  134 155 160  150 169 174  151 169 174  124 142 149  124 142 149  124 142 149  124 142 149  124 142 149  124 142 149  124 142 149  124 142 149  124 142 149  124 142 149  124 142 149  124 142 149  124 142 149  124 142 149  124 142 149  124 142 149  124 142 149  124 142 149  124 142 149  124 142 149  124 142 149  124 142 149  124 142 149  124 142 149  124 142 149  124 142 149  124 142 149  124 142 149  124 142 149  124 142 149  124 142 149  124 142 149  124 142 149  124 142 149  124 142 149  124 142 149  124 142 149  124 142 149  124 142 149  124 142 149  124 142 149  124 142 149  124 142 149  124 142 149  124 142 149  124 142 149  124 142 149  124 142 149  124 142 149  124 142 149  124 142 149  124 142 149  124 142 149  124 142 149  124 142 149  124 142 149  124 142 149  124 142 149  124 142 149  124 142 149  124 142 149  124 142 149  124 142 149  124 142 149  124 142 149  124 142 149  124 142 149  124 142 149  124 142 149  124 142 149  124 142 149  124 142 149  124 142 149  124 142 149  151 169 174  151 169 174  137 157 163  130 151 157  130 151 157  63 82 90  151 169 174  151 169 174  82 94 99  46 55 60  66 87 95  98 123 131  98 123 131  98 123 131  98 123 131  98 123 131  98 123 131  98 123 131  98 123 131  98 123 131  98 123 131  98 123 131  98 123 131  71 93 100  151 169 174  151 169 174  152 170 175  151 169 174  151 169 174  151 169 174  151 169 174  151 169 174  151 169 174  151 169 174  151 169 174  16 17 18  10 11 11  16 17 18  150 168 173  147 166 171  146 165 170  146 164 169  144 164 169  144 162 168  143 162 167  18 19 19  103 122 129  151 169 174  151 169 174  151 169 174  151 169 174  151 169 174  151 169 174  205 215 218  205 215 218  59 67 69  130 151 157  130 151 157  130 151 157  130 151 157  130 151 157  130 151 157  130 151 157  130 151 157  130 151 157  130 151 157  130 151 157  130 151 157  66 86 93  69 88 95  151 169 174  151 169 174  151 169 174  151 169 174  151 169 174  151 169 174  127 146 152  86 110 117  91 116 124  96 121 129  98 123 131  97 122 130  96 121 129  93 117 125  89 113 121  85 108 116  81 104 112  79 101 109  77 99 107  76 98 106  76 98 105  76 98 106  77 99 106  78 101 108  81 104 111  84 108 115  89 112 120  92 116 124  95 120 128  97 122 130
151 169 174  151 169 174  151 169 174  151 169 174  151 169 174  151 169 174  151 169 174  151 169 174  151 169 174  144 162 167  67 86 94  63 82 90  140 158 164  151 169 174  140 159 165  132 153 159  130 151 157  130 151 157  130 151 157  130 151 157  130 151 157  130 151 157  130 151 157  130 151 157  130 151 157  130 151 157  173 182 184  204 214 217  151 169 174  151 169 174  151 169 174  151 169 174  151 169 174  151 169 174  151 169 174  96 115 122  96 115 122  40 47 48  130 151 157  130 151 157  130 151 157  130 151 157  130 151 157  95 111 115  205 215 218  151 169 174  151 169 174  55 65 69  116 137 143  130 151 157  130 151 157  130 151 157  130 151 157  130 151 157  130 151 157  130 151 157  151 169 174  151 169 174  148 166 171  98 123 131  98 123 131  98 123 131  98 123 131  98 123 131  98 123 131  98 123 131  98 123 131  98 123 131  98 123 131  98 123 131  98 123 131  66 87 95  46 55 60  83 95 100  151 169 174  151 169 174  66 85 93  151 169 174  151 169 174  151 169 174  151 169 174  124 142 149  124 142 149  124 142 149  124 142 149  124 142 149  124 142 149  124 142 149  124 142 149  124 142 149  124 142 149  124 142 149  124 142 149  124 142 149  124 142 149  124 142 149  124 142 149  124 142 149  124 142 149  124 142 149  124 142 149  124 142 149  124 142 149  124 142 149  124 142 149  124 142 149  124 142 149  124 142 149  124 142 149  124 142 149  124 142 149  124 142 149  124 142 149  124 142 149  123 141 148  122 141 148  120 138 145  118 137 144  117 136 143  117 136 143  118 137 144  120 138 145  122 140 147  123 141 148  124 142 149  124 142 149  124 142 149  124 142 149  124 142 149  124 142 149  124 142 149  124 142 149  124 142 149  124 142 149  124 142 149  124 142 149  124 142 149  124 142 149  124 142 149  124 142 149  124 142 149  124 142 149  124 142 149  124 142 149  124 142 149  124 142 149  124 142 149  124 142 149  124 142 149  124 142 149  124 142 149  124 142 149  124 142 149  124 142 149  124 142 149  124 142 149  124 142 149  150 168 173  151 169 174  151 169 174  151 169 174  63 82 90  151 169 174  151 169 174  135 152 157  46 55 60  66 87 95  95 120 128  98 123 131  98 123 131  98 123 131  98 123 131  98 123 131  98 123 131  98 123 131  98 123 131  98 123 131  98 123 131  98 123 131  101 121 127  151 169 174  151 169 174  130 151 157  130 151 157  130 151 157  130 151 157  130 151 157  130 151 157  130 151 157  128 149 155  17 20 20  151 169 174  151 169 174  203 213 217  42 49 50  130 151 157  130 151 157  130 151 157  130 151 157  130 151 157  85 103 108  96 115 122  96 115 122  151 169 174  151 169 174  151 169 174  151 169 174  151 169 174  151 169 174  151 169 174  192 204 208  196 205 208  110 128 133  130 151 157  130 151 157  130 151 157  130 151 157  130 151 157  130 151 157  130 151 157  130 151 157  130 151 157  132 152 158  138 158 163  149 168 173  147 165 170  67 86 94  65 84 92  135 154 159  151 169 174  151 169 174  151 169 174  151 169 174  151 169 174  151 169 174  151 169 174  151 169 174  151 169 174  151 169 174  151 169 174  151 169 174  151 169 174  151 169 174  151 169 174  151 169 174  151 169 174  151 169 174  151 169 174  151 169 174  151 169 174  151 169 174  151 169 174  151 169 174  151 169 174  151 169 174  151 169 174
151 169 174  151 169 174  151 169 174  151 169 174  151 169 174  146 164 169  88 107 114  64 83 91  65 84 92  141 158 164  152 170 175  151 169 174  151 169 174  151 169 174  151 169 174  151 169 174  151 169 174  151 169 174  150 168 173  136 156 162  130 151 157  130 151 157  130 151 157  130 151 157  130 151 157  17 18 18  204 214 217  151 169 174  151 169 174  151 169 174  151 169 174  151 169 174  151 169 174  151 169 174  97 116 123  96 115 122  96 115 122  79 97 103  129 150 156  130 151 157  130 151 157  130 151 157  130 151 157  25 27 27  151 169 174  151 169 174  132 150 155  96 115 122  85 105 111  130 151 157  130 151 157  130 151 157  130 151 157  130 151 157  130 151 157  130 151 157  151 169 174  151 169 174  151 169 174  67 88 96  98 123 131  98 123 131  98 123 131  98 123 131  98 123 131  98 123 131  98 123 131  98 123 131  98 123 131  98 123 131  67 88 96  63 83 90  46 55 60  146 164 169  151 169 174  151 169 174  63 82 90  151 169 174  151 169 174  151 169 174  124 142 149  124 142 149  124 142 149  124 142 149  124 142 149  124 142 149  124 142 149  124 142 149  124 142 149  124 142 149  124 142 149  124 142 149  124 142 149  124 142 149  124 142 149  124 142 149  124 142 149  124 142 149  124 142 149  124 142 149  124 142 149  124 142 149  124 142 149  124 142 149  124 142 149  124 142 149  124 142 149  124 142 149  124 142 149  124 142 149  124 142 149  121 139 146  113 133 140  107 128 135  106 127 134  106 127 134  106 127 134  106 127 134  106 127 134  106 127 134  106 127 134  106 127 134  106 127 134  106 127 134  107 128 134  112 132 139  120 139 146  124 142 149  124 142 149  124 142 149  124 142 149  124 142 149  124 142 149  124 142 149  124 142 149  124 142 149  124 142 149  124 142 149  124 142 149  124 142 149  124 142 149  124 142 149  124 142 149  124 142 149  124 142 149  124 142 149  124 142 149  124 142 149  124 142 149  124 142 149  124 142 149  124 142 149  124 142 149  124 142 149  124 142 149  124 142 149  124 142 149  124 142 149  151 169 174  151 169 174  151 169 174  63 82 90  151 169 174  151 169 174  151 169 174  46 55 60  52 66 71  66 87 95  98 123 131  98 123 131  98 123 131  98 123 131  98 123 131  98 123 131  98 123 131  98 123 131  98 123 131  98 123 131  71 93 100  151 169 174  151 169 174  151 169 174  130 151 157  130 151 157  130 151 157  130 151 157  130 151 157  130 151 157  130 151 157  85 105 111  87 104 110  101 120 126  151 169 174  151 169 174  134 141 143  130 151 157  130 151 157  130 151 157  130 151 157  130 151 157  83 103 109  96 115 122  96 115 122  96 115 122  151 169 174  151 169 174  151 169 174  151 169 174  151 169 174  151 169 174  151 169 174  181 194 198  80 84 85  130 151 157  130 151 157  130 151 157  130 151 157  130 151 157  134 154 160  149 168 173  151 169 174  151 169 174  151 169 174  151 169 174  151 169 174  151 169 174  151 169 174  151 169 174  151 168 173  68 87 95  63 82 90  82 101 108  142 160 166  151 169 174  151 169 174  151 169 174  151 169 174  151 169 174  151 169 174  151 169 174  151 169 174  151 169 174  151 169 174  151 169 174  151 169 174  151 169 174  151 169 174  151 169 174  151 169 174  151 169 174  151 169 174  151 169 174  151 169 174  151 169 174  151 169 174  151 169 174
109 126 133  120 136 143  133 150 156  152 168 174  175 191 196  180 195 200  180 195 200  180 195 200  180 195 200  180 195 200  180 195 200  180 195 200  180 195 200  179 194 199  167 183 188  153 171 176  151 169 174  151 169 174  151 169 174  151 169 174  151 169 174  151 169 174  149 168 173  143 162 167  115 132 136  202 212 216  151 169 174  151 169 174  151 169 174  151 169 174  151 169 174  151 169 174  151 169 174  96 115 122  96 115 122  96 115 122  93 111 117  85 105 111  88 108 114  130 151 157  130 151 157  130 151 157  130 151 157  153 169 174  151 169 174  147 165 170  96 115 122  40 47 49  85 105 111  130 151 157  130 151 157  130 151 157  130 151 157  130 151 157  130 151 157  130 151 157  145 164 169  151 169 174  151 169 174  133 151 156  77 100 107  98 123 131  98 123 131  98 123 131  98 123 131  98 123 131  98 123 131  98 123 131  98 123 131  93 118 125  66 87 95  46 55 60  46 55 60  151 169 174  151 169 174  151 169 174  63 82 90  151 169 174  149 167 172  124 142 149  124 142 149  124 142 149  124 142 149  124 142 149  124 142 149  124 142 149  124 142 149  124 142 149  124 142 149  124 142 149  124 142 149  124 142 149  124 142 149  124 142 149  124 142 149  124 142 149  124 142 149  124 142 149  124 142 149  124 142 149  124 142 149  124 142 149  124 142 149  124 142 149  124 142 149  124 142 149  124 142 149  124 142 149  120 139 146  111 131 138  106 127 134  106 127 134  106 127 134  106 127 134  106 127 134  106 127 134  106 127 134  106 127 134  106 127 134  106 127 134  106 127 134  106 127 134  106 127 134  106 127 134  106 127 134  106 127 134  106 127 134  106 127 134  110 130 137  119 137 145  124 142 149  124 142 149  124 142 149  124 142 149  124 142 149  124 142 149  124 142 149  124 142 149  124 142 149  124 142 149  124 142 149  124 142 149  124 142 149  124 142 149  124 142 149  124 142 149  124 142 149  124 142 149  124 142 149  124 142 149  124 142 149  124 142 149  124 142 149  124 142 149  124 142 149  124 142 149  124 142 149  124 142 149  124 142 149  143 161 167  151 169 174  63 82 90  151 169 174  151 169 174  151 169 174  48 57 62  46 55 60  66 87 95  86 109 116  98 123 131  98 123 131  98 123 131  98 123 131  98 123 131  98 123 131  98 123 131  98 123 131  87 111 119  90 109 116  151 169 174  151 169 174  151 169 174  130 151 157  130 151 157  130 151 157  130 151 157  130 151 157  130 151 157  130 151 157  85 105 111  19 21 22  96 115 122  136 155 160  151 169 174  151 169 174  127 148 154  130 151 157  130 151 157  130 151 157  99 119 125  85 105 111  47 54 57  96 115 122  96 115 122  96 115 122  148 166 171  151 169 174  151 169 174  151 169 174  151 169 174  151 169 174  151 169 174  192 204 208  74 85 88  142 161 167  148 167 172  151 169 174  151 169 174  151 169 174  151 169 174  151 169 174  151 169 174  151 169 174  165 181 186  178 193 198  180 195 200  180 195 200  180 195 200  180 195 200  180 195 200  180 195 200  180 195 200  180 195 200  177 192 197  156 172 177  135 152 158  121 138 145  110 127 134  103 121 128  99 117 124  99 117 124  99 117 124  103 120 127  106 124 130  109 126 133  110 128 134  111 128 135  110 128 134  109 127 133  107 124 131  103 121 128  99 117 124  99 117 124  99 117 124  102 120 127  109 126 133
180 195 200  180 195 200  180 195 200  180 195 200  180 195 200  180 195 200  180 195 200  180 195 200  180 195 200  180 195 200  180 195 200  180 195 200  180 195 200  180 195 200  180 195 200  180 195 200  180 195 200  180 195 200  164 181 186  151 169 174  151 169 174  151 169 174  151 169 174  151 169 174  48 53 55  151 169 174  151 169 174  151 169 174  151 169 174  151 169 174  150 168 173  96 115 122  96 115 122  96 115 122  96 115 122  96 115 122  18 19 19  85 105 111  85 105 111  130 151 157  130 151 157  130 151 157  130 151 157  130 147 153  96 115 122  96 115 122  93 112 118  84 103 109  85 105 111  116 136 142  134 154 160  135 155 161  131 152 158  130 151 157  131 152 158  139 159 164  151 169 174  151 169 174  151 169 174  151 169 174  61 78 85  67 88 96  98 123 131  98 123 131  98 123 131  98 123 131  98 123 131  98 123 131  90 113 121  66 87 95  47 57 62  46 55 60  145 163 168  151 169 174  151 169 174  141 159 164  63 82 90  140 158 164  124 142 149  124 142 149  124 142 149  124 142 149  124 142 149  124 142 149  124 142 149  124 142 149  124 142 149  124 142 149  124 142 149  124 142 149  124 142 149  124 142 149  124 142 149  124 142 149  124 142 149  124 142 149  124 142 149  124 142 149  124 142 149  124 142 149  124 142 149  124 142 149  124 142 149  124 142 149  124 142 149  124 142 149  116 134 142  106 127 134  106 127 134  106 127 134  106 127 134  106 127 134  106 127 134  106 127 134  106 127 134  106 127 134  106 127 134  106 127 134  106 127 134  106 127 134  106 127 134  106 127 134  106 127 134  106 127 134  106 127 134  106 127 134  106 127 134  106 127 134  106 127 134  106 127 134  106 127 134  113 132 139  124 142 149  124 142 149  124 142 149  124 142 149  124 142 149  124 142 149  124 142 149  124 142 149  124 142 149  124 142 149  124 142 149  124 142 149  124 142 149  124 142 149  124 142 149  124 142 149  124 142 149  124 142 149  124 142 149  124 142 149  124 142 149  124 142 149  124 142 149  124 142 149  124 142 149  124 142 149  124 142 149  124 142 149  131 149 156  63 82 90  122 140 146  151 169 174  151 169 174  151 169 174  46 55 60  46 55 60  66 87 95  79 101 109  98 123 131  98 123 131  98 123 131  98 123 131  98 123 131  98 123 131  69 90 98  65 84 92  151 169 174  151 169 174  151 169 174  151 169 174  142 161 166  131 152 158  130 151 157  131 152 157  133 153 159  134 154 160  131 152 158  85 105 111  85 105 111  82 99 105  96 115 122  96 115 122  127 145 151  111 129 134  130 151 157  130 151 157  130 151 157  85 105 111  85 105 111  45 54 56  96 115 122  96 115 122  96 115 122  96 115 122  96 115 122  149 167 173  151 169 174  151 169 174  151 169 174  151 169 174  151 169 174  19 20 20  151 169 174  151 169 174  151 169 174  151 169 174  151 169 174  160 177 182  180 195 200  180 195 200  180 195 200  180 195 200  180 195 200  180 195 200  180 195 200  180 195 200  180 195 200  180 195 200  180 195 200  180 195 200  180 195 200  180 195 200  180 195 200  180 195 200  180 195 200  180 195 200  180 195 200  180 195 200  180 195 200  180 195 200  180 195 200  180 195 200  180 195 200  180 195 200  180 195 200  180 195 200  180 195 200  180 195 200  180 195 200  180 195 200  180 195 200  180 195 200  180 195 200  180 195 200
180 195 200  180 195 200  180 195 200  180 195 200  180 195 200  180 195 200  180 195 200  180 195 200  180 195 200  180 195 200  180 195 200  180 195 200  180 195 200  180 195 200  180 195 200  180 195 200  180 195 200  180 195 200  180 195 200  180 195 200  179 194 199  159 177 182  151 169 174  151 169 174  18 19 19  151 169 174  151 169 174  138 157 162  105 124 131  96 115 122  96 115 122  96 115 122  96 115 122  96 115 122  96 115 122  92 110 116  84 104 110  85 105 111  85 105 111  149 167 173  151 169 174  151 169 174  151 169 174  65 78 82  26 30 31  26 30 32  70 86 90  85 105 111  85 105 111  145 163 169  151 169 174  151 169 174  151 169 174  151 169 174  151 169 174  151 169 174  140 160 165  149 167 172  151 169 174  151 169 174  151 169 174  64 75 80  66 87 95  67 88 96  80 103 111  84 107 115  75 97 105  66 87 95  66 87 95  46 55 60  46 55 60  102 116 121  151 169 174  151 169 174  151 169 174  70 89 97  63 82 90  124 142 149  124 142 149  124 142 149  124 142 149  124 142 149  124 142 149  124 142 149  124 142 149  124 142 149  124 142 149  124 142 149  124 142 149  124 142 149  124 142 149  124 142 149  124 142 149  124 142 149  124 142 149  124 142 149  124 142 149  124 142 149  124 142 149  124 142 149  124 142 149  124 142 149  124 142 149  124 142 149  115 134 141  106 127 134  106 127 134  106 127 134  106 127 134  106 127 134  106 127 134  106 127 134  106 127 134  106 127 134  106 127 134  106 127 134  106 127 134  106 127 134  106 127 134  106 127 134  106 127 134  106 127 134  106 127 134  106 127 134  106 127 134  106 127 134  106 127 134  106 127 134  106 127 134  106 127 134  106 127 134  106 127 134  106 127 134  113 133 140  123 141 149  124 142 149  124 142 149  124 142 149  124 142 149  124 142 149  124 142 149  124 142 149  124 142 149  124 142 149  124 142 149  124 142 149  124 142 149  124 142 149  124 142 149  124 142 149  124 142 149  124 142 149  124 142 149  124 142 149  124 142 149  124 142 149  124 142 149  124 142 149  124 142 149  124 142 149  124 142 149  74 93 100  63 82 90  151 169 174  151 169 174  151 169 174  127 143 148  46 55 60  46 55 60  66 86 94  66 87 95  73 96 103  83 106 113  81 105 112  69 91 98  66 87 95  55 67 72  151 169 174  151 169 174  151 169 174  151 169 174  139 158 164  151 169 174  151 169 174  151 169 174  151 169 174  151 169 174  151 169 174  151 169 174  85 105 111  85 105 111  81 100 106  19 22 23  31 37 38  44 54 56  151 169 174  151 169 174  151 169 174  151 169 174  85 105 111  85 105 111  85 105 111  77 92 98  96 115 122  96 115 122  96 115 122  96 115 122  96 115 122  96 115 122  101 120 127  134 152 158  151 169 174  151 169 174  18 19 20  151 169 174  151 169 174  156 173 178  177 193 198  180 195 200  180 195 200  180 195 200  180 195 200  180 195 200  180 195 200  180 195 200  180 195 200  180 195 200  180 195 200  180 195 200  180 195 200  180 195 200  180 195 200  180 195 200  180 195 200  180 195 200  180 195 200  180 195 200  180 195 200  180 195 200  180 195 200  180 195 200  180 195 200  180 195 200  180 195 200  180 195 200  180 195 200  180 195 200  180 195 200  180 195 200  180 195 200  180 195 200  180 195 200  180 195 200  180 195 200  180 195 200  180 195 200
151 169 174  151 169 174  151 169 174  151 169 174  151 169 174  151 169 174  151 169 174  151 169 174  151 169 174  151 169 174  156 173 178  173 188 193  180 195 200  180 195 200  180 195 200  180 195 200  180 195 200  180 195 200  180 195 200  180 195 200  180 195 200  180 195 200  180 195 200  180 195 200  64 69 70  96 115 122  96 115 122  96 115 122  96 115 122  96 115 122  96 115 122  96 115 122  96 115 122  96 115 122  96 115 122  27 31 32  85 105 111  85 105 111  85 105 111  126 145 150  151 169 174  151 169 174  151 169 174  151 169 174  119 138 143  85 105 111  85 105 111  85 105 111  85 105 111  151 169 174  151 169 174  151 169 174  145 163 169  130 151 157  130 151 157  130 151 157  130 151 157  130 151 157  151 169 174  151 169 174  151 169 174  151 169 174  148 166 171  46 55 60  49 60 65  55 70 76  50 61 66  46 55 60  46 55 60  46 55 60  150 168 173  151 169 174  151 169 174  151 169 174  151 169 174  63 82 90  105 123 130  124 142 149  124 142 149  124 142 149  124 142 149  124 142 149  124 142 149  124 142 149  124 142 149  124 142 149  124 142 149  124 142 149  124 142 149  124 142 149  124 142 149  124 142 149  124 142 149  124 142 149  124 142 149  124 142 149  124 142 149  124 142 149  124 142 149  124 142 149  124 142 149  124 142 149  121 139 146  106 127 134  106 127 134  106 127 134  106 127 134  106 127 134  106 127 134  106 127 134  106 127 134  106 127 134  106 127 134  106 127 134  106 127 134  106 127 134  106 127 134  106 127 134  106 127 134  106 127 134  106 127 134  106 127 134  106 127 134  106 127 134  106 127 134  106 127 134  106 127 134  106 127 134  106 127 134  106 127 134  106 127 134  106 127 134  106 127 134  106 127 134  106 127 134  118 137 144  124 142 149  124 142 149  124 142 149  124 142 149  124 142 149  124 142 149  124 142 149  124 142 149  124 142 149  124 142 149  124 142 149  124 142 149  124 142 149  124 142 149  124 142 149  124 142 149  124 142 149  124 142 149  124 142 149  124 142 149  124 142 149  124 142 149  124 142 149  124 142 149  124 142 149  117 135 142  63 82 90  129 147 153  151 169 174  151 169 174  151 169 174  151 169 174  46 55 60  46 55 60  46 55 60  48 58 63  55 70 76  51 63 68  46 55 60  131 148 153  151 169 174  151 169 174  151 169 174  151 169 174  130 151 157  130 151 157  130 151 157  130 151 157  130 151 157  142 161 167  151 169 174  151 169 174  151 169 174  85 105 111  85 105 111  85 105 111  85 105 111  96 116 122  151 169 174  151 169 174  151 169 174  151 169 174  144 162 167  85 105 111  85 105 111  85 105 111  58 71 75  96 115 122  96 115 122  96 115 122  96 115 122  96 115 122  96 115 122  96 115 122  96 115 122  96 115 122  96 115 122  17 18 18  180 195 200  180 195 200  180 195 200  180 195 200  180 195 200  180 195 200  180 195 200  180 195 200  180 195 200  180 195 200  180 195 200  180 195 200  176 191 196  158 175 180  151 169 174  151 169 174  151 169 174  151 169 174  151 169 174  151 169 174  151 169 174  151 169 174  151 169 174  151 169 174  151 169 174  151 169 174  151 169 174  151 169 174  151 169 174  151 169 174  151 169 174  151 169 174  151 169 174  151 169 174  151 169 174  151 169 174  151 169 174  151 169 174  151 169 174  151 169 174  151 169 174  151 169 174
151 169 174  151 169 174  151 169 174  151 169 174  151 169 174  151 169 174  151 169 174  151 169 174  151 169 174  151 169 174  151 169 174  151 169 174  151 169 174  151 169 174  151 169 174  151 169 174  151 169 174  151 169 174  160 177 182  176 192 197  180 195 200  180 195 200  180 195 200  180 195 200  156 168 172  62 74 78  96 115 122  96 115 122  96 115 122  96 115 122  96 115 122  96 115 122  96 115 122  96 115 122  35 41 42  85 105 111  85 105 111  85 105 111  85 105 111  123 142 147  151 169 174  151 169 174  151 169 174  151 169 174  151 169 174  146 165 170  124 144 150  117 138 144  130 151 157  130 151 157  130 151 157  130 151 157  130 151 157  130 151 157  130 151 157  130 151 157  130 151 157  130 151 157  130 151 157  151 169 174  151 169 174  151 169 174  151 169 174  151 169 174  151 169 174  126 142 147  106 120 125  122 138 143  151 169 174  151 169 174  151 169 174  151 169 174  151 169 174  151 169 174  64 83 91  63 82 90  124 142 149  124 142 149  124 142 149  124 142 149  124 142 149  124 142 149  124 142 149  124 142 149  124 142 149  124 142 149  124 142 149  124 142 149  124 142 149  124 142 149  124 142 149  124 142 149  124 142 149  124 142 149  124 142 149  124 142 149  124 142 149  124 142 149  124 142 149  124 142 149  124 142 149  112 132 139  106 127 134  106 127 134  106 127 134  106 127 134  106 127 134  106 127 134  106 127 134  106 127 134  106 127 134  106 127 134  106 127 134  104 125 132  99 119 126  95 114 120  92 110 116  90 108 114  89 107 112  89 107 112  90 108 113  92 110 116  95 114 120  99 118 125  103 124 131  106 127 134  106 127 134  106 127 134  106 127 134  106 127 134  106 127 134  106 127 134  106 127 134  106 127 134  106 127 134  106 127 134  110 131 138  123 141 148  124 142 149  124 142 149  124 142 149  124 142 149  124 142 149  124 142 149  124 142 149  124 142 149  124 142 149  124 142 149  124 142 149  124 142 149  124 142 149  124 142 149  124 142 149  124 142 149  124 142 149  124 142 149  124 142 149  124 142 149  124 142 149  124 142 149  124 142 149  124 142 149  63 82 90  63 82 90  151 169 174  151 169 174  151 169 174  151 169 174  151 169 174  151 169 174  128 144 149  106 120 125  121 136 141  151 169 174  151 169 174  151 169 174  151 169 174  151 169 174  151 169 174  132 153 159  130 151 157  130 151 157  130 151 157  130 151 157  130 151 157  130 151 157  130 151 157  130 151 157  130 151 157  130 151 157  120 141 147  120 140 146  145 164 169  151 169 174  151 169 174  151 169 174  151 169 174  151 169 174  145 163 168  85 105 111  85 105 111  85 105 111  85 105 111  22 25 25  96 115 122  96 115 122  96 115 122  96 115 122  96 115 122  96 115 122  96 115 122  96 115 122  80 95 101  98 106 109  180 195 200  180 195 200  180 195 200  180 195 200  178 193 198  163 180 185  151 169 174  151 169 174  151 169 174  151 169 174  151 169 174  151 169 174  151 169 174  151 169 174  151 169 174  151 169 174  151 169 174  151 169 174  151 169 174  151 169 174  151 169 174  151 169 174  151 169 174  151 169 174  151 169 174  151 169 174  151 169 174  151 169 174  151 169 174  151 169 174  151 169 174  151 169 174  151 169 174  151 169 174  151 169 174  151 169 174  151 169 174  151 169 174  151 169 174  151 169 174  151 169 174  151 169 174
151 169 174  151 169 174  151 169 174  151 169 174  151 169 174  151 169 174  151 169 174  151 169 174  151 169 174  151 169 174  151 169 174  151 169 174  151 169 174  151 169 174  151 169 174  151 169 174  151 169 174  151 169 174  151 169 174  151 169 174  151 169 174  151 169 174  151 169 174  151 169 174  151 169 174  22 23 24  90 107 114  96 115 122  96 115 122  96 115 122  96 115 122  96 115 122  91 109 116  19 21 21  85 105 111  85 105 111  85 105 111  85 105 111  85 105 111  145 163 168  151 169 174  134 155 160  130 151 157  130 151 157  130 151 157  130 151 157  130 151 157  130 151 157  130 151 157  130 151 157  130 151 157  130 151 157  130 151 157  130 151 157  130 151 157  130 151 157  130 151 157  130 151 157  130 151 157  122 142 149  151 169 174  151 169 174  151 169 174  151 169 174  151 169 174  151 169 174  151 169 174  151 169 174  151 169 174  151 169 174  151 169 174  151 169 174  151 169 174  67 86 94  63 82 90  106 124 132  124 142 149  124 142 149  124 142 149  124 142 149  124 142 149  124 142 149  124 142 149  124 142 149  124 142 149  124 142 149  124 142 149  124 142 149  124 142 149  124 142 149  124 142 149  124 142 149  124 142 149  124 142 149  124 142 149  124 142 149  124 142 149  124 142 149  124 142 149  122 141 148  108 128 135  106 127 134  106 127 134  106 127 134  106 127 134  106 127 134  106 126 133  105 123 130  109 128 135  112 130 137  115 134 141  115 134 141  115 134 141  115 134 141  115 134 141  115 134 141  115 134 141  115 134 141  115 134 141  115 134 141  115 134 141  115 134 141  115 134 141  115 134 141  115 134 141  115 134 141  115 134 141  115 134 141  112 131 138  109 127 134  107 126 132  105 124 131  106 127 134  106 127 134  106 127 134  106 127 134  106 127 134  107 127 134  121 139 146  124 142 149  124 142 149  124 142 149  124 142 149  124 142 149  124 142 149  124 142 149  124 142 149  124 142 149  124 142 149  124 142 149  124 142 149  124 142 149  124 142 149  124 142 149  124 142 149  124 142 149  124 142 149  124 142 149  124 142 149  124 142 149  124 142 149  124 142 149  118 136 143  63 82 90  64 83 91  151 169 174  151 169 174  151 169 174  151 169 174  151 169 174  151 169 174  151 169 174  151 169 174  151 169 174  151 169 174  151 169 174  151 169 174  151 169 174  103 122 129  130 151 157  130 151 157  130 151 157  130 151 157  130 151 157  130 151 157  130 151 157  130 151 157  130 151 157  130 151 157  130 151 157  130 151 157  130 151 157  130 151 157  130 151 157  130 151 157  130 151 157  133 154 160  151 169 174  151 169 174  85 105 111  85 105 111  85 105 111  85 105 111  85 105 111  17 19 19  83 99 106  96 115 122  96 115 122  96 115 122  96 115 122  96 115 122  94 113 119  17 18 18  150 168 173  151 169 174  151 169 174  151 169 174  151 169 174  151 169 174  151 169 174  151 169 174  151 169 174  151 169 174  151 169 174  151 169 174  151 169 174  151 169 174  151 169 174  151 169 174  151 169 174  151 169 174  151 169 174  151 169 174  151 169 174  151 169 174  151 169 174  151 169 174  151 169 174  151 169 174  151 169 174  151 169 174  150 168 174  147 166 171  145 164 169  143 162 168  142 161 167  141 160 166  141 161 167  143 162 168  144 163 169  147 165 171  150 168 173  151 169 174  151 169 174  151 169 174  151 169 174
130 151 157  130 151 157  130 151 157  130 151 157  130 151 157  130 151 157  131 152 158  139 158 164  146 165 170  150 168 173  150 168 173  150 168 173  150 168 173  150 168 173  150 168 173  150 168 173  150 168 173  150 168 173  150 168 173  150 168 173  150 169 174  151 169 174  150 169 174  150 168 173  150 168 173  147 165 170  56 67 71  36 42 44  29 33 34  25 28 28  34 40 42  63 76 81  85 105 111  85 105 111  85 105 111  85 105 111  85 105 111  85 105 111  85 105 111  130 151 157  130 151 157  130 151 157  130 151 157  130 151 157  130 151 157  130 151 157  130 151 157  130 151 157  130 151 157  130 151 157  130 151 157  130 151 157  130 151 157  130 151 157  130 151 157  130 151 157  130 151 157  130 151 157  130 151 157  131 152 158  128 147 153  129 147 153  151 169 174  151 169 174  151 169 174  151 169 174  151 169 174  151 169 174  151 169 174  151 169 174  151 169 174  147 165 170  63 82 90  63 82 90  78 97 104  124 142 149  124 142 149  124 142 149  124 142 149  124 142 149  124 142 149  124 142 149  124 142 149  124 142 149  124 142 149  124 142 149  124 142 149  124 142 149  124 142 149  124 142 149  124 142 149  124 142 149  124 142 149  124 142 149  124 142 149  124 142 149  124 142 149  124 142 149  120 139 146  106 127 134  106 127 134  106 127 134  106 127 134  108 128 135  113 132 138  115 134 141  115 134 141  115 134 141  115 134 141  115 134 141  115 134 141  115 134 141  115 134 141  115 134 141  115 134 141  115 134 141  115 134 141  115 134 141  115 134 141  115 134 141  115 134 141  115 134 141  115 134 141  115 134 141  115 134 141  115 134 141  115 134 141  115 134 141  115 134 141  115 134 141  115 134 141  115 134 141  115 134 141  113 132 139  109 129 136  106 127 134  106 127 134  106 127 134  106 127 134  118 137 144  124 142 149  124 142 149  124 142 149  124 142 149  124 142 149  124 142 149  124 142 149  124 142 149  124 142 149  124 142 149  124 142 149  124 142 149  124 142 149  124 142 149  124 142 149  124 142 149  124 142 149  124 142 149  124 142 149  124 142 149  124 142 149  124 142 149  124 142 149  93 112 120  63 82 90  63 82 90  142 160 166  151 169 174  151 169 174  151 169 174  151 169 174  151 169 174  151 169 174  151 169 174  151 169 174  151 169 174  144 163 168  103 122 128  131 152 158  130 151 157  130 151 157  130 151 157  130 151 157  130 151 157  130 151 157  130 151 157  130 151 157  130 151 157  130 151 157  130 151 157  130 151 157  130 151 157  130 151 157  130 151 157  130 151 157  130 151 157  130 151 157  130 151 157  130 151 157  86 106 112  85 105 111  85 105 111  85 105 111  85 105 111  85 105 111  85 105 111  69 84 89  36 43 45  27 30 31  27 31 32  35 41 43  50 60 63  134 153 158  150 168 173  150 168 173  150 169 174  151 169 174  150 169 174  150 168 173  150 168 173  150 168 173  150 168 173  150 168 173  150 168 173  150 168 173  150 168 173  150 168 173  150 168 173  150 168 173  147 166 171  140 159 165  132 153 159  130 151 157  130 151 157  130 151 157  130 151 157  130 151 157  130 151 157  130 151 157  130 151 157  130 151 157  130 151 157  130 151 157  130 151 157  130 151 157  130 151 157  130 151 157  130 151 157  130 151 157  130 151 157  130 151 157  130 151 157  130 151 157  130 151 157  130 151 157  130 151 157
130 151 157  130 151 157  130 151 157  130 151 157  130 151 157  130 151 157  130 151 157  130 151 157  130 151 157  130 151 157  130 151 157  130 151 157  130 151 157  130 151 157  130 151 157  130 151 157  130 151 157  130 151 157  130 151 157  130 151 157  130 151 157  130 151 157  130 151 157  130 151 157  130 151 157  130 151 157  130 151 157  98 119 125  85 105 111  85 105 111  85 105 111  85 105 111  85 105 111  85 105 111  85 105 111  85 105 111  85 105 111  85 105 111  130 151 157  130 151 157  130 151 157  130 151 157  130 151 157  130 151 157  130 151 157  130 151 157  130 151 157  130 151 157  130 151 157  130 151 157  130 151 157  130 151 157  130 151 157  130 151 157  130 151 157  130 151 157  130 151 157  140 160 166  151 169 174  151 169 174  151 169 174  150 168 173  63 82 90  93 111 118  143 161 166  151 169 174  151 169 174  151 169 174  151 169 174  126 145 151  64 83 91  63 82 90  63 82 90  88 106 114  124 142 149  124 142 149  124 142 149  124 142 149  124 142 149  124 142 149  124 142 149  124 142 149  124 142 149  124 142 149  124 142 149  124 142 149  124 142 149  124 142 149  124 142 149  124 142 149  124 142 149  124 142 149  124 142 149  124 142 149  124 142 149  124 142 149  124 142 149  117 136 143  106 127 134  106 127 134  106 127 134  107 128 135  113 133 140  115 134 141  115 134 141  115 134 141  115 134 141  115 134 141  115 134 141  115 134 141  115 134 141  115 134 141  115 134 141  115 134 141  115 134 141  115 134 141  115 134 141  115 134 141  115 134 141  115 134 141  115 134 141  115 134 141  115 134 141  115 134 141  115 134 141  115 134 141  115 134 141  115 134 141  115 134 141  115 134 141  115 134 141  115 134 141  115 134 141  115 134 141  115 134 141  114 133 140  107 128 135  106 127 134  106 127 134  106 127 134  113 133 141  124 142 149  124 142 149  124 142 149  124 142 149  124 142 149  124 142 149  124 142 149  124 142 149  124 142 149  124 142 149  124 142 149  124 142 149  124 142 149  124 142 149  124 142 149  124 142 149  124 142 149  124 142 149  124 142 149  124 142 149  124 142 149  124 142 149  124 142 149  103 121 129  63 82 90  63 82 90  63 82 90  120 138 144  151 169 174  151 169 174  151 169 174  151 169 174  147 165 170  105 123 130  63 82 90  147 165 170  151 169 174  151 169 174  151 169 174  143 162 168  130 151 157  130 151 157  130 151 157  130 151 157  130 151 157  130 151 157  130 151 157  130 151 157  130 151 157  130 151 157  130 151 157  130 151 157  130 151 157  130 151 157  130 151 157  130 151 157  130 151 157  130 151 157  130 151 157  87 108 114  85 105 111  85 105 111  85 105 111  85 105 111  85 105 111  85 105 111  85 105 111  85 105 111  85 105 111  94 114 120  130 151 157  130 151 157  130 151 157  130 151 157  130 151 157  130 151 157  130 151 157  130 151 157  130 151 157  130 151 157  130 151 157  130 151 157  130 151 157  130 151 157  130 151 157  130 151 157  130 151 157  130 151 157  130 151 157  130 151 157  130 151 157  130 151 157  130 151 157  130 151 157  130 151 157  130 151 157  130 151 157  130 151 157  130 151 157  130 151 157  129 150 156  127 148 154  126 147 153  125 145 152  124 145 151  124 144 151  124 145 151  125 145 152  126 146 153  127 148 154  129 150 156  130 151 157  130 151 157  130 151 157  130 151 157
110 130 137  115 136 143  121 142 148  127 148 154  130 151 157  130 151 157  130 151 157  130 151 157  130 151 157  130 151 157  130 151 157  130 151 157  130 151 157  130 151 157  130 151 157  130 151 157  130 151 157  130 151 157  130 151 157  130 151 157  130 151 157  130 151 157  130 151 157  130 151 157  130 151 157  130 151 157  130 151 157  130 151 157  130 151 157  106 126 132  85 105 111  85 105 111  85 105 111  85 105 111  85 105 111  85 105 111  115 136 142  130 151 157  130 151 157  130 151 157  130 151 157  130 151 157  130 151 157  130 151 157  130 151 157  130 151 157  130 151 157  130 151 157  130 151 157  130 151 157  130 151 157  130 151 157  130 151 157  130 151 157  130 151 157  146 164 170  151 169 174  151 169 174  151 169 174  151 169 174  151 169 174  151 169 174  151 169 174  140 159 164  66 85 93  63 82 90  63 82 90  63 82 90  63 82 90  63 82 90  63 82 90  76 95 103  123 141 148  124 142 149  124 142 149  124 142 149  124 142 149  124 142 149  124 142 149  124 142 149  124 142 149  124 142 149  124 142 149  124 142 149  124 142 149  124 142 149  124 142 149  124 142 149  124 142 149  124 142 149  124 142 149  124 142 149  124 142 149  124 142 149  124 142 149  124 142 149  113 133 140  106 127 134  106 127 134  105 126 133  89 106 111  111 129 136  115 134 141  115 134 141  115 134 141  115 134 141  115 134 141  115 134 141  115 134 141  115 134 141  115 134 141  115 134 141  115 134 141  115 134 141  115 134 141  115 134 141  115 134 141  115 134 141  115 134 141  115 134 141  115 134 141  115 134 141  115 134 141  115 134 141  115 134 141  115 134 141  115 134 141  115 134 141  115 134 141  115 134 141  115 134 141  115 134 141  115 134 141  115 134 141  115 134 141  115 134 141  114 133 140  90 107 112  105 126 133  106 127 134  106 127 134  111 131 138  124 142 149  124 142 149  124 142 149  124 142 149  124 142 149  124 142 149  124 142 149  124 142 149  124 142 149  124 142 149  124 142 149  124 142 149  124 142 149  124 142 149  124 142 149  124 142 149  124 142 149  124 142 149  124 142 149  124 142 149  124 142 149  124 142 149  124 142 149  124 142 149  84 103 110  63 82 90  63 82 90  63 82 90  63 82 90  63 82 90  63 82 90  64 83 91  130 148 154  151 169 174  151 169 174  151 169 174  151 169 174  151 169 174  151 169 174  151 169 174  148 167 172  130 151 157  130 151 157  130 151 157  130 151 157  130 151 157  130 151 157  130 151 157  130 151 157  130 151 157  130 151 157  130 151 157  130 151 157  130 151 157  130 151 157  130 151 157  130 151 157  130 151 157  130 151 157  122 143 149  85 105 111  85 105 111  85 105 111  85 105 111  85 105 111  85 105 111  101 122 128  129 150 156  130 151 157  130 151 157  130 151 157  130 151 157  130 151 157  130 151 157  130 151 157  130 151 157  130 151 157  130 151 157  130 151 157  130 151 157  130 151 157  130 151 157  130 151 157  130 151 157  130 151 157  130 151 157  130 151 157  130 151 157  130 151 157  130 151 157  130 151 157  130 151 157  128 149 155  122 142 149  116 136 143  111 131 138  107 127 135  106 127 134  106 127 134  106 127 134  106 127 134  106 127 134  106 127 134  106 127 134  106 127 134  106 127 134  106 127 134  106 127 134  106 127 134  106 127 134  106 127 134  106 127 134  107 127 135  110 130 137
106 127 134  106 127 134  106 127 134  106 127 134  106 127 134  106 127 134  110 131 138  116 137 143  125 146 152  130 151 157  130 151 157  130 151 157  130 151 157  130 151 157  130 151 157  130 151 157  130 151 157  130 151 157  130 151 157  130 151 157  130 151 157  130 151 157  130 151 157  130 151 157  130 151 157  130 151 157  130 151 157  130 151 157  130 151 157  130 151 157  130 151 157  130 151 157  130 151 157  130 151 157  130 151 157  130 151 157  130 151 157  130 151 157  130 151 157  130 151 157  130 151 157  130 151 157  130 151 157  130 151 157  130 151 157  130 151 157  130 151 157  130 151 157  130 151 157  130 151 157  130 151 157  130 151 157  130 151 157  147 166 171  151 169 174  151 169 174  151 169 174  151 169 174  151 169 174  151 169 174  151 169 174  141 160 165  125 143 150  124 142 149  124 142 149  124 142 149  124 142 149  119 137 144  117 135 142  124 142 149  124 142 149  124 142 149  124 142 149  124 142 149  124 142 149  124 142 149  124 142 149  124 142 149  124 142 149  124 142 149  124 142 149  124 142 149  124 142 149  124 142 149  124 142 149  124 142 149  124 142 149  124 142 149  124 142 149  124 142 149  124 142 149  124 142 149  124 142 149  124 142 149  124 142 149  111 130 137  106 127 134  106 127 134  103 124 131  59 70 73  108 126 133  115 134 141  115 134 141  115 134 141  115 134 141  115 134 141  115 134 141  115 134 141  115 134 141  115 134 141  115 134 141  115 134 141  115 134 141  115 134 141  115 134 141  115 134 141  115 134 141  115 134 141  115 134 141  115 134 141  115 134 141  115 134 141  115 134 141  115 134 141  115 134 141  115 134 141  115 134 141  115 134 141  115 134 141  115 134 141  115 134 141  115 134 141  115 134 141  115 134 141  115 134 141  115 134 141  115 134 141  111 129 136  58 69 72  102 122 129  106 127 134  106 127 134  109 129 136  124 142 149  124 142 149  124 142 149  124 142 149  124 142 149  124 142 149  124 142 149  124 142 149  124 142 149  124 142 149  124 142 149  124 142 149  124 142 149  124 142 149  124 142 149  124 142 149  124 142 149  124 142 149  124 142 149  124 142 149  124 142 149  124 142 149  124 142 149  124 142 149  124 142 149  124 142 149  118 136 143  118 136 143  124 142 149  124 142 149  124 142 149  124 142 149  124 142 149  138 156 162  151 169 174  151 169 174  151 169 174  151 169 174  151 169 174  151 169 174  151 169 174  149 168 173  132 152 158  130 151 157  130 151 157  130 151 157  130 151 157  130 151 157  130 151 157  130 151 157  130 151 157  130 151 157  130 151 157  130 151 157  130 151 157  130 151 157  130 151 157  130 151 157  130 151 157  130 151 157  130 151 157  130 151 157  130 151 157  130 151 157  130 151 157  130 151 157  130 151 157  130 151 157  130 151 157  130 151 157  130 151 157  130 151 157  130 151 157  130 151 157  130 151 157  130 151 157  130 151 157  130 151 157  130 151 157  130 151 157  130 151 157  130 151 157  130 151 157  130 151 157  130 151 157  130 151 157  127 147 154  117 138 144  111 131 138  106 127 134  106 127 134  106 127 134  106 127 134  106 127 134  106 127 134  106 127 134  106 127 134  106 127 134  106 127 134  106 127 134  106 127 134  106 127 134  106 127 134  106 127 134  106 127 134  106 127 134  106 127 134  106 127 134  106 127 134  106 127 134  106 127 134  106 127 134  106 127 134
112 131 139  113 132 140  113 133 140  114 134 141  115 134 141  116 135 142  117 136 143  118 137 144  119 138 145  120 138 145  120 139 146  124 143 150  132 150 157  144 163 169  148 166 171  148 166 171  148 166 171  148 166 171  148 166 171  147 166 171  147 166 171  147 166 171  147 166 171  147 166 171  147 166 171  147 166 171  147 166 171  146 165 170  146 165 170  146 164 170  145 163 169  143 163 168  142 161 167  141 160 166  140 159 164  138 158 164  137 157 163  135 155 161  134 155 161  133 153 159  131 152 158  130 151 157  130 151 157  130 151 157  130 151 157  130 151 157  130 151 157  130 151 157  130 151 157  139 159 165  149 168 173  151 169 174  151 169 174  151 169 174  151 169 174  151 169 174  151 169 174  151 169 174  138 156 161  125 143 150  124 142 149  124 142 149  124 142 149  124 142 149  124 142 149  124 142 149  124 142 149  124 142 149  124 142 149  124 142 149  124 142 149  124 142 149  124 142 149  124 142 149  124 142 149  124 142 149  124 142 149  124 142 149  124 142 149  124 142 149  124 142 149  124 142 149  124 142 149  124 142 149  124 142 149  124 142 149  124 142 149  124 142 149  124 142 149  124 142 149  124 142 149  124 142 149  124 142 149  123 141 148  108 129 136  106 127 134  106 127 134  106 127 134  59 71 73  74 88 92  115 134 141  115 134 141  115 134 141  115 134 141  115 134 141  115 134 141  115 134 141  115 134 141  115 134 141  115 134 141  115 134 141  115 134 141  115 134 141  115 134 141  108 127 135  103 122 129  97 116 124  93 112 121  91 110 119  91 110 119  93 112 120  96 115 124  102 121 129  107 126 134  114 133 140  115 134 141  115 134 141  115 134 141  115 134 141  115 134 141  115 134 141  115 134 141  115 134 141  115 134 141  115 134 141  115 134 141  115 134 141  115 134 141  86 101 106  54 64 67  106 127 134  106 127 134  106 127 134  107 128 135  122 140 147  124 142 149  124 142 149  124 142 149  124 142 149  124 142 149  124 142 149  124 142 149  124 142 149  124 142 149  124 142 149  124 142 149  124 142 149  124 142 149  124 142 149  124 142 149  124 142 149  124 142 149  124 142 149  124 142 149  124 142 149  124 142 149  124 142 149  124 142 149  124 142 149  124 142 149  124 142 149  124 142 149  124 142 149  124 142 149  124 142 149  124 142 149  124 142 149  124 142 149  124 142 149  134 153 158  151 169 174  151 169 174  151 169 174  151 169 174  151 169 174  151 169 174  151 169 174  150 168 173  141 161 167  130 151 157  130 151 157  130 151 157  130 151 157  130 151 157  130 151 157  130 151 157  130 151 157  131 152 158  133 153 159  134 155 161  135 155 161  137 156 162  138 158 164  140 159 164  141 160 166  142 161 167  143 163 168  145 163 169  145 164 170  146 165 170  146 165 170  147 166 171  147 166 171  147 166 171  147 166 171  147 166 171  147 166 171  147 166 171  147 166 171  148 166 171  148 166 171  148 166 171  148 166 171  148 166 171  146 164 170  133 152 158  125 144 150  120 139 146  120 138 145  119 138 145  118 137 144  117 136 143  116 135 142  115 134 141  114 134 141  113 133 140  113 132 140  112 131 139  111 131 138  110 131 138  110 131 137  110 130 137  110 130 137  110 130 137  109 130 137  109 129 137  109 129 137  109 129 137  109 130 137  109 130 137  110 130 137  110 130 137  110 131 137  110 131 138  111 131 138  112 131 139
124 142 149  124 142 149  124 142 149  124 142 149  124 142 149  124 142 149  124 142 149  124 142 149  124 142 149  124 142 149  124 142 149  124 142 149  124 142 149  124 142 149  124 142 149  124 142 149  128 146 153  134 152 159  146 164 170  151 169 174  151 169 174  151 169 174  151 169 174  151 169 174  151 169 174  151 169 174  151 169 174  151 169 174  151 169 174  151 169 174  151 169 174  151 169 174  151 169 174  151 169 174  151 169 174  151 169 174  151 169 174  151 169 174  151 169 174  151 169 174  151 169 174  151 169 174  151 169 174  151 169 174  151 169 174  151 169 174  151 169 174  151 169 174  151 169 174  151 169 174  151 169 174  151 169 174  151 169 174  151 169 174  143 161 166  128 146 153  124 142 149  124 142 149  124 142 149  124 142 149  124 142 149  124 142 149  124 142 149  124 142 149  124 142 149  124 142 149  124 142 149  124 142 149  124 142 149  124 142 149  124 142 149  124 142 149  124 142 149  124 142 149  124 142 149  124 142 149  124 142 149  124 142 149  124 142 149  124 142 149  124 142 149  124 142 149  124 142 149  124 142 149  124 142 149  124 142 149  124 142 149  124 142 149  124 142 149  124 142 149  124 142 149  124 142 149  122 140 147  107 128 135  106 127 134  106 127 134  106 127 134  90 107 113  46 55 57  97 113 119  115 134 141  115 134 141  115 134 141  115 134 141  115 134 141  115 134 141  115 134 141  115 134 141  115 134 141  115 134 141  115 134 141  114 133 140  109 128 135  95 114 123  88 107 116  83 102 111  81 100 110  81 100 110  81 100 110  81 100 110  81 100 110  81 100 110  82 101 111  87 106 115  94 113 121  107 126 133  114 133 140  115 134 141  115 134 141  115 134 141  115 134 141  115 134 141  115 134 141  115 134 141  115 134 141  115 134 141  115 134 141  115 134 141  104 122 128  47 56 58  80 96 101  106 127 134  106 127 134  106 127 134  106 127 134  119 138 145  124 142 149  124 142 149  124 142 149  124 142 149  124 142 149  124 142 149  124 142 149  124 142 149  124 142 149  124 142 149  124 142 149  124 142 149  124 142 149  124 142 149  124 142 149  124 142 149  124 142 149  124 142 149  124 142 149  124 142 149  124 142 149  124 142 149  124 142 149  124 142 149  124 142 149  124 142 149  124 142 149  124 142 149  124 142 149  124 142 149  124 142 149  124 142 149  124 142 149  124 142 149  124 142 149  124 142 149  127 145 152  140 158 163  151 169 174  151 169 174  151 169 174  151 169 174  151 169 174  151 169 174  151 169 174  151 169 174  151 169 174  151 169 174  151 169 174  151 169 174  151 169 174  151 169 174  151 169 174  151 169 174  151 169 174  151 169 174  151 169 174  151 169 174  151 169 174  151 169 174  151 169 174  151 169 174  151 169 174  151 169 174  151 169 174  151 169 174  151 169 174  151 169 174  151 169 174  151 169 174  151 169 174  151 169 174  151 169 174  148 166 171  136 154 160  129 147 153  124 142 149  124 142 149  124 142 149  124 142 149  124 142 149  124 142 149  124 142 149  124 142 149  124 142 149  124 142 149  124 142 149  124 142 149  124 142 149  124 142 149  124 142 149  124 142 149  124 142 149  124 142 149  124 142 149  124 142 149  124 142 149  124 142 149  124 142 149  124 142 149  124 142 149  124 142 149  124 142 149  124 142 149  124 142 149  124 142 149  124 142 149  124 142 149  124 142 149  124 142 149
124 142 149  124 142 149  124 142 149  124 142 149  124 142 149  124 142 149  124 142 149  124 142 149  124 142 149  124 142 149  124 142 149  124 142 149  124 142 149  124 142 149  124 142 149  124 142 149  124 142 149  124 142 149  124 142 149  124 142 149  124 142 149  125 143 150  130 148 155  136 154 160  145 163 169  151 169 174  151 169 174  151 169 174  151 169 174  151 169 174  151 169 174  151 169 174  151 169 174  151 169 174  151 169 174  151 169 174  151 169 174  151 169 174  151 169 174  151 169 174  151 169 174  151 169 174  151 169 174  151 169 174  151 169 174  151 169 174  151 169 174  151 169 174  151 169 174  141 159 165  131 149 156  125 143 150  124 142 149  124 142 149  124 142 149  124 142 149  124 142 149  124 142 149  124 142 149  124 142 149  124 142 149  124 142 149  124 142 149  124 142 149  124 142 149  124 142 149  124 142 149  124 142 149  124 142 149  124 142 149  124 142 149  124 142 149  124 142 149  124 142 149  124 142 149  124 142 149  124 142 149  124 142 149  124 142 149  124 142 149  124 142 149  124 142 149  124 142 149  124 142 149  124 142 149  124 142 149  124 142 149  124 142 149  124 142 149  124 142 149  124 142 149  113 132 139  106 127 134  106 127 134  106 127 134  106 127 134  106 127 134  66 79 83  46 55 57  99 116 122  115 134 141  115 134 141  115 134 141  115 134 141  115 134 141  115 134 141  115 134 141  115 134 141  115 134 141  115 134 141  115 134 141  110 129 136  96 115 123  87 106 115  82 101 110  81 100 110  80 99 109  80 99 109  80 99 109  80 99 109  80 99 109  80 99 109  81 100 109  81 100 110  85 104 114  94 113 122  108 127 134  114 133 140  115 134 141  115 134 141  115 134 141  115 134 141  115 134 141  115 134 141  115 134 141  115 134 141  115 134 141  115 134 141  107 125 132  47 56 58  60 71 75  106 127 134  106 127 134  106 127 134  106 127 134  106 127 134  111 131 138  123 142 149  124 142 149  124 142 149  124 142 149  124 142 149  124 142 149  124 142 149  124 142 149  124 142 149  124 142 149  124 142 149  124 142 149  124 142 149  124 142 149  124 142 149  124 142 149  124 142 149  124 142 149  124 142 149  124 142 149  124 142 149  124 142 149  124 142 149  124 142 149  124 142 149  124 142 149  124 142 149  124 142 149  124 142 149  124 142 149  124 142 149  124 142 149  124 142 149  124 142 149  124 142 149  124 142 149  124 142 149  124 142 149  124 142 149  124 142 149  130 148 155  140 158 163  151 169 174  151 169 174  151 169 174  151 169 174  151 169 174  151 169 174  151 169 174  151 169 174  151 169 174  151 169 174  151 169 174  151 169 174  151 169 174  151 169 174  151 169 174  151 169 174  151 169 174  151 169 174  151 169 174  151 169 174  151 169 174  151 169 174  151 169 174  151 169 174  147 165 170  137 155 161  131 149 155  126 144 151  124 142 149  124 142 149  124 142 149  124 142 149  124 142 149  124 142 149  124 142 149  124 142 149  124 142 149  124 142 149  124 142 149  124 142 149  124 142 149  124 142 149  124 142 149  124 142 149  124 142 149  124 142 149  124 142 149  124 142 149  124 142 149  124 142 149  124 142 149  124 142 149  124 142 149  124 142 149  124 142 149  124 142 149  124 142 149  124 142 149  124 142 149  124 142 149  124 142 149  124 142 149  124 142 149  124 142 149  124 142 149  124 142 149  124 142 149
124 142 149  124 142 149  124 142 149  124 142 149  124 142 149  124 142 149  124 142 149  124 142 149  124 142 149  124 142 149  124 142 149  124 142 149  124 142 149  124 142 149  124 142 149  124 142 149  124 142 149  124 142 149  124 142 149  124 142 149  124 142 149  124 142 149  124 142 149  124 142 149  124 142 149  124 142 149  124 142 149  124 142 149  124 142 149  124 142 149  128 146 153  131 149 156  134 152 158  136 154 160  138 156 162  140 158 164  140 158 164  140 158 164  140 158 164  139 157 163  137 155 161  134 152 158  131 149 156  127 145 152  124 142 149  124 142 149  124 142 149  124 142 149  124 142 149  124 142 149  124 142 149  124 142 149  124 142 149  124 142 149  124 142 149  124 142 149  124 142 149  124 142 149  124 142 149  124 142 149  124 142 149  124 142 149  124 142 149  124 142 149  124 142 149  124 142 149  124 142 149  124 142 149  124 142 149  124 142 149  124 142 149  124 142 149  124 142 149  124 142 149  124 142 149  124 142 149  124 142 149  124 142 149  124 142 149  124 142 149  124 142 149  124 142 149  124 142 149  124 142 149  124 142 149  124 142 149  124 142 149  124 142 149  124 142 149  115 134 141  106 127 134  106 127 134  106 127 134  106 127 134  106 127 134  106 127 134  106 127 134  62 75 78  46 55 57  90 105 110  115 134 141  115 134 141  115 134 141  115 134 141  115 134 141  115 134 141  115 134 141  115 134 141  115 134 141  115 134 141  115 134 141  109 128 136  95 114 123  85 104 114  81 100 110  80 99 109  80 99 109  80 99 109  80 99 109  80 99 109  80 99 109  80 99 109  80 99 109  80 99 109  84 103 113  93 112 121  109 128 135  114 133 140  115 134 141  115 134 141  115 134 141  115 134 141  115 134 141  115 134 141  115 134 141  115 134 141  115 134 141  115 134 141  102 119 124  46 55 57  56 67 70  105 126 133  106 127 134  106 127 134  106 127 134  106 127 134  106 127 134  106 127 134  113 133 140  124 142 149  124 142 149  124 142 149  124 142 149  124 142 149  124 142 149  124 142 149  124 142 149  124 142 149  124 142 149  124 142 149  124 142 149  124 142 149  124 142 149  124 142 149  124 142 149  124 142 149  124 142 149  124 142 149  124 142 149  124 142 149  124 142 149  124 142 149  124 142 149  124 142 149  124 142 149  124 142 149  124 142 149  124 142 149  124 142 149  124 142 149  124 142 149  124 142 149  124 142 149  124 142 149  124 142 149  124 142 149  124 142 149  124 142 149  124 142 149  124 142 149  124 142 149  124 142 149  124 142 149  124 142 149  127 145 152  131 149 155  134 152 158  136 154 160  138 156 162  140 158 164  140 158 164  140 158 164  140 158 164  138 156 162  137 155 161  135 153 159  132 150 156  128 146 153  125 143 150  124 142 149  124 142 149  124 142 149  124 142 149  124 142 149  124 142 149  124 142 149  124 142 149  124 142 149  124 142 149  124 142 149  124 142 149  124 142 149  124 142 149  124 142 149  124 142 149  124 142 149  124 142 149  124 142 149  124 142 149  124 142 149  124 142 149  124 142 149  124 142 149  124 142 149  124 142 149  124 142 149  124 142 149  124 142 149  124 142 149  124 142 149  124 142 149  124 142 149  124 142 149  124 142 149  124 142 149  124 142 149  124 142 149  124 142 149  124 142 149  124 142 149  124 142 149  124 142 149  124 142 149  124 142 149  124 142 149  124 142 149
124 142 149  124 142 149  124 142 149  124 142 149  124 142 149  124 142 149  124 142 149  124 142 149  124 142 149  124 142 149  124 142 149  124 142 149  124 142 149  124 142 149  124 142 149  124 142 149  124 142 149  124 142 149  124 142 149  124 142 149  124 142 149  124 142 149  124 142 149  124 142 149  124 142 149  124 142 149  124 142 149  124 142 149  124 142 149  124 142 149  124 142 149  124 142 149  124 142 149  124 142 149  124 142 149  124 142 149  124 142 149  124 142 149  124 142 149  124 142 149  124 142 149  124 142 149  124 142 149  124 142 149  124 142 149  124 142 149  124 142 149  124 142 149  124 142 149  124 142 149  124 142 149  124 142 149  124 142 149  124 142 149  124 142 149  105 120 125  27 31 32  31 36 36  25 29 29  53 61 63  113 130 136  124 142 149  124 142 149  124 142 149  124 142 149  124 142 149  124 142 149  124 142 149  124 142 149  124 142 149  124 142 149  124 142 149  124 142 149  124 142 149  124 142 149  124 142 149  124 142 149  124 142 149  124 142 149  124 142 149  124 142 149  124 142 149  124 142 149  124 142 149  124 142 149  124 142 149  124 142 149  119 137 144  106 127 134  106 127 134  106 127 134  106 127 134  106 127 134  106 127 134  106 127 134  106 127 134  106 127 134  73 87 91  46 55 57  66 78 81  115 134 141  115 134 141  115 134 141  115 134 141  115 134 141  115 134 141  115 134 141  115 134 141  115 134 141  115 134 141  115 134 141  112 131 139  104 123 131  89 108 117  84 103 112  81 100 110  80 99 109  80 99 109  80 99 109  80 99 109  80 99 109  80 99 109  81 100 110  83 102 112  87 106 115  102 121 129  112 131 138  115 134 141  115 134 141  115 134 141  115 134 141  115 134 141  115 134 141  115 134 141  115 134 141  115 134 141  115 134 141  115 134 141  78 91 96  46 55 57  62 75 78  106 127 134  106 127 134  106 127 134  106 127 134  106 127 134  106 127 134  106 127 134  106 127 134  106 127 134  117 136 143  124 142 149  124 142 149  124 142 149  124 142 149  124 142 149  124 142 149  124 142 149  124 142 149  124 142 149  124 142 149  124 142 149  124 142 149  124 142 149  124 142 149  124 142 149  124 142 149  124 142 149  124 142 149  124 142 149  124 142 149  124 142 149  124 142 149  124 142 149  124 142 149  124 142 149  124 142 149  119 137 144  64 73 76  25 29 29  32 37 38  26 30 30  95 108 114  124 142 149  124 142 149  124 142 149  124 142 149  124 142 149  124 142 149  124 142 149  124 142 149  124 142 149  124 142 149  124 142 149  124 142 149  124 142 149  124 142 149  124 142 149  124 142 149  124 142 149  124 142 149  124 142 149  124 142 149  124 142 149  124 142 149  124 142 149  124 142 149  124 142 149  124 142 149  124 142 149  124 142 149  124 142 149  124 142 149  124 142 149  124 142 149  124 142 149  124 142 149  124 142 149  124 142 149  124 142 149  124 142 149  124 142 149  124 142 149  124 142 149  124 142 149  124 142 149  124 142 149  124 142 149  124 142 149  124 142 149  124 142 149  124 142 149  124 142 149  124 142 149  124 142 149  124 142 149  124 142 149  124 142 149  124 142 149  124 142 149  124 142 149  124 142 149  124 142 149  124 142 149  124 142 149  124 142 149  124 142 149  124 142 149  124 142 149  124 142 149  124 142 149  124 142 149  124 142 149  124 142 149  124 142 149  124 142 149
124 142 149  124 142 149  124 142 149  124 142 149  124 142 149  124 142 149  124 142 149  124 142 149  124 142 149  125 143 150  125 143 150  126 144 151  131 149 155  134 152 158  136 154 160  134 152 158  130 148 155  125 143 150  125 143 150  124 142 149  124 142 149  124 142 149  124 142 149  124 142 149  124 142 149  124 142 149  124 142 149  124 142 149  124 142 149  124 142 149  124 142 149  124 142 149  124 142 149  124 142 149  124 142 149  124 142 149  124 142 149  124 142 149  124 142 149  124 142 149  124 142 149  124 142 149  124 142 149  124 142 149  124 142 149  124 142 149  124 142 149  124 142 149  124 142 149  124 142 149  124 142 149  124 142 149  124 142 149  124 142 149  29 33 33  136 152 156  145 162 167  145 162 167  145 162 167  145 162 167  142 159 164  28 32 32  108 124 130  124 142 149  124 142 149  124 142 149  124 142 149  124 142 149  124 142 149  124 142 149  124 142 149  124 142 149  124 142 149  124 142 149  124 142 149  124 142 149  124 142 149  124 142 149  124 142 149  124 142 149  124 142 149  124 142 149  124 142 149  124 142 149  124 142 149  123 141 148  107 127 134  106 127 134  106 127 134  106 127 134  106 127 134  106 127 134  106 127 134  106 127 134  106 127 134  106 127 134  106 127 134  100 120 125  46 55 57  47 56 58  106 123 130  115 134 141  115 134 141  115 134 141  115 134 141  115 134 141  115 134 141  115 134 141  115 134 141  115 134 141  115 134 141  115 134 141  115 134 141  107 126 134  95 114 123  88 107 117  85 104 113  82 101 111  81 100 110  81 100 110  82 101 111  84 103 113  88 107 116  93 112 121  105 124 132  115 134 141  115 134 141  115 134 141  115 134 141  115 134 141  115 134 141  115 134 141  115 134 141  115 134 141  115 134 141  115 134 141  115 134 141  109 127 133  47 56 58  46 55 57  85 102 106  106 127 134  106 127 134  106 127 134  106 127 134  106 127 134  106 127 134  106 127 134  106 127 134  106 127 134  106 127 134  106 127 134  122 140 147  124 142 149  124 142 149  124 142 149  124 142 149  124 142 149  124 142 149  124 142 149  124 142 149  124 142 149  124 142 149  124 142 149  124 142 149  124 142 149  124 142 149  124 142 149  124 142 149  124 142 149  124 142 149  124 142 149  124 142 149  124 142 149  124 142 149  121 138 145  26 30 30  124 138 142  145 162 167  145 162 167  145 162 167  145 162 167  145 161 166  26 30 30  124 142 149  124 142 149  124 142 149  124 142 149  124 142 149  124 142 149  124 142 149  124 142 149  124 142 149  124 142 149  124 142 149  124 142 149  124 142 149  124 142 149  124 142 149  124 142 149  124 142 149  124 142 149  124 142 149  124 142 149  124 142 149  124 142 149  124 142 149  124 142 149  124 142 149  124 142 149  124 142 149  124 142 149  124 142 149  124 142 149  124 142 149  124 142 149  124 142 149  124 142 149  124 142 149  125 143 150  125 143 150  129 147 154  133 151 158  136 154 160  134 152 158  132 150 156  127 145 152  125 143 150  125 143 150  124 142 149  124 142 149  124 142 149  124 142 149  124 142 149  124 142 149  124 142 149  124 142 149  124 142 149  124 142 149  124 142 149  124 142 149  124 142 149  124 142 149  124 142 149  124 142 149  124 142 149  124 142 149  124 142 149  124 142 149  124 142 149  124 142 149  124 142 149  124 142 149  124 142 149  124 142 149  124 142 149
135 153 159  142 160 166  146 164 170  150 168 173  151 169 174  151 169 174  151 169 174  145 164 169  137 155 161  129 148 153  125 143 150  122 141 147  121 140 147  120 139 146  120 139 146  121 140 147  123 142 148  126 145 151  134 153 159  146 164 170  150 168 173  143 161 167  128 146 153  124 142 149  124 142 149  124 142 149  124 142 149  124 142 149  124 142 149  124 142 149  124 142 149  124 142 149  124 142 149  124 142 149  124 142 149  124 142 149  124 142 149  124 142 149  124 142 149  124 142 149  124 142 149  124 142 149  124 142 149  124 142 149  124 142 149  124 142 149  124 142 149  124 142 149  124 142 149  124 142 149  124 142 149  124 142 149  124 142 149  30 35 35  145 162 167  145 162 167  145 162 167  145 162 167  145 162 167  145 162 167  145 162 167  145 162 167  137 153 158  28 32 32  123 141 148  124 142 149  124 142 149  124 142 149  124 142 149  124 142 149  124 142 149  124 142 149  124 142 149  124 142 149  124 142 149  124 142 149  124 142 149  124 142 149  124 142 149  124 142 149  124 142 149  124 142 149  124 142 149  124 142 149  112 133 140  106 127 134  106 127 134  106 127 134  106 127 134  106 127 134  106 127 134  106 127 134  106 127 134  106 127 134  106 127 134  106 127 134  106 127 134  106 127 134  55 66 69  46 55 57  48 57 59  109 128 134  115 134 141  115 134 141  115 134 141  115 134 141  115 134 141  115 134 141  115 134 141  115 134 141  115 134 141  115 134 141  115 134 141  115 134 141  114 133 140  111 130 137  108 127 135  105 124 131  102 121 129  102 121 129  104 123 131  108 127 135  110 129 137  113 132 139  115 134 141  115 134 141  115 134 141  115 134 141  115 134 141  115 134 141  115 134 141  115 134 141  115 134 141  115 134 141  115 134 141  115 134 141  113 132 139  54 63 66  46 55 57  52 62 64  104 125 132  106 127 134  106 127 134  106 127 134  106 127 134  106 127 134  106 127 134  106 127 134  106 127 134  106 127 134  106 127 134  106 127 134  106 127 134  110 131 138  124 142 149  124 142 149  124 142 149  124 142 149  124 142 149  124 142 149  124 142 149  124 142 149  124 142 149  124 142 149  124 142 149  124 142 149  124 142 149  124 142 149  124 142 149  124 142 149  124 142 149  124 142 149  124 142 149  124 142 149  33 38 39  128 142 147  145 162 167  145 162 167  145 162 167  145 162 167  145 162 167  145 162 167  145 162 167  145 162 167  29 33 33  124 142 149  124 142 149  124 142 149  124 142 149  124 142 149  124 142 149  124 142 149  124 142 149  124 142 149  124 142 149  124 142 149  124 142 149  124 142 149  124 142 149  124 142 149  124 142 149  124 142 149  124 142 149  124 142 149  124 142 149  124 142 149  124 142 149  124 142 149  124 142 149  124 142 149  124 142 149  124 142 149  124 142 149  124 142 149  124 142 149  126 144 150  142 160 166  150 168 173  148 166 171  136 155 160  127 146 152  124 142 149  122 140 147  120 139 146  120 139 146  121 140 147  122 141 147  124 143 149  128 147 153  135 153 160  144 162 167  150 168 173  151 169 174  151 169 174  150 168 173  147 165 170  143 161 167  136 154 160  129 147 154  125 143 150  124 142 149  124 142 149  124 142 149  124 142 149  124 142 149  124 142 149  124 142 149  124 142 149  124 142 149  124 142 149  124 142 149  124 142 149  124 142 149  125 143 150  128 146 153  135 153 159
115 134 141  115 134 141  115 134 141  115 134 141  115 134 141  115 134 141  115 134 141  115 134 141  115 134 141  115 134 141  115 134 141  115 134 141  115 134 141  115 134 141  115 134 141  115 134 141  115 134 141  115 134 141  115 134 141  115 134 141  115 134 141  115 134 141  135 154 159  146 164 169  127 145 152  124 142 149  124 142 149  124 142 149  124 142 149  124 142 149  124 142 149  124 142 149  124 142 149  124 142 149  124 142 149  124 142 149  124 142 149  124 142 149  124 142 149  124 142 149  124 142 149  124 142 149  124 142 149  124 142 149  124 142 149  124 142 149  124 142 149  124 142 149  124 142 149  124 142 149  124 142 149  124 142 149  43 50 51  145 162 167  145 162 167  145 162 167  143 160 165  125 142 147  125 142 147  125 142 147  125 142 147  125 142 147  125 142 147  125 142 147  84 95 99  91 105 110  124 142 149  124 142 149  124 142 149  124 142 149  124 142 149  124 142 149  124 142 149  124 142 149  124 142 149  124 142 149  124 142 149  124 142 149  124 142 149  124 142 149  124 142 149  124 142 149  121 139 146  106 127 134  106 127 134  106 127 134  106 127 134  106 127 134  106 127 134  106 127 134  106 127 134  106 127 134  106 127 134  106 127 134  106 127 134  106 127 134  106 127 134  106 127 134  104 124 131  51 61 63  46 55 57  53 63 66  110 129 135  115 134 141  115 134 141  115 134 141  115 134 141  115 134 141  115 134 141  115 134 141  115 134 141  115 134 141  115 134 141  115 134 141  115 134 141  115 134 141  115 134 141  115 134 141  115 134 141  115 134 141  115 134 141  115 134 141  115 134 141  115 134 141  115 134 141  115 134 141  115 134 141  115 134 141  115 134 141  115 134 141  115 134 141  115 134 141  115 134 141  115 134 141  115 134 141  115 134 141  62 73 77  46 55 57  48 57 59  103 123 130  106 127 134  106 127 134  106 127 134  106 127 134  106 127 134  106 127 134  106 127 134  106 127 134  106 127 134  106 127 134  106 127 134  106 127 134  106 127 134  106 127 134  106 127 134  119 138 145  124 142 149  124 142 149  124 142 149  124 142 149  124 142 149  124 142 149  124 142 149  124 142 149  124 142 149  124 142 149  124 142 149  124 142 149  124 142 149  124 142 149  124 142 149  124 142 149  108 124 130  54 63 65  125 142 147  125 142 147  125 142 147  125 142 147  125 142 147  125 142 147  125 142 147  141 158 163  145 162 167  145 162 167  145 162 167  27 31 31  124 142 149  124 142 149  124 142 149  124 142 149  124 142 149  124 142 149  124 142 149  124 142 149  124 142 149  124 142 149  124 142 149  124 142 149  124 142 149  124 142 149  124 142 149  124 142 149  124 142 149  124 142 149  124 142 149  124 142 149  124 142 149  124 142 149  124 142 149  124 142 149  124 142 149  124 142 149  124 142 149  126 144 151  143 161 166  138 157 162  116 135 142  115 134 141  115 134 141  115 134 141  115 134 141  115 134 141  115 134 141  115 134 141  115 134 141  115 134 141  115 134 141  115 134 141  115 134 141  115 134 141  115 134 141  115 134 141  115 134 141  115 134 141  115 134 141  115 134 141  115 134 141  115 134 141  115 134 141  115 134 141  119 138 145  124 142 149  129 147 154  133 151 157  135 154 160  137 155 161  137 156 161  137 155 161  136 154 160  133 151 158  129 148 154  124 143 149  120 138 145  115 134 141  115 134 141  115 134 141
115 134 141  115 134 141  115 134 141  115 134 141  115 134 141  115 134 141  115 134 141  115 134 141  115 134 141  115 134 141  115 134 141  115 134 141  115 134 141  115 134 141  115 134 141  115 134 141  115 134 141  115 134 141  115 134 141  115 134 141  115 134 141  115 134 141  115 134 141  115 134 141  126 145 152  130 148 154  124 142 149  124 142 149  124 142 149  124 142 149  124 142 149  124 142 149  124 142 149  124 142 149  124 142 149  124 142 149  124 142 149  124 142 149  124 142 149  124 142 149  124 142 149  124 142 149  124 142 149  124 142 149  124 142 149  124 142 149  124 142 149  124 142 149  124 142 149  124 142 149  124 142 149  106 122 128  136 152 156  145 162 167  145 162 167  140 157 162  125 142 147  125 142 147  125 142 147  125 142 147  125 142 147  125 142 147  125 142 147  125 142 147  118 136 142  79 101 108  107 122 128  124 142 149  124 142 149  124 142 149  124 142 149  124 142 149  124 142 149  124 142 149  124 142 149  124 142 149  124 142 149  124 142 149  124 142 149  124 142 149  121 140 147  109 129 137  106 127 134  106 127 134  106 127 134  106 127 134  106 127 134  106 127 134  106 127 134  106 127 134  106 127 134  106 127 134  106 127 134  106 127 134  106 127 134  106 127 134  106 127 134  106 127 134  109 129 137  116 134 141  49 58 60  46 55 57  49 58 60  100 117 123  115 134 141  115 134 141  115 134 141  115 134 141  115 134 141  115 134 141  115 134 141  115 134 141  115 134 141  115 134 141  115 134 141  115 134 141  115 134 141  115 134 141  115 134 141  115 134 141  115 134 141  115 134 141  115 134 141  115 134 141  115 134 141  115 134 141  115 134 141  115 134 141  115 134 141  115 134 141  115 134 141  115 134 141  115 134 141  115 134 141  111 129 136  51 61 63  46 55 57  46 55 57  107 123 129  112 131 138  106 127 134  106 127 134  106 127 134  106 127 134  106 127 134  106 127 134  106 127 134  106 127 134  106 127 134  106 127 134  106 127 134  106 127 134  106 127 134  106 127 134  106 127 134  106 127 134  108 129 136  119 138 145  124 142 149  124 142 149  124 142 149  124 142 149  124 142 149  124 142 149  124 142 149  124 142 149  124 142 149  124 142 149  124 142 149  124 142 149  124 142 149  118 135 141  65 82 88  102 122 129  125 142 147  125 142 147  125 142 147  125 142 147  125 142 147  125 142 147  125 142 147  125 142 147  135 152 157  145 162 167  145 162 167  144 161 166  77 88 92  124 142 149  124 142 149  124 142 149  124 142 149  124 142 149  124 142 149  124 142 149  124 142 149  124 142 149  124 142 149  124 142 149  124 142 149  124 142 149  124 142 149  124 142 149  124 142 149  124 142 149  124 142 149  124 142 149  124 142 149  124 142 149  124 142 149  124 142 149  124 142 149  124 142 149  125 143 149  129 147 154  116 135 142  115 134 141  115 134 141  115 134 141  115 134 141  115 134 141  115 134 141  115 134 141  115 134 141  115 134 141  115 134 141  115 134 141  115 134 141  115 134 141  115 134 141  115 134 141  115 134 141  115 134 141  115 134 141  115 134 141  115 134 141  115 134 141  115 134 141  115 134 141  115 134 141  115 134 141  115 134 141  115 134 141  115 134 141  115 134 141  115 134 141  115 134 141  115 134 141  115 134 141  115 134 141  115 134 141  115 134 141  115 134 141  115 134 141  115 134 141  115 134 141  115 134 141
115 134 141  115 134 141  115 134 141  115 134 141  115 134 141  115 134 141  115 134 141  115 134 141  115 134 141  115 134 141  115 134 141  115 134 141  115 134 141  115 134 141  115 134 141  115 134 141  115 134 141  115 134 141  115 134 141  115 134 141  115 134 141  115 134 141  115 134 141  115 134 141  115 134 141  115 134 141  114 133 139  124 142 149  124 142 149  124 142 149  124 142 149  124 142 149  124 142 149  124 142 149  124 142 149  124 142 149  124 142 149  124 142 149  124 142 149  124 142 149  124 142 149  124 142 149  124 142 149  124 142 149  124 142 149  124 142 149  124 142 149  124 142 149  124 142 149  124 142 149  124 142 149  45 51 51  145 162 167  145 162 167  142 159 164  125 142 147  125 142 147  125 142 147  125 142 147  125 142 147  125 142 147  125 142 147  125 142 147  125 142 147  114 133 138  84 107 115  32 38 39  124 142 149  124 142 149  124 142 149  124 142 149  124 142 149  124 142 149  124 142 149  124 142 149  124 142 149  124 142 149  124 142 149  122 141 148  108 128 136  106 127 134  106 127 134  106 127 134  106 127 134  106 127 134  106 127 134  106 127 134  106 127 134  106 127 134  106 127 134  106 127 134  106 127 134  106 127 134  106 127 134  106 127 134  106 127 134  106 127 134  107 128 135  118 137 144  124 142 149  123 141 148  55 64 67  46 55 57  46 55 57  62 73 76  109 127 133  115 134 141  115 134 141  115 134 141  115 134 141  115 134 141  115 134 141  115 134 141  115 134 141  115 134 141  115 134 141  115 134 141  115 134 141  115 134 141  115 134 141  115 134 141  115 134 141  115 134 141  115 134 141  115 134 141  115 134 141  115 134 141  115 134 141  115 134 141  115 134 141  115 134 141  115 134 141  115 134 141  68 80 83  46 55 57  46 55 57  53 62 65  123 140 147  124 142 149  121 139 146  107 128 135  106 127 134  106 127 134  106 127 134  106 127 134  106 127 134  106 127 134  106 127 134  106 127 134  106 127 134  106 127 134  106 127 134  106 127 134  106 127 134  106 127 134  106 127 134  106 127 134  106 127 134  106 127 134  122 140 147  124 142 149  124 142 149  124 142 149  124 142 149  124 142 149  124 142 149  124 142 149  124 142 149  124 142 149  124 142 149  124 142 149  27 31 31  84 107 115  97 118 125  125 142 147  125 142 147  125 142 147  125 142 147  125 142 147  125 142 147  125 142 147  125 142 147  125 142 147  136 153 158  145 162 167  145 162 167  93 104 106  124 142 149  124 142 149  124 142 149  124 142 149  124 142 149  124 142 149  124 142 149  124 142 149  124 142 149  124 142 149  124 142 149  124 142 149  124 142 149  124 142 149  124 142 149  124 142 149  124 142 149  124 142 149  124 142 149  124 142 149  124 142 149  124 142 149  124 142 149  124 142 149  115 133 140  116 135 142  115 134 141  115 134 141  115 134 141  115 134 141  115 134 141  115 134 141  115 134 141  115 134 141  115 134 141  115 134 141  115 134 141  115 134 141  115 134 141  115 134 141  115 134 141  115 134 141  115 134 141  115 134 141  115 134 141  115 134 141  115 134 141  115 134 141  115 134 141  115 134 141  115 134 141  115 134 141  115 134 141  115 134 141  115 134 141  115 134 141  115 134 141  115 134 141  115 134 141  115 134 141  115 134 141  115 134 141  115 134 141  115 134 141  115 134 141  115 134 141  115 134 141  115 134 141  115 134 141
106 125 132  104 123 131  102 121 129  101 120 128  100 119 127  99 118 126  98 117 126  99 118 126  100 119 127  102 121 129  105 124 131  108 127 135  113 132 139  115 134 141  115 134 141  115 134 141  115 134 141  115 134 141  115 134 141  115 134 141  115 134 141  115 134 141  115 134 141  115 134 141  115 134 141  115 134 141  115 134 141  106 125 132  124 142 149  124 142 149  124 142 149  124 142 149  124 142 149  124 142 149  124 142 149  124 142 149  124 142 149  124 142 149  124 142 149  124 142 149  124 142 149  124 142 149  124 142 149  124 142 149  124 142 149  124 142 149  124 142 149  124 142 149  124 142 149  124 142 149  106 121 127  144 161 166  145 162 167  144 161 166  125 142 147  125 142 147  125 142 147  125 142 147  125 142 147  125 142 147  125 142 147  125 142 147  125 142 147  125 142 147  105 124 131  84 107 115  84 107 115  84 101 107  124 142 149  124 142 149  124 142 149  124 142 149  124 142 149  124 142 149  124 142 149  124 142 149  124 142 149  117 136 143  106 127 134  106 127 134  106 127 134  106 127 134  106 127 134  106 127 134  106 127 134  106 127 134  106 127 134  106 127 134  106 127 134  106 127 134  106 127 134  106 127 134  106 127 134  106 127 134  106 127 134  106 127 134  106 127 134  111 132 139  123 141 148  124 142 149  124 142 149  124 142 149  112 128 135  47 57 59  46 55 57  46 55 57  53 63 65  96 112 118  115 134 141  115 134 141  115 134 141  115 134 141  115 134 141  115 134 141  115 134 141  115 134 141  115 134 141  115 134 141  115 134 141  115 134 141  115 134 141  115 134 141  115 134 141  115 134 141  115 134 141  115 134 141  115 134 141  115 134 141  115 134 141  115 134 141  100 117 122  60 71 74  46 55 57  46 55 57  47 56 58  106 122 128  124 142 149  124 142 149  124 142 149  123 141 148  113 133 140  106 127 134  106 127 134  106 127 134  106 127 134  106 127 134  106 127 134  106 127 134  106 127 134  106 127 134  106 127 134  106 127 134  106 127 134  106 127 134  106 127 134  106 127 134  106 127 134  106 127 134  106 127 134  106 127 134  115 134 141  124 142 149  124 142 149  124 142 149  124 142 149  124 142 149  124 142 149  124 142 149  124 142 149  124 142 149  105 123 130  72 91 97  84 107 115  88 110 118  125 142 147  125 142 147  125 142 147  125 142 147  125 142 147  125 142 147  125 142 147  125 142 147  125 142 147  125 142 147  140 157 162  145 162 167  145 162 167  75 86 89  124 142 149  124 142 149  124 142 149  124 142 149  124 142 149  124 142 149  124 142 149  124 142 149  124 142 149  124 142 149  124 142 149  124 142 149  124 142 149  124 142 149  124 142 149  124 142 149  124 142 149  124 142 149  124 142 149  124 142 149  124 142 149  124 142 149  111 129 136  113 132 139  115 134 141  115 134 141  115 134 141  115 134 141  115 134 141  115 134 141  115 134 141  115 134 141  115 134 141  115 134 141  115 134 141  115 134 141  115 134 141  114 133 140  109 128 135  105 124 132  102 121 129  100 119 128  99 118 126  98 117 126  99 118 126  99 118 127  101 120 128  102 121 129  104 123 131  105 124 132  108 127 134  109 128 136  111 130 137  112 131 139  114 133 140  115 134 141  115 134 141  115 134 141  115 134 141  115 134 141  115 134 141  115 134 141  114 133 140  113 132 139  111 130 138  110 129 136  108 127 134  106 125 132
80 99 109  80 99 109  80 99 109  80 99 109  80 99 109  80 99 109  80 99 109  80 99 109  80 99 109  80 99 109  80 99 109  80 99 109  80 99 109  82 101 111  90 109 118  103 122 130  115 134 141  115 134 141  115 134 141  115 134 141  115 134 141  115 134 141  115 134 141  115 134 141  115 134 141  115 134 141  115 134 141  102 121 128  122 140 148  124 142 149  124 142 149  124 142 149  124 142 149  124 142 149  124 142 149  124 142 149  124 142 149  124 142 149  124 142 149  124 142 149  124 142 149  124 142 149  124 142 149  124 142 149  124 142 149  124 142 149  124 142 149  124 142 149  124 142 149  124 142 149  40 46 48  145 162 167  145 162 167  125 142 147  125 142 147  125 142 147  125 142 147  125 142 147  125 142 147  125 142 147  125 142 147  125 142 147  125 142 147  125 142 147  90 112 120  84 107 115  84 107 115  31 36 37  119 137 144  124 142 149  124 142 149  124 142 149  124 142 149  124 142 149  124 142 149  124 142 149  111 131 138  106 127 134  96 115 122  51 61 65  33 40 43  37 43 46  71 80 84  90 102 106  85 96 100  23 27 30  104 125 131  106 127 134  106 127 134  106 127 134  106 127 134  106 127 134  106 127 134  106 127 134  106 127 134  106 127 134  106 127 134  117 136 143  124 142 149  124 142 149  124 142 149  124 142 149  124 142 149  124 142 149  112 128 135  47 56 58  46 55 57  46 55 57  46 55 57  52 62 65  88 104 109  107 125 132  115 134 141  115 134 141  115 134 141  115 134 141  115 134 141  115 134 141  115 134 141  115 134 141  115 134 141  115 134 141  115 134 141  115 134 141  115 134 141  115 134 141  110 128 135  92 108 113  58 69 71  46 55 57  46 55 57  46 55 57  47 56 58  109 125 131  124 142 149  124 142 149  124 142 149  124 142 149  124 142 149  124 142 149  119 138 145  106 127 134  106 127 134  106 127 134  106 127 134  106 127 134  106 127 134  106 127 134  106 127 134  106 127 134  106 127 134  106 127 134  31 36 40  79 89 93  92 104 107  75 85 88  42 49 52  31 37 40  47 56 61  89 107 113  106 127 134  110 130 137  124 142 149  124 142 149  124 142 149  124 142 149  124 142 149  124 142 149  124 142 149  124 142 149  53 65 67  84 107 115  84 107 115  84 107 115  125 142 147  125 142 147  125 142 147  125 142 147  125 142 147  125 142 147  125 142 147  125 142 147  125 142 147  125 142 147  125 142 147  145 162 167  145 162 167  29 33 34  124 142 149  124 142 149  124 142 149  124 142 149  124 142 149  124 142 149  124 142 149  124 142 149  124 142 149  124 142 149  124 142 149  124 142 149  124 142 149  124 142 149  124 142 149  124 142 149  124 142 149  124 142 149  124 142 149  124 142 149  124 142 149  123 141 149  98 117 125  115 134 141  115 134 141  115 134 141  115 134 141  115 134 141  115 134 141  115 134 141  115 134 141  115 134 141  115 134 141  115 134 141  105 124 132  91 110 119  83 102 112  80 99 109  80 99 109  80 99 109  80 99 109  80 99 109  80 99 109  80 99 109  80 99 109  80 99 109  80 99 109  80 99 109  80 99 109  80 99 109  80 99 109  80 99 109  80 99 109  80 99 109  80 99 109  80 99 109  80 99 109  80 99 109  80 99 109  80 99 109  80 99 109  80 99 109  80 99 109  80 99 109  80 99 109  80 99 109  80 99 109  80 99 109
80 99 109  80 99 109  80 99 109  80 99 109  80 99 109  80 99 109  80 99 109  80 99 109  80 99 109  80 99 109  80 99 109  80 99 109  80 99 109  80 99 109  80 99 109  80 99 109  86 105 115  108 127 134  115 134 141  115 134 141  115 134 141  115 134 141  115 134 141  115 134 141  115 134 141  115 134 141  115 134 141  111 130 137  111 129 136  124 142 149  124 142 149  124 142 149  124 142 149  124 142 149  124 142 149  124 142 149  124 142 149  124 142 149  124 142 149  124 142 149  124 142 149  124 142 149  124 142 149  124 142 149  124 142 149  124 142 149  124 142 149  124 142 149  124 142 149  124 142 149  26 30 30  145 162 167  133 150 155  125 142 147  125 142 147  125 142 147  125 142 147  125 142 147  125 142 147  125 142 147  125 142 147  125 142 147  125 142 147  125 142 147  84 107 115  84 107 115  84 107 115  36 43 45  85 105 111  124 142 149  124 142 149  124 142 149  124 142 149  124 142 149  122 140 147  108 128 135  106 127 134  62 73 78  29 34 37  126 142 146  150 168 173  149 167 172  138 155 160  130 148 153  128 145 150  127 144 149  111 126 130  32 38 42  106 127 134  106 127 134  106 127 134  106 127 134  106 127 134  106 127 134  106 127 134  106 127 134  108 129 136  121 140 147  124 142 149  124 142 149  124 142 149  124 142 149  124 142 149  124 142 149  124 142 149  124 142 149  124 142 148  109 126 132  49 59 61  46 55 57  46 55 57  46 55 57  46 55 57  46 55 57  49 58 60  61 72 75  70 82 86  76 89 94  80 93 98  80 93 98  77 90 94  71 84 87  62 74 77  51 60 63  46 55 57  46 55 57  46 55 57  46 55 57  46 55 57  49 58 60  99 115 120  123 141 148  124 142 149  124 142 149  124 142 149  124 142 149  124 142 149  124 142 149  124 142 149  124 142 149  122 140 147  110 130 137  106 127 134  106 127 134  106 127 134  106 127 134  106 127 134  106 127 134  106 127 134  106 127 134  45 53 57  96 109 114  126 144 149  128 145 150  130 147 152  137 154 159  148 165 170  150 168 173  131 147 152  36 42 45  48 58 62  106 127 134  107 128 135  119 138 145  124 142 149  124 142 149  124 142 149  124 142 149  124 142 149  85 105 111  27 31 32  84 107 115  84 107 115  84 107 115  124 142 147  125 142 147  125 142 147  125 142 147  125 142 147  125 142 147  125 142 147  125 142 147  125 142 147  125 142 147  125 142 147  129 146 151  145 162 167  59 67 68  124 142 149  124 142 149  124 142 149  124 142 149  124 142 149  124 142 149  124 142 149  124 142 149  124 142 149  124 142 149  124 142 149  124 142 149  124 142 149  124 142 149  124 142 149  124 142 149  124 142 149  124 142 149  124 142 149  124 142 149  124 142 149  116 134 141  106 125 132  115 134 141  115 134 141  115 134 141  115 134 141  115 134 141  115 134 141  115 134 141  115 134 141  115 134 141  112 131 138  88 107 116  81 100 110  80 99 109  80 99 109  80 99 109  80 99 109  80 99 109  80 99 109  80 99 109  80 99 109  80 99 109  80 99 109  80 99 109  80 99 109  80 99 109  80 99 109  80 99 109  80 99 109  80 99 109  80 99 109  80 99 109  80 99 109  80 99 109  80 99 109  80 99 109  80 99 109  80 99 109  80 99 109  80 99 109  80 99 109  80 99 109  80 99 109  80 99 109  80 99 109  80 99 109
80 99 109  80 99 109  80 99 109  80 99 109  80 99 109  80 99 109  80 99 109  80 99 109  80 99 109  80 99 109  80 99 109  80 99 109  80 99 109  80 99 109  80 99 109  80 99 109  80 99 109  85 104 113  110 129 136  115 134 141  115 134 141  115 134 141  115 134 141  115 134 141  115 134 141  115 134 141  115 134 141  114 133 140  95 113 120  124 142 149  124 142 149  124 142 149  124 142 149  124 142 149  124 142 149  124 142 149  124 142 149  124 142 149  124 142 149  124 142 149  124 142 149  124 142 149  124 142 149  124 142 149  124 142 149  124 142 149  124 142 149  124 142 149  124 142 149  124 142 149  63 71 72  145 162 167  125 142 147  125 142 147  125 142 147  125 142 147  125 142 147  125 142 147  125 142 147  125 142 147  125 142 147  125 142 147  125 142 147  107 127 133  84 107 115  84 107 115  84 107 115  71 90 96  80 99 104  94 114 120  124 142 149  124 142 149  124 142 149  113 133 140  106 127 134  106 127 134  78 93 98  24 28 31  140 157 161  150 168 173  130 148 153  125 142 147  125 142 147  125 142 147  125 142 147  125 142 147  125 142 147  110 129 135  57 71 77  40 47 51  106 127 134  106 127 134  106 127 134  106 127 134  106 127 134  106 127 134  110 131 138  122 141 148  124 142 149  124 142 149  124 142 149  124 142 149  124 142 149  124 142 149  124 142 149  124 142 149  124 142 149  124 142 149  124 142 149  124 142 149  124 142 149  114 131 137  82 95 99  63 74 77  52 62 64  46 55 57  46 55 57  46 55 57  46 55 57  46 55 57  46 55 57  46 55 57  46 55 57  51 61 63  61 72 75  77 90 94  109 125 131  124 142 149  124 142 149  124 142 149  124 142 149  124 142 149  124 142 149  124 142 149  124 142 149  124 142 149  124 142 149  124 142 149  124 142 149  124 142 149  123 141 148  113 132 140  106 127 134  106 127 134  106 127 134  106 127 134  106 127 134  106 127 134  57 69 74  42 52 56  99 120 127  125 142 147  125 142 147  125 142 147  125 142 147  125 142 147  125 142 147  128 145 150  149 167 172  144 161 166  35 40 43  59 71 75  106 127 134  106 127 134  111 131 139  124 142 149  124 142 149  124 142 149  110 129 136  85 105 111  59 74 79  84 107 115  84 107 115  84 107 115  96 117 124  125 142 147  125 142 147  125 142 147  125 142 147  125 142 147  125 142 147  125 142 147  125 142 147  125 142 147  125 142 147  125 142 147  143 160 165  118 132 136  124 142 149  124 142 149  124 142 149  124 142 149  124 142 149  124 142 149  124 142 149  124 142 149  124 142 149  124 142 149  124 142 149  124 142 149  124 142 149  124 142 149  124 142 149  124 142 149  124 142 149  124 142 149  124 142 149  124 142 149  124 142 149  106 124 131  109 128 136  115 134 141  115 134 141  115 134 141  115 134 141  115 134 141  115 134 141  115 134 141  115 134 141  112 131 138  87 106 115  80 99 109  80 99 109  80 99 109  80 99 109  80 99 109  80 99 109  80 99 109  80 99 109  80 99 109  80 99 109  80 99 109  80 99 109  80 99 109  80 99 109  80 99 109  80 99 109  80 99 109  80 99 109  80 99 109  80 99 109  80 99 109  80 99 109  80 99 109  80 99 109  80 99 109  80 99 109  80 99 109  80 99 109  80 99 109  80 99 109  80 99 109  80 99 109  80 99 109  80 99 109  80 99 109
80 99 109  80 99 109  80 99 109  80 99 109  80 99 109  80 99 109  80 99 109  80 99 109  80 99 109  80 99 109  80 99 109  80 99 109  80 99 109  80 99 109  80 99 109  80 99 109  80 99 109  81 100 110  96 115 123  115 134 141  115 134 141  115 134 141  115 134 141  115 134 141  115 134 141  115 134 141  115 134 141  113 132 139  91 109 117  124 142 149  124 142 149  124 142 149  124 142 149  124 142 149  124 142 149  124 142 149  124 142 149  124 142 149  124 142 149  124 142 149  124 142 149  124 142 149  124 142 149  124 142 149  124 142 149  124 142 149  124 142 149  124 142 149  124 142 149  121 138 145  125 139 144  127 144 149  125 142 147  125 142 147  125 142 147  125 142 147  125 142 147  125 142 147  125 142 147  125 142 147  125 142 147  125 142 147  119 137 143  84 107 115  84 107 115  84 107 115  84 107 115  82 105 113  51 63 65  85 105 111  120 138 145  120 139 146  108 129 136  106 127 134  106 127 134  106 127 134  79 95 101  77 87 91  150 168 173  145 163 168  125 142 147  125 142 147  125 142 147  125 142 147  125 142 147  125 142 147  125 142 147  125 142 147  87 110 117  83 106 114  39 49 54  63 76 81  106 127 134  106 127 134  106 127 134  106 127 134  113 133 140  123 141 148  124 142 149  124 142 149  124 142 149  124 142 149  124 142 149  124 142 149  124 142 149  124 142 149  124 142 149  124 142 149  124 142 149  124 142 149  124 142 149  124 142 149  124 142 149  124 142 149  124 142 149  124 142 149  124 142 149  124 142 149  124 142 149  124 142 149  124 142 149  124 142 149  124 142 149  124 142 149  124 142 149  124 142 149  124 142 149  124 142 149  124 142 149  124 142 149  124 142 149  124 142 149  124 142 149  124 142 149  124 142 149  124 142 149  124 142 149  124 142 149  124 142 149  124 142 149  123 141 148  115 135 142  106 127 134  106 127 134  106 127 134  106 127 134  76 90 96  28 34 38  83 106 114  85 108 116  123 140 145  125 142 147  125 142 147  125 142 147  125 142 147  125 142 147  125 142 147  125 142 147  141 159 164  150 168 173  102 115 119  60 71 77  106 127 134  106 127 134  106 127 134  107 128 135  118 137 144  124 142 149  85 105 111  76 94 99  80 102 109  84 107 115  84 107 115  84 107 115  84 107 115  110 129 135  125 142 147  125 142 147  125 142 147  125 142 147  125 142 147  125 142 147  125 142 147  125 142 147  125 142 147  125 142 147  126 143 148  142 159 164  117 134 141  124 142 149  124 142 149  124 142 149  124 142 149  124 142 149  124 142 149  124 142 149  124 142 149  124 142 149  124 142 149  124 142 149  124 142 149  124 142 149  124 142 149  124 142 149  124 142 149  124 142 149  124 142 149  124 142 149  124 142 149  106 124 131  108 127 134  115 134 141  115 134 141  115 134 141  115 134 141  115 134 141  115 134 141  115 134 141  115 134 141  100 119 127  81 100 110  80 99 109  80 99 109  80 99 109  80 99 109  80 99 109  80 99 109  80 99 109  80 99 109  80 99 109  80 99 109  80 99 109  80 99 109  80 99 109  80 99 109  80 99 109  80 99 109  80 99 109  80 99 109  80 99 109  80 99 109  80 99 109  80 99 109  80 99 109  80 99 109  80 99 109  80 99 109  80 99 109  80 99 109  80 99 109  80 99 109  80 99 109  80 99 109  80 99 109  80 99 109  80 99 109
80 99 109  80 99 109  80 99 109  80 99 109  80 99 109  80 99 109  80 99 109  80 99 109  80 99 109  80 99 109  80 99 109  80 99 109  80 99 109  80 99 109  80 99 109  80 99 109  80 99 109  80 99 109  93 112 121  115 134 141  115 134 141  115 134 141  115 134 141  115 134 141  115 134 141  115 134 141  115 134 141  105 124 131  99 118 125  124 142 149  124 142 149  124 142 149  124 142 149  124 142 149  124 142 149  124 142 149  124 142 149  124 142 149  124 142 149  124 142 149  124 142 149  124 142 149  124 142 149  124 142 149  124 142 149  124 142 149  124 142 149  124 142 149  124 142 149  112 129 135  89 101 103  125 142 147  125 142 147  125 142 147  125 142 147  125 142 147  125 142 147  125 142 147  125 142 147  125 142 147  125 142 147  98 119 126  84 107 115  84 107 115  84 107 115  84 107 115  84 107 115  84 107 115  27 31 31  85 105 111  85 105 112  106 127 134  106 127 134  106 127 134  106 127 134  106 127 134  106 127 134  40 48 52  150 168 173  141 159 164  125 142 147  125 142 147  125 142 147  125 142 147  125 142 147  125 142 147  125 142 147  125 142 147  110 129 135  83 106 114  83 106 114  83 106 114  36 44 49  64 77 82  106 127 134  106 127 134  116 135 143  123 141 148  124 142 149  124 142 149  124 142 149  124 142 149  124 142 149  124 142 149  124 142 149  124 142 149  124 142 149  124 142 149  124 142 149  124 142 149  124 142 149  124 142 149  124 142 149  124 142 149  124 142 149  124 142 149  124 142 149  124 142 149  124 142 149  124 142 149  124 142 149  124 142 149  124 142 149  124 142 149  124 142 149  124 142 149  124 142 149  124 142 149  124 142 149  124 142 149  124 142 149  124 142 149  124 142 149  124 142 149  124 142 149  124 142 149  124 142 149  124 142 149  124 142 149  124 142 149  123 142 149  118 137 144  108 128 135  106 127 134  82 98 104  29 35 39  83 106 114  83 106 114  83 106 114  103 123 129  125 142 147  125 142 147  125 142 147  125 142 147  125 142 147  125 142 147  125 142 147  125 142 147  137 154 159  150 168 173  28 33 36  106 127 134  106 127 134  106 127 134  106 127 134  106 127 134  106 127 134  88 108 114  85 105 111  48 58 60  81 103 111  84 107 115  84 107 115  84 107 115  84 107 115  84 107 115  95 116 123  123 140 145  125 142 147  125 142 147  125 142 147  125 142 147  125 142 147  125 142 147  125 142 147  125 142 147  125 142 147  127 143 146  83 95 99  124 142 149  124 142 149  124 142 149  124 142 149  124 142 149  124 142 149  124 142 149  124 142 149  124 142 149  124 142 149  124 142 149  124 142 149  124 142 149  124 142 149  124 142 149  124 142 149  124 142 149  124 142 149  124 142 149  124 142 149  110 128 136  99 118 125  115 134 141  115 134 141  115 134 141  115 134 141  115 134 141  115 134 141  115 134 141  115 134 141  98 117 125  80 99 109  80 99 109  80 99 109  80 99 109  80 99 109  80 99 109  80 99 109  80 99 109  80 99 109  80 99 109  80 99 109  80 99 109  80 99 109  80 99 109  80 99 109  80 99 109  80 99 109  80 99 109  80 99 109  80 99 109  80 99 109  80 99 109  80 99 109  80 99 109  80 99 109  80 99 109  80 99 109  80 99 109  80 99 109  80 99 109  80 99 109  80 99 109  80 99 109  80 99 109  80 99 109  80 99 109
80 99 109  80 99 109  80 99 109  80 99 109  80 99 109  80 99 109  80 99 109  80 99 109  80 99 109  80 99 109  80 99 109  80 99 109  80 99 109  80 99 109  80 99 109  80 99 109  80 99 109  80 99 109  101 120 129  115 134 141  115 134 141  115 134 141  115 134 141  115 134 141  115 134 141  115 134 141  115 134 141  82 101 108  120 139 146  124 142 149  124 142 149  124 142 149  124 142 149  124 142 149  124 142 149  124 142 149  124 142 149  124 142 149  124 142 149  124 142 149  124 142 149  124 142 149  124 142 149  124 142 149  124 142 149  124 142 149  124 142 149  124 142 149  124 142 149  124 142 149  32 36 37  125 142 147  125 142 147  125 142 147  125 142 147  125 142 147  125 142 147  125 142 147  115 133 139  95 116 124  84 107 115  84 107 115  84 107 115  84 107 115  84 107 115  84 107 115  84 107 115  83 105 113  31 36 37  85 105 111  85 105 111  92 112 119  106 127 134  106 127 134  106 127 134  106 127 134  106 127 134  106 127 134  32 38 42  147 165 170  125 142 147  125 142 147  125 142 147  125 142 147  125 142 147  125 142 147  125 142 147  125 142 147  117 135 141  85 108 116  83 106 114  83 106 114  83 106 114  83 106 114  28 34 37  62 75 79  119 137 144  124 142 149  124 142 149  124 142 149  124 142 149  124 142 149  124 142 149  124 142 149  124 142 149  124 142 149  124 142 149  124 142 149  124 142 149  124 142 149  124 142 149  124 142 149  124 142 149  124 142 149  124 142 149  124 142 149  124 142 149  124 142 149  124 142 149  124 142 149  124 142 149  124 142 149  124 142 149  124 142 149  124 142 149  124 142 149  124 142 149  124 142 149  124 142 149  124 142 149  124 142 149  124 142 149  124 142 149  124 142 149  124 142 149  124 142 149  124 142 149  124 142 149  124 142 149  124 142 149  124 142 149  121 139 146  75 90 95  25 30 33  83 105 113  83 106 114  83 106 114  83 106 114  83 106 114  113 132 138  125 142 147  125 142 147  125 142 147  125 142 147  125 142 147  125 142 147  125 142 147  125 142 147  144 162 167  23 27 30  106 127 134  106 127 134  106 127 134  106 127 134  106 127 134  106 127 134  100 121 128  85 105 111  85 105 111  35 42 43  82 104 112  84 107 115  84 107 115  84 107 115  84 107 115  84 107 115  84 107 115  84 107 115  91 113 121  113 132 138  124 141 146  125 142 147  125 142 147  125 142 147  125 142 147  125 142 147  125 142 147  59 68 70  110 126 131  124 142 149  124 142 149  124 142 149  124 142 149  124 142 149  124 142 149  124 142 149  124 142 149  124 142 149  124 142 149  124 142 149  124 142 149  124 142 149  124 142 149  124 142 149  124 142 149  124 142 149  124 142 149  124 142 149  124 142 149  122 140 147  70 89 97  115 134 141  115 134 141  115 134 141  115 134 141  115 134 141  115 134 141  115 134 141  115 134 141  105 124 132  81 100 110  80 99 109  80 99 109  80 99 109  80 99 109  80 99 109  80 99 109  80 99 109  80 99 109  80 99 109  80 99 109  80 99 109  80 99 109  80 99 109  80 99 109  80 99 109  80 99 109  80 99 109  80 99 109  80 99 109  80 99 109  80 99 109  80 99 109  80 99 109  80 99 109  80 99 109  80 99 109  80 99 109  80 99 109  80 99 109  80 99 109  80 99 109  80 99 109  80 99 109  80 99 109  80 99 109
80 99 109  80 99 109  80 99 109  80 99 109  80 99 109  80 99 109  80 99 109  80 99 109  80 99 109  80 99 109  80 99 109  80 99 109  80 99 109  80 99 109  80 99 109  80 99 109  80 99 109  83 102 112  113 132 139  115 134 141  115 134 141  115 134 141  115 134 141  115 134 141  115 134 141  115 134 141  110 129 136  80 99 106  124 142 149  124 142 149  124 142 149  124 142 149  124 142 149  124 142 149  124 142 149  124 142 149  124 142 149  124 142 149  124 142 149  124 142 149  124 142 149  124 142 149  124 142 149  124 142 149  124 142 149  124 142 149  124 142 149  124 142 149  124 142 149  124 142 149  30 35 35  82 104 112  97 118 125  104 124 130  101 122 129  90 113 120  84 107 115  84 107 115  84 107 115  84 107 115  84 107 115  84 107 115  84 107 115  84 107 115  84 107 115  84 107 115  84 107 115  78 99 106  28 33 34  85 105 111  85 105 111  85 105 111  106 127 134  106 127 134  106 127 134  106 127 134  106 127 134  106 127 134  106 127 134  36 43 47  133 150 155  125 142 147  125 142 147  125 142 147  125 142 147  125 142 147  125 142 147  125 142 147  117 135 141  84 107 115  83 106 114  83 106 114  83 106 114  83 106 114  83 106 114  71 90 98  24 28 32  58 71 75  96 115 121  124 142 149  124 142 149  124 142 149  124 142 149  124 142 149  124 142 149  124 142 149  124 142 149  124 142 149  124 142 149  124 142 149  124 142 149  124 142 149  124 142 149  124 142 149  124 142 149  124 142 149  124 142 149  124 142 149  124 142 149  124 142 149  124 142 149  124 142 149  124 142 149  124 142 149  124 142 149  124 142 149  124 142 149  124 142 149  124 142 149  124 142 149  124 142 149  124 142 149  124 142 149  124 142 149  124 142 149  124 142 149  124 142 149  124 142 149  124 142 149  101 120 126  69 85 90  24 28 31  61 77 84  83 106 114  83 106 114  83 106 114  83 106 114  83 106 114  83 106 114  111 130 136  125 142 147  125 142 147  125 142 147  125 142 147  125 142 147  125 142 147  125 142 147  130 147 152  22 26 29  106 127 134  106 127 134  106 127 134  106 127 134  106 127 134  106 127 134  106 127 134  85 105 111  85 105 111  85 105 111  47 57 59  64 81 86  84 107 115  84 107 115  84 107 115  84 107 115  84 107 115  84 107 115  84 107 115  84 107 115  84 107 115  84 107 115  84 107 115  88 111 118  100 121 128  105 125 131  98 120 127  84 107 115  26 30 30  124 142 149  124 142 149  124 142 149  124 142 149  124 142 149  124 142 149  124 142 149  124 142 149  124 142 149  124 142 149  124 142 149  124 142 149  124 142 149  124 142 149  124 142 149  124 142 149  124 142 149  124 142 149  124 142 149  124 142 149  124 142 149  124 142 149  90 109 116  103 122 129  115 134 141  115 134 141  115 134 141  115 134 141  115 134 141  115 134 141  115 134 141  114 133 140  85 104 114  80 99 109  80 99 109  80 99 109  80 99 109  80 99 109  80 99 109  80 99 109  80 99 109  80 99 109  80 99 109  80 99 109  80 99 109  80 99 109  80 99 109  80 99 109  80 99 109  80 99 109  80 99 109  80 99 109  80 99 109  80 99 109  80 99 109  80 99 109  80 99 109  80 99 109  80 99 109  80 99 109  80 99 109  80 99 109  80 99 109  80 99 109  80 99 109  80 99 109  80 99 109  80 99 109
80 99 109  80 99 109  80 99 109  80 99 109  80 99 109  80 99 109  80 99 109  80 99 109  80 99 109  80 99 109  80 99 109  80 99 109  80 99 109  80 99 109  80 99 109  80 99 109  82 101 111  109 128 135  115 134 141  115 134 141  115 134 141  115 134 141  115 134 141  115 134 141  115 134 141  114 133 140  73 92 99  117 135 142  124 142 149  124 142 149  124 142 149  124 142 149  124 142 149  124 142 149  124 142 149  124 142 149  124 142 149  124 142 149  124 142 149  124 142 149  124 142 149  124 142 149  124 142 149  124 142 149  124 142 149  124 142 149  124 142 149  124 142 149  124 142 149  124 142 149  93 106 111  36 44 45  84 107 115  84 107 115  84 107 115  84 107 115  84 107 115  84 107 115  84 107 115  84 107 115  84 107 115  84 107 115  84 107 115  84 107 115  84 107 115  84 107 115  84 107 115  48 60 63  52 63 65  85 105 111  85 105 111  85 105 111  86 106 112  106 127 134  106 127 134  106 127 134  106 127 134  106 127 134  106 127 134  106 127 134  61 73 77  79 90 94  125 142 147  125 142 147  125 142 147  125 142 147  125 142 147  114 132 138  96 117 124  84 107 115  83 106 114  83 106 114  83 106 114  83 106 114  83 106 114  83 106 114  83 106 114  63 80 86  24 29 32  48 59 63  84 104 110  86 106 112  119 138 145  124 142 149  124 142 149  124 142 149  124 142 149  124 142 149  124 142 149  124 142 149  124 142 149  124 142 149  124 142 149  124 142 149  124 142 149  124 142 149  124 142 149  124 142 149  124 142 149  124 142 149  124 142 149  124 142 149  124 142 149  124 142 149  124 142 149  124 142 149  124 142 149  124 142 149  124 142 149  124 142 149  124 142 149  124 142 149  124 142 149  124 142 149  124 142 149  123 141 148  86 106 112  85 104 110  56 69 74  22 26 29  53 67 73  83 106 114  83 106 114  83 106 114  83 106 114  83 106 114  83 106 114  83 106 114  83 106 114  94 115 122  112 130 136  125 142 147  125 142 147  125 142 147  125 142 147  125 142 147  106 120 125  41 49 53  106 127 134  106 127 134  106 127 134  106 127 134  106 127 134  106 127 134  106 127 134  87 108 114  85 105 111  85 105 111  85 105 111  65 80 84  38 47 49  84 107 115  84 107 115  84 107 115  84 107 115  84 107 115  84 107 115  84 107 115  84 107 115  84 107 115  84 107 115  84 107 115  84 107 115  84 107 115  84 107 115  84 107 115  48 60 63  68 78 81  124 142 149  124 142 149  124 142 149  124 142 149  124 142 149  124 142 149  124 142 149  124 142 149  124 142 149  124 142 149  124 142 149  124 142 149  124 142 149  124 142 149  124 142 149  124 142 149  124 142 149  124 142 149  124 142 149  124 142 149  124 142 149  124 142 149  122 140 147  70 89 97  113 132 139  115 134 141  115 134 141  115 134 141  115 134 141  115 134 141  115 134 141  115 134 141  112 131 139  85 104 114  80 99 109  80 99 109  80 99 109  80 99 109  80 99 109  80 99 109  80 99 109  80 99 109  80 99 109  80 99 109  80 99 109  80 99 109  80 99 109  80 99 109  80 99 109  80 99 109  80 99 109  80 99 109  80 99 109  80 99 109  80 99 109  80 99 109  80 99 109  80 99 109  80 99 109  80 99 109  80 99 109  80 99 109  80 99 109  80 99 109  80 99 109  80 99 109  80 99 109  80 99 109
80 99 109  80 99 109  80 99 109  80 99 109  80 99 109  80 99 109  80 99 109  80 99 109  80 99 109  80 99 109  80 99 109  80 99 109  80 99 109  80 99 109  80 99 109  86 105 115  113 132 139  115 134 141  115 134 141  115 134 141  115 134 141  115 134 141  115 134 141  115 134 141  115 134 141  77 96 104  105 123 131  124 142 149  124 142 149  124 142 149  124 142 149  124 142 149  117 137 144  115 135 142  117 136 143  119 138 144  120 138 146  122 140 147  123 141 148  124 142 149  124 142 149  124 142 149  124 142 149  124 142 149  124 142 149  124 142 149  124 142 149  124 142 149  124 142 149  120 139 146  112 132 139  30 35 35  52 65 69  84 107 115  84 107 115  84 107 115  84 107 115  84 107 115  84 107 115  84 107 115  84 107 115  84 107 115  84 107 115  84 107 115  84 107 115  84 107 115  83 105 113  25 29 29  80 99 104  85 105 111  85 105 111  85 105 111  85 105 111  95 116 122  106 127 134  106 127 134  106 127 134  106 127 134  106 127 134  106 127 134  106 127 134  106 127 134  23 27 30  104 120 125  112 132 137  101 121 128  86 109 117  83 106 114  83 106 114  83 106 114  83 106 114  83 106 114  83 106 114  83 106 114  83 106 114  83 106 114  83 106 114  83 106 114  83 106 114  62 79 85  22 26 29  34 41 45  71 87 93  85 105 111  85 105 111  85 105 111  97 116 123  119 138 145  124 142 149  124 142 149  124 142 149  124 142 149  124 142 149  124 142 149  124 142 149  124 142 149  124 142 149  124 142 149  124 142 149  124 142 149  124 142 149  124 142 149  124 142 149  124 142 149  124 142 149  124 142 149  124 142 149  124 142 149  124 142 149  124 142 149  120 138 145  101 120 127  85 105 111  85 105 111  85 105 111  75 92 98  40 49 53  22 26 29  57 73 78  83 106 114  83 106 114  83 106 114  83 106 114  83 106 114  83 106 114  83 106 114  83 106 114  83 106 114  83 106 114  83 106 114  83 106 114  85 108 116  99 120 127  111 130 136  109 125 131  23 28 31  100 120 127  106 127 134  106 127 134  106 127 134  106 127 134  106 127 134  106 127 134  106 127 134  99 120 126  85 105 111  85 105 111  85 105 111  85 105 111  82 102 108  25 29 29  81 102 110  84 107 115  84 107 115  84 107 115  84 107 115  84 107 115  84 107 115  84 107 115  84 107 115  84 107 115  84 107 115  84 107 115  84 107 115  84 107 115  65 82 88  27 31 31  110 130 137  119 138 145  124 142 149  124 142 149  124 142 149  124 142 149  124 142 149  124 142 149  124 142 149  124 142 149  124 142 149  124 142 149  124 142 149  122 140 147  120 139 146  119 138 144  118 137 144  116 135 142  116 136 143  124 142 149  124 142 149  124 142 149  124 142 149  124 142 149  117 135 142  70 89 97  115 134 141  115 134 141  115 134 141  115 134 141  115 134 141  115 134 141  115 134 141  115 134 141  115 134 141  90 109 119  80 99 109  80 99 109  80 99 109  80 99 109  80 99 109  80 99 109  80 99 109  80 99 109  80 99 109  80 99 109  80 99 109  80 99 109  80 99 109  80 99 109  80 99 109  80 99 109  80 99 109  80 99 109  80 99 109  80 99 109  80 99 109  80 99 109  80 99 109  80 99 109  80 99 109  80 99 109  80 99 109  80 99 109  80 99 109  80 99 109  80 99 109  80 99 109  80 99 109
80 99 109  80 99 109  80 99 109  80 99 109  80 99 109  80 99 109  80 99 109  80 99 109  80 99 109  80 99 109  80 99 109  80 99 109  80 99 109  82 101 110  104 123 131  115 134 141  115 134 141  115 134 141  115 134 141  115 134 141  115 134 141  115 134 141  115 134 141  115 134 141  70 89 97  103 122 129  115 135 142  110 131 137  106 127 134  106 127 134  106 127 134  106 127 134  106 127 134  106 127 134  106 127 134  106 127 134  106 127 134  106 127 134  106 127 134  106 127 134  106 127 134  106 127 134  106 127 134  106 127 134  106 127 134  106 127 134  106 127 134  106 127 134  106 127 134  106 127 134  106 127 134  101 120 126  36 43 44  28 33 33  59 75 79  77 98 105  84 107 115  84 107 115  84 107 115  84 107 115  84 107 115  84 107 115  84 107 115  84 107 115  84 107 115  80 102 110  41 50 52  37 44 45  85 105 110  85 105 111  85 105 111  85 105 111  85 105 111  85 105 111  106 127 134  106 127 134  106 127 134  106 127 134  106 127 134  106 127 134  106 127 134  106 127 134  106 127 134  106 127 134  41 49 53  26 31 34  71 91 98  83 106 114  83 106 114  83 106 114  83 106 114  83 106 114  83 106 114  83 106 114  83 106 114  83 106 114  83 106 114  83 106 114  83 106 114  83 106 114  79 100 108  58 74 80  27 32 36  23 27 30  41 49 53  74 91 96  83 103 109  85 105 111  85 105 111  85 105 111  85 105 111  85 105 111  85 105 111  85 105 111  89 109 115  98 117 124  104 123 130  109 128 134  111 130 136  111 130 137  109 128 135  105 124 131  99 118 125  91 110 116  85 105 111  85 105 111  85 105 111  85 105 111  85 105 111  85 105 111  85 105 111  84 104 110  79 97 102  44 54 58  25 30 33  26 30 34  55 69 75  77 99 107  83 106 114  83 106 114  83 106 114  83 106 114  83 106 114  83 106 114  83 106 114  83 106 114  83 106 114  83 106 114  83 106 114  83 106 114  83 106 114  75 96 103  33 40 44  36 43 46  100 120 127  106 127 134  106 127 134  106 127 134  106 127 134  106 127 134  106 127 134  106 127 134  106 127 134  106 127 134  85 105 111  85 105 111  85 105 111  85 105 111  85 105 111  85 105 111  44 53 55  33 41 42  78 99 106  84 107 115  84 107 115  84 107 115  84 107 115  84 107 115  84 107 115  84 107 115  84 107 115  84 107 115  79 101 108  63 79 84  32 39 40  31 36 37  91 109 115  106 127 134  106 127 134  106 127 134  106 127 134  106 127 134  106 127 134  106 127 134  106 127 134  106 127 134  106 127 134  106 127 134  106 127 134  106 127 134  106 127 134  106 127 134  106 127 134  106 127 134  106 127 134  106 127 134  106 127 134  106 127 134  106 127 134  106 127 134  110 130 136  114 134 141  115 134 141  64 83 91  112 131 138  115 134 141  115 134 141  115 134 141  115 134 141  115 134 141  115 134 141  115 134 141  115 134 141  107 126 134  82 101 111  80 99 109  80 99 109  80 99 109  80 99 109  80 99 109  80 99 109  80 99 109  80 99 109  80 99 109  80 99 109  80 99 109  80 99 109  80 99 109  80 99 109  80 99 109  80 99 109  80 99 109  80 99 109  80 99 109  80 99 109  80 99 109  80 99 109  80 99 109  80 99 109  80 99 109  80 99 109  80 99 109  80 99 109  80 99 109  80 99 109  80 99 109
80 99 109  80 99 109  80 99 109  80 99 109  80 99 109  80 99 109  80 99 109  80 99 109  80 99 109  80 99 109  80 99 109  84 103 113  104 123 131  115 134 141  115 134 141  115 134 141  115 134 141  115 134 141  115 134 141  115 134 141  115 134 141  115 134 141  102 121 128  65 84 92  102 123 130  106 127 134  106 127 134  106 127 134  106 127 134  106 127 134  106 127 134  106 127 134  106 127 134  106 127 134  106 127 134  106 127 134  106 127 134  106 127 134  106 127 134  106 127 134  106 127 134  106 127 134  106 127 134  106 127 134  106 127 134  106 127 134  106 127 134  106 127 134  106 127 134  106 127 134  106 127 134  106 127 134  106 127 134  70 86 90  39 47 48  25 29 29  31 37 38  42 52 54  54 67 71  66 83 89  75 95 101  81 103 111  84 107 115  80 102 110  63 78 84  36 44 46  27 31 31  72 89 93  85 105 111  85 105 111  85 105 111  85 105 111  85 105 111  85 105 111  88 109 115  106 127 134  106 127 134  106 127 134  106 127 134  106 127 134  106 127 134  106 127 134  106 127 134  106 127 134  106 127 134  109 129 137  108 127 134  65 77 82  22 26 29  40 49 54  71 90 97  83 106 114  83 106 114  83 106 114  83 106 114  83 106 114  83 106 114  83 106 114  83 106 114  83 106 114  83 106 114  78 99 107  62 78 85  44 55 59  30 37 40  23 27 30  27 32 36  46 56 61  63 78 83  78 96 102  82 101 107  85 105 111  85 105 111  85 105 111  85 105 111  85 105 111  85 105 111  85 105 111  85 105 111  85 105 111  85 105 111  85 105 111  85 105 111  85 105 111  85 105 111  85 105 111  85 105 111  83 102 108  79 97 103  66 80 86  49 60 64  29 34 38  24 28 31  29 35 38  41 52 56  59 75 81  76 97 104  83 106 114  83 106 114  83 106 114  83 106 114  83 106 114  83 106 114  83 106 114  83 106 114  83 106 114  83 106 114  75 95 103  44 54 59  24 28 31  55 66 70  106 125 132  109 130 137  107 127 134  106 127 134  106 127 134  106 127 134  106 127 134  106 127 134  106 127 134  106 127 134  106 127 134  106 127 134  91 112 118  85 105 111  85 105 111  85 105 111  85 105 111  85 105 111  85 105 111  78 96 101  32 38 39  33 39 40  59 73 78  79 100 108  84 107 115  82 104 111  76 96 103  67 85 91  56 70 74  44 54 56  33 39 40  25 29 29  35 42 43  65 79 83  104 124 131  106 127 134  106 127 134  106 127 134  106 127 134  106 127 134  106 127 134  106 127 134  106 127 134  106 127 134  106 127 134  106 127 134  106 127 134  106 127 134  106 127 134  106 127 134  106 127 134  106 127 134  106 127 134  106 127 134  106 127 134  106 127 134  106 127 134  106 127 134  106 127 134  106 127 134  106 127 134  106 127 134  103 124 131  66 85 93  97 116 123  115 134 141  115 134 141  115 134 141  115 134 141  115 134 141  115 134 141  115 134 141  115 134 141  115 134 141  108 127 135  86 105 115  80 99 109  80 99 109  80 99 109  80 99 109  80 99 109  80 99 109  80 99 109  80 99 109  80 99 109  80 99 109  80 99 109  80 99 109  80 99 109  80 99 109  80 99 109  80 99 109  80 99 109  80 99 109  80 99 109  80 99 109  80 99 109  80 99 109  80 99 109  80 99 109  80 99 109  80 99 109  80 99 109  80 99 109  80 99 109
80 99 109  80 99 109  80 99 109  80 99 109  80 99 109  80 99 109  80 99 109  80 99 109  83 102 112  101 120 128  114 133 140  115 134 141  115 134 141  115 134 141  115 134 141  115 134 141  115 134 141  115 134 141  115 134 141  115 134 141  115 134 141  71 90 98  77 96 104  106 127 134  106 127 134  106 127 134  106 127 134  106 127 134  106 127 134  106 127 134  106 127 134  106 127 134  106 127 134  106 127 134  106 127 134  106 127 134  106 127 134  106 127 134  106 127 134  106 127 134  106 127 134  106 127 134  106 127 134  106 127 134  106 127 134  106 127 134  106 127 134  106 127 134  106 127 134  106 127 134  106 127 134  106 127 134  106 127 134  105 126 133  89 109 115  81 100 105  72 89 94  58 71 74  40 48 49  26 30 30  25 29 29  25 29 29  25 29 29  25 29 29  25 29 29  38 45 47  72 89 94  85 105 111  85 105 111  85 105 111  85 105 111  85 105 111  85 105 111  85 105 111  85 105 111  102 123 130  106 127 134  106 127 134  106 127 134  106 127 134  109 130 137  114 133 140  117 137 144  120 139 146  121 140 147  123 141 148  124 142 149  124 142 149  124 142 149  124 142 149  111 129 136  68 84 89  33 39 43  24 28 31  35 43 47  53 67 72  72 92 99  82 104 112  83 106 114  83 106 114  82 104 112  74 93 101  59 75 81  45 56 61  35 43 48  29 35 38  24 28 32  22 26 29  28 34 37  37 44 48  50 62 66  61 76 80  68 84 89  74 91 96  77 95 101  79 98 103  81 100 106  82 101 107  82 102 108  82 102 108  82 101 107  81 100 106  79 98 104  77 95 101  74 92 97  69 85 90  62 77 81  52 64 68  39 47 51  29 35 39  22 26 29  24 28 31  28 34 37  34 42 46  43 54 59  57 73 79  72 92 99  82 104 112  83 106 114  83 106 114  82 105 113  74 94 102  56 71 77  36 46 49  25 30 33  29 34 38  63 77 82  107 125 131  123 141 148  124 142 149  124 142 149  124 142 149  123 141 148  121 140 147  120 139 146  118 137 144  114 134 141  110 130 137  106 127 134  106 127 134  106 127 134  106 127 134  105 126 133  85 105 111  85 105 111  85 105 111  85 105 111  85 105 111  85 105 111  85 105 111  85 105 111  75 93 98  43 52 54  25 29 29  25 29 29  25 29 29  25 29 29  25 29 29  25 30 30  38 45 46  55 67 70  71 87 92  80 98 104  87 107 113  105 126 133  106 127 134  106 127 134  106 127 134  106 127 134  106 127 134  106 127 134  106 127 134  106 127 134  106 127 134  106 127 134  106 127 134  106 127 134  106 127 134  106 127 134  106 127 134  106 127 134  106 127 134  106 127 134  106 127 134  106 127 134  106 127 134  106 127 134  106 127 134  106 127 134  106 127 134  106 127 134  106 127 134  106 127 134  106 127 134  106 127 134  85 105 112  66 85 93  108 127 134  115 134 141  115 134 141  115 134 141  115 134 141  115 134 141  115 134 141  115 134 141  115 134 141  115 134 141  114 133 140  105 124 132  84 103 113  80 99 109  80 99 109  80 99 109  80 99 109  80 99 109  80 99 109  80 99 109  80 99 109  80 99 109  80 99 109  80 99 109  80 99 109  80 99 109  80 99 109  80 99 109  80 99 109  80 99 109  80 99 109  80 99 109  80 99 109  80 99 109  80 99 109  80 99 109  80 99 109  80 99 109  80 99 109
80 99 109  80 99 109  80 99 109  81 100 110  84 103 112  104 123 130  113 132 139  115 134 141  115 134 141  115 134 141  115 134 141  115 134 141  115 134 141  115 134 141  115 134 141  115 134 141  115 134 141  115 134 141  114 133 140  67 86 94  72 92 99  106 127 134  106 127 134  106 127 134  106 127 134  106 127 134  106 127 134  106 127 134  106 127 134  106 127 134  106 127 134  106 127 134  106 127 134  106 127 134  106 127 134  106 127 134  106 127 134  106 127 134  106 127 134  106 127 134  106 127 134  106 127 134  106 127 134  106 127 134  106 127 134  106 127 134  106 127 134  106 127 134  106 127 134  106 127 134  106 127 134  106 127 134  106 127 134  106 127 134  106 127 134  94 114 120  85 105 111  85 105 111  85 105 111  85 105 111  82 102 107  80 98 103  78 96 101  77 94 100  78 96 102  84 103 109  85 105 111  85 105 111  85 105 111  85 105 111  85 105 111  85 105 111  85 105 111  85 105 111  85 105 111  97 118 124  106 127 134  110 130 137  116 135 142  121 139 146  122 141 148  124 142 149  124 142 149  124 142 149  124 142 149  124 142 149  124 142 149  124 142 149  124 142 149  124 142 149  124 142 149  124 142 149  124 142 149  124 142 149  121 139 146  104 123 129  81 99 105  69 84 89  48 58 62  29 35 38  22 26 29  23 27 30  24 29 32  25 30 33  24 29 32  23 27 30  22 26 29  22 26 29  24 29 32  28 34 37  37 45 49  45 55 59  52 64 69  59 72 77  63 78 83  66 81 87  68 84 89  70 86 91  71 87 92  71 87 92  70 86 91  69 84 90  67 82 87  64 78 83  59 73 78  53 65 70  46 56 60  38 47 50  30 36 39  25 30 33  22 26 29  22 26 29  23 27 30  24 29 32  25 30 33  24 29 32  23 27 30  22 26 29  28 34 37  45 54 59  66 81 86  78 96 102  100 119 125  119 138 144  124 142 149  124 142 149  124 142 149  124 142 149  124 142 149  124 142 149  124 142 149  124 142 149  124 142 149  124 142 149  124 142 149  124 142 149  124 142 149  123 141 148  121 139 146  117 136 143  110 130 138  106 127 134  100 120 127  85 105 111  85 105 111  85 105 111  85 105 111  85 105 111  85 105 111  85 105 111  85 105 111  85 105 111  84 104 110  79 97 102  77 94 100  78 95 101  79 98 103  82 101 107  85 105 111  85 105 111  85 105 111  85 105 111  91 111 117  105 126 133  106 127 134  106 127 134  106 127 134  106 127 134  106 127 134  106 127 134  106 127 134  106 127 134  106 127 134  106 127 134  106 127 134  106 127 134  106 127 134  106 127 134  106 127 134  106 127 134  106 127 134  106 127 134  106 127 134  106 127 134  106 127 134  106 127 134  106 127 134  106 127 134  106 127 134  106 127 134  106 127 134  106 127 134  106 127 134  106 127 134  106 127 134  106 127 134  106 127 134  76 96 104  66 85 93  106 125 132  115 134 141  115 134 141  115 134 141  115 134 141  115 134 141  115 134 141  115 134 141  115 134 141  115 134 141  115 134 141  115 134 141  114 133 140  107 126 133  86 105 114  81 100 110  80 99 109  80 99 109  80 99 109  80 99 109  80 99 109  80 99 109  80 99 109  80 99 109  80 99 109  80 99 109  80 99 109  80 99 109  80 99 109  80 99 109  80 99 109  80 99 109  80 99 109  80 99 109  80 99 109  80 99 109  80 99 109
114 133 140  115 134 141  115 134 141  115 134 141  115 134 141  115 134 141  115 134 141  115 134 141  115 134 141  115 134 141  115 134 141  115 134 141  115 134 141  115 134 141  115 134 141  111 130 137  82 101 108  63 82 90  88 108 116  106 127 134  106 127 134  106 127 134  106 127 134  106 127 134  106 127 134  106 127 134  106 127 134  106 127 134  106 127 134  106 127 134  106 127 134  106 127 134  106 127 134  106 127 134  106 127 134  106 127 134  106 127 134  106 127 134  106 127 134  106 127 134  106 127 134  106 127 134  106 127 134  106 127 134  106 127 134  106 127 134  106 127 134  106 127 134  106 127 134  106 127 134  106 127 134  106 127 134  106 127 134  106 127 134  106 127 134  106 127 134  101 122 128  88 108 114  85 105 111  85 105 111  85 105 111  85 105 111  85 105 111  85 105 111  85 105 111  85 105 111  85 105 111  85 105 111  85 105 111  85 105 111  85 105 111  85 105 111  85 105 111  85 105 111  89 109 116  108 127 134  119 138 145  122 140 147  124 142 149  124 142 149  124 142 149  124 142 149  124 142 149  124 142 149  124 142 149  124 142 149  124 142 149  124 142 149  124 142 149  124 142 149  124 142 149  124 142 149  124 142 149  124 142 149  124 142 149  124 142 149  124 142 149  124 142 149  124 142 149  124 142 149  121 139 146  114 132 139  103 122 128  91 111 117  85 105 111  83 103 109  81 100 106  78 96 102  76 94 99  75 92 97  74 91 96  73 90 96  73 91 96  74 91 96  74 91 96  74 92 97  75 92 98  75 93 98  75 93 98  75 93 98  75 93 98  75 92 98  75 92 97  74 91 97  74 91 96  73 91 96  73 90 96  74 91 96  75 92 97  76 94 99  78 96 101  81 99 105  83 103 108  85 105 111  90 110 116  101 120 126  113 131 138  121 139 146  124 142 149  124 142 149  124 142 149  124 142 149  124 142 149  124 142 149  124 142 149  124 142 149  124 142 149  124 142 149  124 142 149  124 142 149  124 142 149  124 142 149  124 142 149  124 142 149  124 142 149  124 142 149  124 142 149  124 142 149  124 142 149  124 142 149  122 140 147  119 138 145  111 130 137  91 111 118  85 105 111  85 105 111  85 105 111  85 105 111  85 105 111  85 105 111  85 105 111  85 105 111  85 105 111  85 105 111  85 105 111  85 105 111  85 105 111  85 105 111  85 105 111  85 105 111  86 106 112  99 120 127  106 127 134  106 127 134  106 127 134  106 127 134  106 127 134  106 127 134  106 127 134  106 127 134  106 127 134  106 127 134  106 127 134  106 127 134  106 127 134  106 127 134  106 127 134  106 127 134  106 127 134  106 127 134  106 127 134  106 127 134  106 127 134  106 127 134  106 127 134  106 127 134  106 127 134  106 127 134  106 127 134  106 127 134  106 127 134  106 127 134  106 127 134  106 127 134  106 127 134  106 127 134  106 127 134  106 127 134  106 127 134  92 112 120  63 82 90  75 94 102  108 127 134  115 134 141  115 134 141  115 134 141  115 134 141  115 134 141  115 134 141  115 134 141  115 134 141  115 134 141  115 134 141  115 134 141  115 134 141  115 134 141  115 134 141  114 133 140  113 132 139  107 126 133  97 116 125  89 108 117  85 104 113  84 103 112  83 102 112  82 101 111  82 101 111  82 101 111  83 102 112  83 102 112  84 103 113  88 107 116  96 115 124  105 124 132  113 132 139  114 133 140
115 134 141  115 134 141  115 134 141  115 134 141  115 134 141  115 134 141  115 134 141  115 134 141  115 134 141  115 134 141  115 134 141  115 134 141  98 117 124  67 86 94  64 84 91  87 107 115  105 126 133  106 127 134  106 127 134  106 127 134  106 127 134  106 127 134  106 127 134  106 127 134  106 127 134  106 127 134  106 127 134  106 127 134  106 127 134  106 127 134  106 127 134  106 127 134  106 127 134  106 127 134  106 127 134  106 127 134  106 127 134  106 127 134  106 127 134  106 127 134  106 127 134  106 127 134  106 127 134  106 127 134  106 127 134  106 127 134  106 127 134  106 127 134  106 127 134  106 127 134  106 127 134  106 127 134  106 127 134  106 127 134  106 127 134  106 127 134  106 127 134  106 127 134  98 119 125  90 110 116  85 105 111  85 105 111  85 105 111  85 105 111  85 105 111  85 105 111  85 105 111  85 105 111  85 105 111  85 105 111  85 105 111  85 105 111  85 105 111  93 113 119  107 126 132  121 139 146  124 142 149  124 142 149  124 142 149  124 142 149  124 142 149  124 142 149  124 142 149  124 142 149  124 142 149  124 142 149  124 142 149  124 142 149  124 142 149  124 142 149  124 142 149  124 142 149  124 142 149  124 142 149  124 142 149  124 142 149  124 142 149  124 142 149  124 142 149  124 142 149  124 142 149  124 142 149  124 142 149  124 142 149  124 142 149  124 142 149  124 142 149  124 142 149  124 142 149  124 142 149  124 142 149  124 142 149  122 140 147  120 139 146  119 137 144  117 136 143  116 134 141  115 133 140  114 133 140  114 133 140  114 133 140  115 134 141  117 135 142  118 137 144  120 138 145  122 140 147  124 142 149  124 142 149  124 142 149  124 142 149  124 142 149  124 142 149  124 142 149  124 142 149  124 142 149  124 142 149  124 142 149  124 142 149  124 142 149  124 142 149  124 142 149  124 142 149  124 142 149  124 142 149  124 142 149  124 142 149  124 142 149  124 142 149  124 142 149  124 142 149  124 142 149  124 142 149  124 142 149  124 142 149  124 142 149  124 142 149  124 142 149  124 142 149  124 142 149  124 142 149  124 142 149  124 142 149  122 140 147  109 127 134  95 115 121  85 105 111  85 105 111  85 105 111  85 105 111  85 105 111  85 105 111  85 105 111  85 105 111  85 105 111  85 105 111  85 105 111  85 105 111  85 105 111  88 109 115  97 117 124  105 126 133  106 127 134  106 127 134  106 127 134  106 127 134  106 127 134  106 127 134  106 127 134  106 127 134  106 127 134  106 127 134  106 127 134  106 127 134  106 127 134  106 127 134  106 127 134  106 127 134  106 127 134  106 127 134  106 127 134  106 127 134  106 127 134  106 127 134  106 127 134  106 127 134  106 127 134  106 127 134  106 127 134  106 127 134  106 127 134  106 127 134  106 127 134  106 127 134  106 127 134  106 127 134  106 127 134  106 127 134  106 127 134  106 127 134  106 127 134  106 127 134  106 127 134  93 114 121  65 84 92  66 85 93  92 111 118  115 134 141  115 134 141  115 134 141  115 134 141  115 134 141  115 134 141  115 134 141  115 134 141  115 134 141  115 134 141  115 134 141  115 134 141  115 134 141  115 134 141  115 134 141  115 134 141  115 134 141  115 134 141  115 134 141  115 134 141  115 134 141  115 134 141  115 134 141  115 134 141  115 134 141  115 134 141  115 134 141  115 134 141  115 134 141  115 134 141
115 134 141  115 134 141  115 134 141  115 134 141  115 134 141  115 134 141  113 132 139  94 113 120  75 94 102  63 82 90  67 86 94  88 108 115  105 126 133  106 127 134  106 127 134  106 127 134  106 127 134  106 127 134  106 127 134  106 127 134  106 127 134  106 127 134  106 127 134  106 127 134  106 127 134  106 127 134  106 127 134  106 127 134  106 127 134  106 127 134  106 127 134  106 127 134  106 127 134  106 127 134  106 127 134  106 127 134  106 127 134  106 127 134  106 127 134  106 127 134  106 127 134  106 127 134  106 127 134  106 127 134  106 127 134  106 127 134  106 127 134  106 127 134  106 127 134  106 127 134  106 127 134  106 127 134  106 127 134  106 127 134  106 127 134  106 127 134  106 127 134  106 127 134  106 127 134  106 127 134  104 125 132  95 116 122  89 109 115  87 107 113  86 106 112  85 105 111  85 105 111  85 105 111  85 105 111  86 106 112  88 108 114  91 110 116  99 118 124  114 132 139  124 142 149  124 142 149  124 142 149  124 142 149  124 142 149  124 142 149  124 142 149  124 142 149  124 142 149  124 142 149  124 142 149  124 142 149  124 142 149  124 142 149  124 142 149  124 142 149  124 142 149  124 142 149  124 142 149  124 142 149  124 142 149  124 142 149  124 142 149  124 142 149  124 142 149  124 142 149  124 142 149  124 142 149  124 142 149  124 142 149  124 142 149  124 142 149  124 142 149  124 142 149  124 142 149  124 142 149  124 142 149  124 142 149  124 142 149  124 142 149  124 142 149  124 142 149  124 142 149  124 142 149  124 142 149  124 142 149  124 142 149  124 142 149  124 142 149  124 142 149  124 142 149  124 142 149  124 142 149  124 142 149  124 142 149  124 142 149  124 142 149  124 142 149  124 142 149  124 142 149  124 142 149  124 142 149  124 142 149  124 142 149  124 142 149  124 142 149  124 142 149  124 142 149  124 142 149  124 142 149  124 142 149  124 142 149  124 142 149  124 142 149  124 142 149  124 142 149  124 142 149  124 142 149  124 142 149  124 142 149  124 142 149  124 142 149  124 142 149  124 142 149  124 142 149  124 142 149  124 142 149  124 142 149  124 142 149  124 142 149  116 135 142  101 120 126  91 111 117  89 108 114  87 107 113  85 105 111  85 105 111  85 105 111  85 105 111  86 106 112  87 107 113  88 108 114  94 114 121  103 124 131  106 127 134  106 127 134  106 127 134  106 127 134  106 127 134  106 127 134  106 127 134  106 127 134  106 127 134  106 127 134  106 127 134  106 127 134  106 127 134  106 127 134  106 127 134  106 127 134  106 127 134  106 127 134  106 127 134  106 127 134  106 127 134  106 127 134  106 127 134  106 127 134  106 127 134  106 127 134  106 127 134  106 127 134  106 127 134  106 127 134  106 127 134  106 127 134  106 127 134  106 127 134  106 127 134  106 127 134  106 127 134  106 127 134  106 127 134  106 127 134  106 127 134  106 127 134  106 127 134  106 127 134  106 127 134  106 127 134  106 127 134  106 127 134  90 111 118  70 89 97  63 82 90  72 91 99  92 111 118  110 129 136  115 134 141  115 134 141  115 134 141  115 134 141  115 134 141  115 134 141  115 134 141  115 134 141  115 134 141  115 134 141  115 134 141  115 134 141  115 134 141  115 134 141  115 134 141  115 134 141  115 134 141  115 134 141  115 134 141  115 134 141  115 134 141  115 134 141  115 134 141  115 134 141
65 84 92  63 82 90  63 82 90  65 84 91  67 86 94  84 104 111  106 127 134  106 127 134  106 127 134  106 127 134  106 127 134  106 127 134  106 127 134  106 127 134  106 127 134  106 127 134  106 127 134  106 127 134  106 127 134  106 127 134  106 127 134  106 127 134  106 127 134  106 127 134  106 127 134  106 127 134  106 127 134  106 127 134  106 127 134  106 127 134  106 127 134  106 127 134  106 127 134  106 127 134  106 127 134  106 127 134  106 127 134  106 127 134  106 127 134  106 127 134  106 127 134  106 127 134  106 127 134  106 127 134  106 127 134  106 127 134  106 127 134  106 127 134  106 127 134  106 127 134  106 127 134  106 127 134  106 127 134  106 127 134  106 127 134  106 127 134  106 127 134  106 127 134  106 127 134  106 127 134  106 127 134  106 127 134  106 127 134  105 126 132  103 124 131  104 124 131  107 127 133  111 130 137  113 132 138  114 133 140  116 135 142  119 137 144  121 139 146  124 142 149  124 142 149  124 142 149  124 142 149  124 142 149  124 142 149  124 142 149  124 142 149  124 142 149  124 142 149  124 142 149  124 142 149  124 142 149  124 142 149  124 142 149  124 142 149  124 142 149  124 142 149  124 142 149  124 142 149  124 142 149  124 142 149  124 142 149  124 142 149  124 142 149  124 142 149  124 142 149  124 142 149  124 142 149  124 142 149  124 142 149  124 142 149  124 142 149  124 142 149  124 142 149  124 142 149  124 142 149  124 142 149  124 142 149  124 142 149  124 142 149  124 142 149  124 142 149  124 142 149  124 142 149  124 142 149  124 142 149  124 142 149  124 142 149  124 142 149  124 142 149  124 142 149  124 142 149  124 142 149  124 142 149  124 142 149  124 142 149  124 142 149  124 142 149  124 142 149  124 142 149  124 142 149  124 142 149  124 142 149  124 142 149  124 142 149  124 142 149  124 142 149  124 142 149  124 142 149  124 142 149  124 142 149  124 142 149  124 142 149  124 142 149  124 142 149  124 142 149  124 142 149  124 142 149  124 142 149  124 142 149  124 142 149  124 142 149  124 142 149  124 142 149  124 142 149  124 142 149  124 142 149  124 142 149  124 142 149  124 142 149  124 142 149  122 140 147  119 137 144  117 135 142  115 133 140  113 132 138  111 130 137  108 127 134  104 124 132  103 124 131  104 125 132  106 127 134  106 127 134  106 127 134  106 127 134  106 127 134  106 127 134  106 127 134  106 127 134  106 127 134  106 127 134  106 127 134  106 127 134  106 127 134  106 127 134  106 127 134  106 127 134  106 127 134  106 127 134  106 127 134  106 127 134  106 127 134  106 127 134  106 127 134  106 127 134  106 127 134  106 127 134  106 127 134  106 127 134  106 127 134  106 127 134  106 127 134  106 127 134  106 127 134  106 127 134  106 127 134  106 127 134  106 127 134  106 127 134  106 127 134  106 127 134  106 127 134  106 127 134  106 127 134  106 127 134  106 127 134  106 127 134  106 127 134  106 127 134  106 127 134  106 127 134  106 127 134  106 127 134  106 127 134  106 127 134  106 127 134  106 127 134  106 127 134  87 107 114  68 87 94  65 84 92  63 82 90  63 82 90  63 82 90  77 96 104  90 109 117  102 121 128  106 125 132  108 127 134  110 129 136  111 130 137  112 131 138  112 131 138  112 131 138  111 130 137  110 129 136  108 127 134  106 125 132  103 122 129  92 111 118  79 98 106  65 84 92
106 127 134  106 127 134  106 127 134  106 127 134  106 127 134  106 127 134  106 127 134  106 127 134  106 127 134  106 127 134  106 127 134  106 127 134  106 127 134  106 127 134  106 127 134  106 127 134  106 127 134  106 127 134  106 127 134  106 127 134  106 127 134  106 127 134  106 127 134  106 127 134  106 127 134  106 127 134  106 127 134  106 127 134  106 127 134  106 127 134  106 127 134  106 127 134  106 127 134  106 127 134  106 127 134  106 127 134  106 127 134  106 127 134  106 127 134  106 127 134  106 127 134  106 127 134  106 127 134  106 127 134  106 127 134  106 127 134  106 127 134  106 127 134  106 127 134  106 127 134  106 127 134  106 127 134  106 127 134  106 127 134  106 127 134  106 127 134  106 127 134  106 127 134  106 127 134  106 127 134  107 128 135  108 129 136  110 130 137  113 133 140  118 136 143  122 140 147  124 142 149  124 142 149  124 142 149  124 142 149  124 142 149  124 142 149  124 142 149  124 142 149  124 142 149  124 142 149  124 142 149  124 142 149  124 142 149  124 142 149  124 142 149  124 142 149  124 142 149  124 142 149  124 142 149  124 142 149  124 142 149  124 142 149  124 142 149  124 142 149  124 142 149  124 142 149  124 142 149  124 142 149  124 142 149  124 142 149  124 142 149  124 142 149  124 142 149  124 142 149  124 142 149  124 142 149  124 142 149  124 142 149  124 142 149  124 142 149  124 142 149  124 142 149  124 142 149  124 142 149  124 142 149  124 142 149  124 142 149  124 142 149  124 142 149  124 142 149  124 142 149  124 142 149  124 142 149  124 142 149  124 142 149  124 142 149  124 142 149  124 142 149  124 142 149  124 142 149  124 142 149  124 142 149  124 142 149  124 142 149  124 142 149  124 142 149  124 142 149  124 142 149  124 142 149  124 142 149  124 142 149  124 142 149  124 142 149  124 142 149  124 142 149  124 142 149  124 142 149  124 142 149  124 142 149  124 142 149  124 142 149  124 142 149  124 142 149  124 142 149  124 142 149  124 142 149  124 142 149  124 142 149  124 142 149  124 142 149  124 142 149  124 142 149  124 142 149  124 142 149  124 142 149  124 142 149  124 142 149  124 142 149  124 142 149  124 142 149  124 142 149  124 142 149  124 142 149  124 142 149  124 142 149  124 142 149  122 141 148  118 137 144  114 133 141  110 130 137  109 129 136  107 128 135  106 127 134  106 127 134  106 127 134  106 127 134  106 127 134  106 127 134  106 127 134  106 127 134  106 127 134  106 127 134  106 127 134  106 127 134  106 127 134  106 127 134  106 127 134  106 127 134  106 127 134  106 127 134  106 127 134  106 127 134  106 127 134  106 127 134  106 127 134  106 127 134  106 127 134  106 127 134  106 127 134  106 127 134  106 127 134  106 127 134  106 127 134  106 127 134  106 127 134  106 127 134  106 127 134  106 127 134  106 127 134  106 127 134  106 127 134  106 127 134  106 127 134  106 127 134  106 127 134  106 127 134  106 127 134  106 127 134  106 127 134  106 127 134  106 127 134  106 127 134  106 127 134  106 127 134  106 127 134  106 127 134  106 127 134  106 127 134  106 127 134  106 127 134  106 127 134  106 127 134  106 127 134  106 127 134  106 127 134  106 127 134  106 127 134  105 126 133  105 126 133  104 125 132  104 125 132  104 125 132  105 126 133  105 126 133  106 127 134  106 127 134  106 127 134  106 127 134  106 127 134  106 127 134
106 127 134  106 127 134  106 127 134  106 127 134  106 127 134  106 127 134  106 127 134  106 127 134  106 127 134  106 127 134  106 127 134  106 127 134  106 127 134  106 127 134  106 127 134  106 127 134  106 127 134  106 127 134  106 127 134  106 127 134  106 127 134  106 127 134  106 127 134  106 127 134  106 127 134  106 127 134  106 127 134  106 127 134  106 127 134  106 127 134  106 127 134  106 127 134  106 127 134  106 127 134  106 127 134  106 127 134  106 127 134  106 127 134  106 127 134  106 127 134  106 127 134  106 127 134  106 127 134  106 127 134  106 127 134  106 127 134  106 127 134  106 127 134  106 127 134  106 127 134  106 127 134  106 127 134  106 127 134  106 127 134  106 127 134  106 127 134  108 129 136  110 130 137  113 133 140  116 135 142  118 137 144  120 139 145  122 140 147  124 142 149  124 142 149  124 142 149  124 142 149  124 142 149  124 142 149  124 142 149  124 142 149  124 142 149  124 142 149  124 142 149  124 142 149  124 142 149  124 142 149  124 142 149  124 142 149  124 142 149  124 142 149  124 142 149  124 142 149  124 142 149  124 142 149  124 142 149  124 142 149  124 142 149  124 142 149  124 142 149  124 142 149  124 142 149  124 142 149  124 142 149  124 142 149  124 142 149  124 142 149  124 142 149  124 142 149  124 142 149  124 142 149  124 142 149  124 142 149  124 142 149  124 142 149  124 142 149  124 142 149  124 142 149  124 142 149  124 142 149  124 142 149  124 142 149  124 142 149  124 142 149  124 142 149  124 142 149  124 142 149  124 142 149  124 142 149  124 142 149  124 142 149  124 142 149  124 142 149  124 142 149  124 142 149  124 142 149  124 142 149  124 142 149  124 142 149  124 142 149  124 142 149  124 142 149  124 142 149  124 142 149  124 142 149  124 142 149  124 142 149  124 142 149  124 142 149  124 142 149  124 142 149  124 142 149  124 142 149  124 142 149  124 142 149  124 142 149  124 142 149  124 142 149  124 142 149  124 142 149  124 142 149  124 142 149  124 142 149  124 142 149  124 142 149  124 142 149  124 142 149  124 142 149  124 142 149  124 142 149  124 142 149  124 142 149  124 142 149  124 142 149  124 142 149  124 142 149  124 142 149  124 142 149  124 142 149  124 142 149  124 142 149  124 142 149  124 142 149  124 142 149  124 142 149  122 140 147  120 139 146  118 137 144  116 135 143  113 133 140  111 131 138  108 129 136  106 127 134  106 127 134  106 127 134  106 127 134  106 127 134  106 127 134  106 127 134  106 127 134  106 127 134  106 127 134  106 127 134  106 127 134  106 127 134  106 127 134  106 127 134  106 127 134  106 127 134  106 127 134  106 127 134  106 127 134  106 127 134  106 127 134  106 127 134  106 127 134  106 127 134  106 127 134  106 127 134  106 127 134  106 127 134  106 127 134  106 127 134  106 127 134  106 127 134  106 127 134  106 127 134  106 127 134  106 127 134  106 127 134  106 127 134  106 127 134  106 127 134  106 127 134  106 127 134  106 127 134  106 127 134  106 127 134  106 127 134  106 127 134  106 127 134  106 127 134  106 127 134  106 127 134  106 127 134  106 127 134  106 127 134  106 127 134  106 127 134  106 127 134  106 127 134  106 127 134  106 127 134  106 127 134  106 127 134  106 127 134  106 127 134  106 127 134  106 127 134  106 127 134  106 127 134  106 127 134  106 127 134  106 127 134  106 127 134  106 127 134
106 127 134  106 127 134  106 127 134  106 127 134  106 127 134  106 127 134  106 127 134  106 127 134  106 127 134  106 127 134  106 127 134  106 127 134  106 127 134  106 127 134  106 127 134  106 127 134  106 127 134  106 127 134  106 127 134  106 127 134  106 127 134  106 127 134  106 127 134  106 127 134  106 127 134  106 127 134  106 127 134  106 127 134  106 127 134  106 127 134  106 127 134  106 127 134  106 127 134  106 127 134  106 127 134  106 127 134  106 127 134  106 127 134  106 127 134  106 127 134  106 127 134  106 127 134  106 127 134  106 127 134  106 127 134  106 127 134  106 127 134  106 127 134  106 127 134  106 127 134  107 127 135  110 130 137  112 132 139  115 135 142  117 136 143  120 139 146  122 140 147  122 140 147  123 141 148  123 141 149  124 142 149  124 142 149  124 142 149  124 142 149  124 142 149  124 142 149  124 142 149  124 142 149  124 142 149  124 142 149  124 142 149  124 142 149  124 142 149  124 142 149  124 142 149  124 142 149  124 142 149  124 142 149  124 142 149  124 142 149  124 142 149  124 142 149  124 142 149  124 142 149  124 142 149  124 142 149  124 142 149  124 142 149  124 142 149  124 142 149  124 142 149  124 142 149  124 142 149  124 142 149  124 142 149  124 142 149  124 142 149  124 142 149  124 142 149  124 142 149  124 142 149  124 142 149  124 142 149  124 142 149  124 142 149  124 142 149  124 142 149  124 142 149  124 142 149  124 142 149  124 142 149  124 142 149  124 142 149  124 142 149  124 142 149  124 142 149  124 142 149  124 142 149  124 142 149  124 142 149  124 142 149  124 142 149  124 142 149  124 142 149  124 142 149  124 142 149  124 142 149  124 142 149  124 142 149  124 142 149  124 142 149  124 142 149  124 142 149  124 142 149  124 142 149  124 142 149  124 142 149  124 142 149  124 142 149  124 142 149  124 142 149  124 142 149  124 142 149  124 142 149  124 142 149  124 142 149  124 142 149  124 142 149  124 142 149  124 142 149  124 142 149  124 142 149  124 142 149  124 142 149  124 142 149  124 142 149  124 142 149  124 142 149  124 142 149  124 142 149  124 142 149  124 142 149  124 142 149  124 142 149  124 142 149  124 142 149  124 142 149  124 142 149  124 142 149  124 142 149  124 142 149  124 142 149  124 142 149  124 142 149  124 142 149  124 142 149  124 142 149  124 142 149  123 141 149  123 141 148  122 140 147  122 140 147  120 139 146  118 136 143  115 135 142  112 133 140  110 130 137  108 128 135  106 127 134  106 127 134  106 127 134  106 127 134  106 127 134  106 127 134  106 127 134  106 127 134  106 127 134  106 127 134  106 127 134  106 127 134  106 127 134  106 127 134  106 127 134  106 127 134  106 127 134  106 127 134  106 127 134  106 127 134  106 127 134  106 127 134  106 127 134  106 127 134  106 127 134  106 127 134  106 127 134  106 127 134  106 127 134  106 127 134  106 127 134  106 127 134  106 127 134  106 127 134  106 127 134  106 127 134  106 127 134  106 127 134  106 127 134  106 127 134  106 127 134  106 127 134  106 127 134  106 127 134  106 127 134  106 127 134  106 127 134  106 127 134  106 127 134  106 127 134  106 127 134  106 127 134  106 127 134  106 127 134  106 127 134  106 127 134  106 127 134  106 127 134  106 127 134  106 127 134  106 127 134  106 127 134  106 127 134  106 127 134  106 127 134  106 127 134  106 127 134  106 127 134
106 127 134  106 127 134  106 127 134  106 127 134  106 127 134  106 127 134  106 127 134  106 127 134  106 127 134  106 127 134  106 127 134  106 127 134  106 127 134  106 127 134  106 127 134  106 127 134  106 127 134  106 127 134  106 127 134  107 127 134  107 128 135  108 128 135  109 128 136  109 129 136  109 129 136  110 130 137  110 130 137  110 130 137  110 130 138  111 131 138  111 131 138  111 131 138  111 131 138  111 131 138  111 131 138  112 132 139  112 132 139  112 132 139  112 132 139  112 132 139  113 133 139  113 133 140  114 133 140  114 133 141  115 134 142  117 136 143  118 137 144  119 138 145  122 140 147  123 141 148  123 141 148  124 142 149  124 142 149  124 142 149  124 142 149  124 142 149  124 142 149  124 142 149  124 142 149  124 142 149  124 142 149  124 142 149  124 142 149  124 142 149  124 142 149  124 142 149  124 142 149  124 142 149  124 142 149  124 142 149  124 142 149  124 142 149  124 142 149  124 142 149  124 142 149  124 142 149  124 142 149  124 142 149  124 142 149  124 142 149  124 142 149  124 142 149  124 142 149  124 142 149  124 142 149  124 142 149  124 142 149  124 142 149  124 142 149  124 142 149  124 142 149  124 142 149  124 142 149  124 142 149  124 142 149  124 142 149  124 142 149  124 142 149  124 142 149  124 142 149  124 142 149  124 142 149  124 142 149  124 142 149  124 142 149  124 142 149  124 142 149  124 142 149  124 142 149  124 142 149  124 142 149  124 142 149  124 142 149  124 142 149  124 142 149  124 142 149  124 142 149  124 142 149  124 142 149  124 142 149  124 142 149  124 142 149  124 142 149  124 142 149  124 142 149  124 142 149  124 142 149  124 142 149  124 142 149  124 142 149  124 142 149  124 142 149  124 142 149  124 142 149  124 142 149  124 142 149  124 142 149  124 142 149  124 142 149  124 142 149  124 142 149  124 142 149  124 142 149  124 142 149  124 142 149  124 142 149  124 142 149  124 142 149  124 142 149  124 142 149  124 142 149  124 142 149  124 142 149  124 142 149  124 142 149  124 142 149  124 142 149  124 142 149  124 142 149  124 142 149  124 142 149  124 142 149  124 142 149  124 142 149  124 142 149  124 142 149  124 142 149  124 142 149  124 142 149  124 142 149  124 142 149  124 142 149  124 142 149  124 142 149  124 142 149  124 142 149  124 142 149  124 142 149  124 142 149  124 142 149  124 142 149  124 142 149  124 142 149  124 142 149  124 142 149  124 142 149  124 142 149  123 141 149  123 141 148  122 140 147  120 138 145  118 137 144  117 136 143  116 135 142  114 134 141  114 133 140  113 133 140  113 133 139  112 132 139  112 132 139  112 132 139  112 132 139  112 132 139  111 131 138  111 131 138  111 131 138  111 131 138  111 131 138  111 131 138  110 130 138  110 130 137  110 130 137  110 130 137  109 130 137  109 129 136  109 128 136  108 128 135  107 128 135  107 127 134  107 127 134  106 127 134  106 127 134  106 127 134  106 127 134  106 127 134  106 127 134  106 127 134  106 127 134  106 127 134  106 127 134  106 127 134  106 127 134  106 127 134  106 127 134  106 127 134  106 127 134  106 127 134  106 127 134  106 127 134  106 127 134  106 127 134  106 127 134  106 127 134  106 127 134  106 127 134  106 127 134  106 127 134  106 127 134  106 127 134  106 127 134  106 127 134  106 127 134  106 127 134  106 127 134  106 127 134  106 127 134
118 137 144  118 137 144  119 138 145  119 138 145  119 138 145  120 139 146  120 139 146  121 139 146  122 140 147  122 140 147  123 141 148  123 141 148  123 142 149  123 142 149  123 142 149  123 142 149  124 142 149  124 142 149  124 142 149  124 142 149  124 142 149  124 142 149  124 142 149  124 142 149  124 142 149  124 142 149  124 142 149  124 142 149  124 142 149  124 142 149  124 142 149  124 142 149  124 142 149  124 142 149  124 142 149  124 142 149  124 142 149  124 142 149  124 142 149  124 142 149  124 142 149  124 142 149  124 142 149  124 142 149  124 142 149  124 142 149  124 142 149  124 142 149  124 142 149  124 142 149  124 142 149  124 142 149  124 142 149  124 142 149  124 142 149  124 142 149  124 142 149  124 142 149  124 142 149  124 142 149  124 142 149  124 142 149  124 142 149  124 142 149  124 142 149  124 142 149  124 142 149  124 142 149  124 142 149  124 142 149  124 142 149  124 142 149  124 142 149  124 142 149  124 142 149  124 142 149  124 142 149  124 142 149  124 142 149  124 142 149  124 142 149  124 142 149  124 142 149  124 142 149  124 142 149  124 142 149  124 142 149  124 142 149  124 142 149  124 142 149  124 142 149  124 142 149  124 142 149  124 142 149  124 142 149  124 142 149  124 142 149  124 142 149  124 142 149  124 142 149  124 142 149  124 142 149  124 142 149  124 142 149  124 142 149  124 142 149  124 142 149  124 142 149  124 142 149  124 142 149  124 142 149  124 142 149  124 142 149  124 142 149  124 142 149  124 142 149  124 142 149  124 142 149  124 142 149  124 142 149  124 142 149  124 142 149  124 142 149  124 142 149  124 142 149  124 142 149  124 142 149  124 142 149  124 142 149  124 142 149  124 142 149  124 142 149  124 142 149  124 142 149  124 142 149  124 142 149  124 142 149  124 142 149  124 142 149  124 142 149  124 142 149  124 142 149  124 142 149  124 142 149  124 142 149  124 142 149  124 142 149  124 142 149  124 142 149  124 142 149  124 142 149  124 142 149  124 142 149  124 142 149  124 142 149  124 142 149  124 142 149  124 142 149  124 142 149  124 142 149  124 142 149  124 142 149  124 142 149  124 142 149  124 142 149  124 142 149  124 142 149  124 142 149  124 142 149  124 142 149  124 142 149  124 142 149  124 142 149  124 142 149  124 142 149  124 142 149  124 142 149  124 142 149  124 142 149  124 142 149  124 142 149  124 142 149  124 142 149  124 142 149  124 142 149  124 142 149  124 142 149  124 142 149  124 142 149  124 142 149  124 142 149  124 142 149  124 142 149  124 142 149  124 142 149  124 142 149  124 142 149  124 142 149  124 142 149  124 142 149  124 142 149  124 142 149  124 142 149  124 142 149  124 142 149  124 142 149  124 142 149  124 142 149  124 142 149  124 142 149  124 142 149  124 142 149  124 142 149  124 142 149  124 142 149  124 142 149  124 142 149  124 142 149  124 142 149  124 142 149  124 142 149  124 142 149  124 142 149  123 142 149  123 142 149  123 142 149  123 141 148  123 141 148  122 140 147  122 140 147  121 139 146  120 139 146  120 139 146  119 138 145  119 138 145  119 138 145  118 137 144  118 137 144  118 137 144  118 137 144  117 137 144  117 136 143  117 136 143  117 136 143  116 136 143  116 136 143  116 136 143  116 136 143  116 136 143  117 136 143  117 136 143  117 136 143  117 137 144  118 137 144  118 137 144  118 137 144
124 142 149  124 142 149  124 142 149  124 142 149  124 142 149  124 142 149  124 142 149  124 142 149  124 142 149  124 142 149  124 142 149  124 142 149  124 142 149  124 142 149  124 142 149  124 142 149  124 142 149  124 142 149  124 142 149  124 142 149  124 142 149  124 142 149  124 142 149  124 142 149  124 142 149  124 142 149  124 142 149  124 142 149  124 142 149  124 142 149  124 142 149  124 142 149  124 142 149  124 142 149  124 142 149  124 142 149  124 142 149  124 142 149  124 142 149  124 142 149  124 142 149  124 142 149  124 142 149  124 142 149  124 142 149  124 142 149  124 142 149  124 142 149  124 142 149  124 142 149  124 142 149  124 142 149  124 142 149  124 142 149  124 142 149  124 142 149  124 142 149  124 142 149  124 142 149  124 142 149  124 142 149  124 142 149  124 142 149  124 142 149  124 142 149  124 142 149  124 142 149  124 142 149  124 142 149  124 142 149  124 142 149  124 142 149  124 142 149  124 142 149  124 142 149  124 142 149  124 142 149  124 142 149  124 142 149  124 142 149  124 142 149  124 142 149  124 142 149  124 142 149  124 142 149  124 142 149  124 142 149  124 142 149  124 142 149  124 142 149  124 142 149  124 142 149  124 142 149  124 142 149  124 142 149  124 142 149  124 142 149  124 142 149  124 142 149  124 142 149  124 142 149  124 142 149  124 142 149  124 142 149  124 142 149  124 142 149  124 142 149  124 142 149  124 142 149  124 142 149  124 142 149  124 142 149  124 142 149  124 142 149  124 142 149  124 142 149  124 142 149  124 142 149  124 142 149  124 142 149  124 142 149  124 142 149  124 142 149  124 142 149  124 142 149  124 142 149  124 142 149  124 142 149  124 142 149  124 142 149  124 142 149  124 142 149  124 142 149  124 142 149  124 142 149  124 142 149  124 142 149  124 142 149  124 142 149  124 142 149  124 142 149  124 142 149  124 142 149  124 142 149  124 142 149  124 142 149  124 142 149  124 142 149  124 142 149  124 142 149  124 142 149  124 142 149  124 142 149  124 142 149  124 142 149  124 142 149  124 142 149  124 142 149  124 142 149  124 142 149  124 142 149  124 142 149  124 142 149  124 142 149  124 142 149  124 142 149  124 142 149  124 142 149  124 142 149  124 142 149  124 142 149  124 142 149  124 142 149  124 142 149  124 142 149  124 142 149  124 142 149  124 142 149  124 142 149  124 142 149  124 142 149  124 142 149  124 142 149  124 142 149  124 142 149  124 142 149  124 142 149  124 142 149  124 142 149  124 142 149  124 142 149  124 142 149  124 142 149  124 142 149  124 142 149  124 142 149  124 142 149  124 142 149  124 142 149  124 142 149  124 142 149  124 142 149  124 142 149  124 142 149  124 142 149  124 142 149  124 142 149  124 142 149  124 142 149  124 142 149  124 142 149  124 142 149  124 142 149  124 142 149  124 142 149  124 142 149  124 142 149  124 142 149  124 142 149  124 142 149  124 142 149  124 142 149  124 142 149  124 142 149  124 142 149  124 142 149  124 142 149  124 142 149  124 142 149  124 142 149  124 142 149  124 142 149  124 142 149  124 142 149  124 142 149  124 142 149  124 142 149  124 142 149  124 142 149  124 142 149  124 142 149  124 142 149  124 142 149  124 142 149  124 142 149  124 142 149  124 142 149  124 142 149  124 142 149  124 142 149  124 142 149  124 142 149  124 142 149  124 142 149  124 142 149  124 142 149
124 142 149  124 142 149  124 142 149  124 142 149  124 142 149  124 142 149  124 142 149  124 142 149  124 142 149  124 142 149  124 142 149  124 142 149  124 142 149  124 142 149  124 142 149  124 142 149  124 142 149  124 142 149  124 142 149  124 142 149  124 142 149  124 142 149  124 142 149  124 142 149  124 142 149  124 142 149  124 142 149  124 142 149  124 142 149  124 142 149  124 142 149  124 142 149  124 142 149  124 142 149  124 142 149  124 142 149  124 142 149  124 142 149  124 142 149  124 142 149  124 142 149  124 142 149  124 142 149  124 142 149  124 142 149  124 142 149  124 142 149  124 142 149  124 142 149  124 142 149  124 142 149  124 142 149  124 142 149  124 142 149  124 142 149  124 142 149  124 142 149  124 142 149  124 142 149  124 142 149  124 142 149  124 142 149  124 142 149  124 142 149  124 142 149  124 142 149  124 142 149  124 142 149  124 142 149  124 142 149  124 142 149  124 142 149  124 142 149  124 142 149  124 142 149  124 142 149  124 142 149  124 142 149  124 142 149  124 142 149  124 142 149  124 142 149  124 142 149  124 142 149  124 142 149  124 142 149  124 142 149  124 142 149  124 142 149  124 142 149  124 142 149  124 142 149  124 142 149  124 142 149  124 142 149  124 142 149  124 142 149  124 142 149  124 142 149  124 142 149  124 142 149  124 142 149  124 142 149  124 142 149  124 142 149  124 142 149  124 142 149  124 142 149  124 142 149  124 142 149  124 142 149  124 142 149  124 142 149  124 142 149  124 142 149  124 142 149  124 142 149  124 142 149  124 142 149  124 142 149  124 142 149  124 142 149  124 142 149  124 142 149  124 142 149  124 142 149  124 142 149  124 142 149  124 142 149  124 142 149  124 142 149  124 142 149  124 142 149  124 142 149  124 142 149  124 142 149  124 142 149  124 142 149  124 142 149  124 142 149  124 142 149  124 142 149  124 142 149  124 142 149  124 142 149  124 142 149  124 142 149  124 142 149  124 142 149  124 142 149  124 142 149  124 142 149  124 142 149  124 142 149  124 142 149  124 142 149  124 142 149  124 142 149  124 142 149  124 142 149  124 142 149  124 142 149  124 142 149  124 142 149  124 142 149  124 142 149  124 142 149  124 142 149  124 142 149  124 142 149  124 142 149  124 142 149  124 142 149  124 142 149  124 142 149  124 142 149  124 142 149  124 142 149  124 142 149  124 142 149  124 142 149  124 142 149  124 142 149  124 142 149  124 142 149  124 142 149  124 142 149  124 142 149  124 142 149  124 142 149  124 142 149  124 142 149  124 142 149  124 142 149  124 142 149  124 142 149  124 142 149  124 142 149  124 142 149  124 142 149  124 142 149  124 142 149  124 142 149  124 142 149  124 142 149  124 142 149  124 142 149  124 142 149  124 142 149  124 142 149  124 142 149  124 142 149  124 142 149  124 142 149  124 142 149  124 142 149  124 142 149  124 142 149  124 142 149  124 142 149  124 142 149  124 142 149  124 142 149  124 142 149  124 142 149  124 142 149  124 142 149  124 142 149  124 142 149  124 142 149  124 142 149  124 142 149  124 142 149  124 142 149  124 142 149  124 142 149  124 142 149  124 142 149  124 142 149  124 142 149  124 142 149  124 142 149  124 142 149  124 142 149  124 142 149  124 142 149  124 142 149  124 142 149  124 142 149  124 142 149  124 142 149  124 142 149  124 142 149  124 142 149  124 142 149  124 142 149
124 142 149  124 142 149  124 142 149  124 142 149  124 142 149  124 142 149  124 142 149  124 142 149  124 142 149  124 142 149  124 142 149  124 142 149  124 142 149  124 142 149  124 142 149  124 142 149  124 142 149  124 142 149  124 142 149  124 142 149  124 142 149  124 142 149  124 142 149  124 142 149  124 142 149  124 142 149  124 142 149  124 142 149  124 142 149  124 142 149  124 142 149  124 142 149  124 142 149  124 142 149  124 142 149  124 142 149  124 142 149  124 142 149  124 142 149  124 142 149  124 142 149  124 142 149  124 142 149  124 142 149  124 142 149  124 142 149  124 142 149  124 142 149  124 142 149  124 142 149  124 142 149  124 142 149  124 142 149  124 142 149  124 142 149  124 142 149  124 142 149  124 142 149  124 142 149  124 142 149  124 142 149  124 142 149  124 142 149  124 142 149  124 142 149  124 142 149  124 142 149  124 142 149  124 142 149  124 142 149  124 142 149  124 142 149  124 142 149  124 142 149  124 142 149  124 142 149  124 142 149  124 142 149  124 142 149  124 142 149  124 142 149  124 142 149  124 142 149  124 142 149  124 142 149  124 142 149  124 142 149  124 142 149  124 142 149  124 142 149  124 142 149  124 142 149  124 142 149  124 142 149  124 142 149  124 142 149  124 142 149  124 142 149  124 142 149  124 142 149  124 142 149  124 142 149  124 142 149  124 142 149  124 142 149  124 142 149  124 142 149  124 142 149  124 142 149  124 142 149  124 142 149  124 142 149  124 142 149  124 142 149  124 142 149  124 142 149  124 142 149  124 142 149  124 142 149  124 142 149  124 142 149  124 142 149  124 142 149  124 142 149  124 142 149  124 142 149  124 142 149  124 142 149  124 142 149  124 142 149  124 142 149  124 142 149  124 142 149  124 142 149  124 142 149  124 142 149  124 142 149  124 142 149  124 142 149  124 142 149  124 142 149  124 142 149  124 142 149  124 142 149  124 142 149  124 142 149  124 142 149  124 142 149  124 142 149  124 142 149  124 142 149  124 142 149  124 142 149  124 142 149  124 142 149  124 142 149  124 142 149  124 142 149  124 142 149  124 142 149  124 142 149  124 142 149  124 142 149  124 142 149  124 142 149  124 142 149  124 142 149  124 142 149  124 142 149  124 142 149  124 142 149  124 142 149  124 142 149  124 142 149  124 142 149  124 142 149  124 142 149  124 142 149  124 142 149  124 142 149  124 142 149  124 142 149  124 142 149  124 142 149  124 142 149  124 142 149  124 142 149  124 142 149  124 142 149  124 142 149  124 142 149  124 142 149  124 142 149  124 142 149  124 142 149  124 142 149  124 142 149  124 142 149  124 142 149  124 142 149  124 142 149  124 142 149  124 142 149  124 142 149  124 142 149  124 142 149  124 142 149  124 142 149  124 142 149  124 142 149  124 142 149  124 142 149  124 142 149  124 142 149  124 142 149  124 142 149  124 142 149  124 142 149  124 142 149  124 142 149  124 142 149  124 142 149  124 142 149  124 142 149  124 142 149  124 142 149  124 142 149  124 142 149  124 142 149  124 142 149  124 142 149  124 142 149  124 142 149  124 142 149  124 142 149  124 142 149  124 142 149  124 142 149  124 142 149  124 142 149  124 142 149  124 142 149  124 142 149  124 142 149  124 142 149  124 142 149  124 142 149  124 142 149  124 142 149  124 142 149  124 142 149  124 142 149  124 142 149  124 142 149  124 142 149  124 142 149
124 142 149  124 142 149  124 142 149  124 142 149  124 142 149  124 142 149  124 142 149  124 142 149  124 142 149  124 142 149  124 142 149  124 142 149  124 142 149  124 142 149  124 142 149  124 142 149  124 142 149  124 142 149  124 142 149  124 142 149  124 142 149  124 142 149  124 142 149  124 142 149  124 142 149  124 142 149  124 142 149  124 142 149  124 142 149  124 142 149  124 142 149  124 142 149  124 142 149  124 142 149  124 142 149  124 142 149  124 142 149  124 142 149  124 142 149  124 142 149  124 142 149  124 142 149  124 142 149  124 142 149  124 142 149  124 142 149  124 142 149  124 142 149  124 142 149  124 142 149  124 142 149  124 142 149  124 142 149  124 142 149  124 142 149  124 142 149  124 142 149  124 142 149  124 142 149  124 142 149  124 142 149  124 142 149  124 142 149  124 142 149  124 142 149  124 142 149  124 142 149  124 142 149  124 142 149  124 142 149  124 142 149  124 142 149  124 142 149  124 142 149  124 142 149  124 142 149  124 142 149  124 142 149  124 142 149  124 142 149  124 142 149  124 142 149  124 142 149  124 142 149  124 142 149  124 142 149  124 142 149  124 142 149  124 142 149  124 142 149  124 142 149  124 142 149  124 142 149  124 142 149  124 142 149  124 142 149  124 142 149  124 142 149  124 142 149  124 142 149  124 142 149  124 142 149  124 142 149  124 142 149  124 142 149  124 142 149  124 142 149  124 142 149  124 142 149  124 142 149  124 142 149  124 142 149  124 142 149  124 142 149  124 142 149  124 142 149  124 142 149  124 142 149  124 142 149  124 142 149  124 142 149  124 142 149  124 142 149  124 142 149  124 142 149  124 142 149  124 142 149  124 142 149  124 142 149  124 142 149  124 142 149  124 142 149  124 142 149  124 142 149  124 142 149  124 142 149  124 142 149  124 142 149  124 142 149  124 142 149  124 142 149  124 142 149  124 142 149  124 142 149  124 142 149  124 142 149  124 142 149  124 142 149  124 142 149  124 142 149  124 142 149  124 142 149  124 142 149  124 142 149  124 142 149  124 142 149  124 142 149  124 142 149  124 142 149  124 142 149  124 142 149  124 142 149  124 142 149  124 142 149  124 142 149  124 142 149  124 142 149  124 142 149  124 142 149  124 142 149  124 142 149  124 142 149  124 142 149  124 142 149  124 142 149  124 142 149  124 142 149  124 142 149  124 142 149  124 142 149  124 142 149  124 142 149  124 142 149  124 142 149  124 142 149  124 142 149  124 142 149  124 142 149  124 142 149  124 142 149  124 142 149  124 142 149  124 142 149  124 142 149  124 142 149  124 142 149  124 142 149  124 142 149  124 142 149  124 142 149  124 142 149  124 142 149  124 142 149  124 142 149  124 142 149  124 142 149  124 142 149  124 142 149  124 142 149  124 142 149  124 142 149  124 142 149  124 142 149  124 142 149  124 142 149  124 142 149  124 142 149  124 142 149  124 142 149  124 142 149  124 142 149  124 142 149  124 142 149  124 142 149  124 142 149  124 142 149  124 142 149  124 142 149  124 142 149  124 142 149  124 142 149  124 142 149  124 142 149  124 142 149  124 142 149  124 142 149  124 142 149  124 142 149  124 142 149  124 142 149  124 142 149  124 142 149  124 142 149  124 142 149  124 142 149  124 142 149  124 142 149  124 142 149  124 142 149  124 142 149  124 142 149  124 142 149  124 142 149  124 142 149  124 142 149  124 142 149
124 142 149  124 142 149  124 142 149  124 142 149  124 142 149  124 142 149  124 142 149  124 142 149  124 142 149  124 142 149  124 142 149  124 142 149  124 142 149  124 142 149  124 142 149  124 142 149  124 142 149  124 142 149  124 142 149  124 142 149  124 142 149  124 142 149  124 142 149  124 142 149  124 142 149  124 142 149  124 142 149  124 142 149  124 142 149  124 142 149  124 142 149  124 142 149  124 142 149  124 142 149  124 142 149  124 142 149  124 142 149  124 142 149  124 142 149  124 142 149  124 142 149  124 142 149  124 142 149  124 142 149  124 142 149  124 142 149  124 142 149  124 142 149  124 142 149  124 142 149  124 142 149  124 142 149  124 142 149  124 142 149  124 142 149  124 142 149  124 142 149  124 142 149  124 142 149  124 142 149  124 142 149  124 142 149  124 142 149  124 142 149  124 142 149  124 142 149  124 142 149  124 142 149  124 142 149  124 142 149  124 142 149  124 142 149  124 142 149  124 142 149  124 142 149  124 142 149  124 142 149  124 142 149  124 142 149  124 142 149  124 142 149  124 142 149  124 142 149  124 142 149  124 142 149  124 142 149  124 142 149  124 142 149  124 142 149  124 142 149  124 142 149  124 142 149  124 142 149  124 142 149  124 142 149  124 142 149  124 142 149  124 142 149  124 142 149  124 142 149  124 142 149  124 142 149  124 142 149  124 142 149  124 142 149  124 142 149  124 142 149  124 142 149  124 142 149  124 142 149  124 142 149  124 142 149  124 142 149  124 142 149  124 142 149  124 142 149  124 142 149  124 142 149  124 142 149  124 142 149  124 142 149  124 142 149  124 142 149  124 142 149  124 142 149  124 142 149  124 142 149  124 142 149  124 142 149  124 142 149  124 142 149  124 142 149  124 142 149  124 142 149  124 142 149  124 142 149  124 142 149  124 142 149  124 142 149  124 142 149  124 142 149  124 142 149  124 142 149  124 142 149  124 142 149  124 142 149  124 142 149  124 142 149  124 142 149  124 142 149  124 142 149  124 142 149  124 142 149  124 142 149  124 142 149  124 142 149  124 142 149  124 142 149  124 142 149  124 142 149  124 142 149  124 142 149  124 142 149  124 142 149  124 142 149  124 142 149  124 142 149  124 142 149  124 142 149  124 142 149  124 142 149  124 142 149  124 142 149  124 142 149  124 142 149  124 142 149  124 142 149  124 142 149  124 142 149  124 142 149  124 142 149  124 142 149  124 142 149  124 142 149  124 142 149  124 142 149  124 142 149  124 142 149  124 142 149  124 142 149  124 142 149  124 142 149  124 142 149  124 142 149  124 142 149  124 142 149  124 142 149  124 142 149  124 142 149  124 142 149  124 142 149  124 142 149  124 142 149  124 142 149  124 142 149  124 142 149  124 142 149  124 142 149  124 142 149  124 142 149  124 142 149  124 142 149  124 142 149  124 142 149  124 142 149  124 142 149  124 142 149  124 142 149  124 142 149  124 142 149  124 142 149  124 142 149  124 142 149  124 142 149  124 142 149  124 142 149  124 142 149  124 142 149  124 142 149  124 142 149  124 142 149  124 142 149  124 142 149  124 142 149  124 142 149  124 142 149  124 142 149  124 142 149  124 142 149  124 142 149  124 142 149  124 142 149  124 142 149  124 142 149  124 142 149  124 142 149  124 142 149  124 142 149  124 142 149  124 142 149  124 142 149  124 142 149  124 142 149  124 142 149  124 142 149  124 142 149
124 142 149  124 142 149  124 142 149  124 142 149  124 142 149  124 142 149  124 142 149  124 142 149  124 142 149  124 142 149  124 142 149  124 142 149  124 142 149  124 142 149  124 142 149  124 142 149  124 142 149  124 142 149  124 142 149  124 142 149  124 142 149  124 142 149  124 142 149  124 142 149  124 142 149  124 142 149  124 142 149  124 142 149  124 142 149  124 142 149  124 142 149  124 142 149  124 142 149  124 142 149  124 142 149  124 142 149  124 142 149  124 142 149  124 142 149  124 142 149  124 142 149  124 142 149  124 142 149  124 142 149  124 142 149  124 142 149  124 142 149  124 142 149  124 142 149  124 142 149  124 142 149  124 142 149  124 142 149  124 142 149  124 142 149  124 142 149  124 142 149  124 142 149  124 142 149  124 142 149  124 142 149  124 142 149  124 142 149  124 142 149  124 142 149  124 142 149  124 142 149  124 142 149  124 142 149  124 142 149  124 142 149  124 142 149  124 142 149  124 142 149  124 142 149  124 142 149  124 142 149  124 142 149  124 142 149  124 142 149  124 142 149  124 142 149  124 142 149  124 142 149  124 142 149  124 142 149  124 142 149  124 142 149  124 142 149  124 142 149  124 142 149  124 142 149  124 142 149  124 142 149  124 142 149  124 142 149  124 142 149  124 142 149  124 142 149  124 142 149  124 142 149  124 142 149  124 142 149  124 142 149  124 142 149  124 142 149  124 142 149  124 142 149  124 142 149  124 142 149  124 142 149  124 142 149  124 142 149  124 142 149  124 142 149  124 142 149  124 142 149  124 142 149  124 142 149  124 142 149  124 142 149  124 142 149  124 142 149  124 142 149  124 142 149  124 142 149  124 142 149  124 142 149  124 142 149  124 142 149  124 142 149  124 142 149  124 142 149  124 142 149  124 142 149  124 142 149  124 142 149  124 142 149  124 142 149  124 142 149  124 142 149  124 142 149  124 142 149  124 142 149  124 142 149  124 142 149  124 142 149  124 142 149  124 142 149  124 142 149  124 142 149  124 142 149  124 142 149  124 142 149  124 142 149  124 142 149  124 142 149  124 142 149  124 142 149  124 142 149  124 142 149  124 142 149  124 142 149  124 142 149  124 142 149  124 142 149  124 142 149  124 142 149  124 142 149  124 142 149  124 142 149  124 142 149  124 142 149  124 142 149  124 142 149  124 142 149  124 142 149  124 142 149  124 142 149  124 142 149  124 142 149  124 142 149  124 142 149  124 142 149  124 142 149  124 142 149  124 142 149  124 142 149  124 142 149  124 142 149  124 142 149  124 142 149  124 142 149  124 142 149  124 142 149  124 142 149  124 142 149  124 142 149  124 142 149  124 142 149  124 142 149  124 142 149  124 142 149  124 142 149  124 142 149  124 142 149  124 142 149  124 142 149  124 142 149  124 142 149  124 142 149  124 142 149  124 142 149  124 142 149  124 142 149  124 142 149  124 142 149  124 142 149  124 142 149  124 142 149  124 142 149  124 142 149  124 142 149  124 142 149  124 142 149  124 142 149  124 142 149  124 142 149  124 142 149  124 142 149  124 142 149  124 142 149  124 142 149  124 142 149  124 142 149  124 142 149  124 142 149  124 142 149  124 142 149  124 142 149  124 142 149  124 142 149  124 142 149  124 142 149  124 142 149  124 142 149  124 142 149  124 142 149  124 142 149  124 142 149  124 142 149  124 142 149  124 142 149  124 142 149  124 142 149  124 142 149
124 142 149  124 142 149  124 142 149  124 142 149  124 142 149  124 142 149  124 142 149  124 142 149  124 142 149  124 142 149  124 142 149  124 142 149  124 142 149  124 142 149  124 142 149  124 142 149  124 142 149  124 142 149  124 142 149  124 142 149  124 142 149  124 142 149  124 142 149  124 142 149  124 142 149  124 142 149  124 142 149  124 142 149  124 142 149  124 142 149  124 142 149  124 142 149  124 142 149  124 142 149  124 142 149  124 142 149  124 142 149  124 142 149  124 142 149  124 142 149  124 142 149  124 142 149  124 142 149  124 142 149  124 142 149  124 142 149  124 142 149  124 142 149  124 142 149  124 142 149  124 142 149  124 142 149  124 142 149  124 142 149  124 142 149  124 142 149  124 142 149  124 142 149  124 142 149  124 142 149  124 142 149  124 142 149  124 142 149  124 142 149  124 142 149  124 142 149  124 142 149  124 142 149  124 142 149  124 142 149  124 142 149  124 142 149  124 142 149  124 142 149  124 142 149  124 142 149  124 142 149  124 142 149  124 142 149  124 142 149  124 142 149  124 142 149  124 142 149  124 142 149  124 142 149  124 142 149  124 142 149  124 142 149  124 142 149  124 142 149  124 142 149  124 142 149  124 142 149  124 142 149  124 142 149  124 142 149  124 142 149  124 142 149  124 142 149  124 142 149  124 142 149  124 142 149  124 142 149  124 142 149  124 142 149  124 142 149  124 142 149  124 142 149  124 142 149  124 142 149  124 142 149  124 142 149  124 142 149  124 142 149  124 142 149  124 142 149  124 142 149  124 142 149  124 142 149  124 142 149  124 142 149  124 142 149  124 142 149  124 142 149  124 142 149  124 142 149  124 142 149  124 142 149  124 142 149  124 142 149  124 142 149  124 142 149  124 142 149  124 142 149  124 142 149  124 142 149  124 142 149  124 142 149  124 142 149  124 142 149  124 142 149  124 142 149  124 142 149  124 142 149  124 142 149  124 142 149  124 142 149  124 142 149  124 142 149  124 142 149  124 142 149  124 142 149  124 142 149  124 142 149  124 142 149  124 142 149  124 142 149  124 142 149  124 142 149  124 142 149  124 142 149  124 142 149  124 142 149  124 142 149  124 142 149  124 142 149  124 142 149  124 142 149  124 142 149  124 142 149  124 142 149  124 142 149  124 142 149  124 142 149  124 142 149  124 142 149  124 142 149  124 142 149  124 142 149  124 142 149  124 142 149  124 142 149  124 142 149  124 142 149  124 142 149  124 142 149  124 142 149  124 142 149  124 142 149  124 142 149  124 142 149  124 142 149  124 142 149  124 142 149  124 142 149  124 142 149  124 142 149  124 142 149  124 142 149  124 142 149  124 142 149  124 142 149  124 142 149  124 142 149  124 142 149  124 142 149  124 142 149  124 142 149  124 142 149  124 142 149  124 142 149  124 142 149  124 142 149  124 142 149  124 142 149  124 142 149  124 142 149  124 142 149  124 142 149  124 142 149  124 142 149  124 142 149  124 142 149  124 142 149  124 142 149  124 142 149  124 142 149  124 142 149  124 142 149  124 142 149  124 142 149  124 142 149  124 142 149  124 142 149  124 142 149  124 142 149  124 142 149  124 142 149  124 142 149  124 142 149  124 142 149  124 142 149  124 142 149  124 142 149  124 142 149  124 142 149  124 142 149  124 142 149  124 142 149  124 142 149  124 142 149  124 142 149  124 142 149  124 142 149  124 142 149  124 142 149
124 142 149  124 142 149  124 142 149  124 142 149  124 142 149  124 142 149  124 142 149  124 142 149  124 142 149  124 142 149  124 142 149  124 142 149  124 142 149  124 142 149  124 142 149  124 142 149  124 142 149  124 142 149  124 142 149  124 142 149  124 142 149  124 142 149  124 142 149  124 142 149  124 142 149  124 142 149  124 142 149  124 142 149  124 142 149  124 142 149  124 142 149  124 142 149  124 142 149  124 142 149  124 142 149  124 142 149  124 142 149  124 142 149  124 142 149  124 142 149  124 142 149  124 142 149  124 142 149  124 142 149  124 142 149  124 142 149  124 142 149  124 142 149  124 142 149  124 142 149  124 142 149  124 142 149  124 142 149  124 142 149  124 142 149  124 142 149  124 142 149  124 142 149  124 142 149  124 142 149  124 142 149  124 142 149  124 142 149  124 142 149  124 142 149  124 142 149  124 142 149  124 142 149  124 142 149  124 142 149  124 142 149  124 142 149  124 142 149  124 142 149  124 142 149  124 142 149  124 142 149  124 142 149  124 142 149  124 142 149  124 142 149  124 142 149  124 142 149  124 142 149  124 142 149  124 142 149  124 142 149  124 142 149  124 142 149  124 142 149  124 142 149  124 142 149  124 142 149  124 142 149  124 142 149  124 142 149  124 142 149  124 142 149  124 142 149  124 142 149  124 142 149  124 142 149  124 142 149  124 142 149  124 142 149  124 142 149  124 142 149  124 142 149  124 142 149  124 142 149  124 142 149  124 142 149  124 142 149  124 142 149  124 142 149  124 142 149  124 142 149  124 142 149  124 142 149  124 142 149  124 142 149  124 142 149  124 142 149  124 142 149  124 142 149  124 142 149  124 142 149  124 142 149  124 142 149  124 142 149  124 142 149  124 142 149  124 142 149  124 142 149  124 142 149  124 142 149  124 142 149  124 142 149  124 142 149  124 142 149  124 142 149  124 142 149  124 142 149  124 142 149  124 142 149  124 142 149  124 142 149  124 142 149  124 142 149  124 142 149  124 142 149  124 142 149  124 142 149  124 142 149  124 142 149  124 142 149  124 142 149  124 142 149  124 142 149  124 142 149  124 142 149  124 142 149  124 142 149  124 142 149  124 142 149  124 142 149  124 142 149  124 142 149  124 142 149  124 142 149  124 142 149  124 142 149  124 142 149  124 142 149  124 142 149  124 142 149  124 142 149  124 142 149  124 142 149  124 142 149  124 142 149  124 142 149  124 142 149  124 142 149  124 142 149  124 142 149  124 142 149  124 142 149  124 142 149  124 142 149  124 142 149  124 142 149  124 142 149  124 142 149  124 142 149  124 142 149  124 142 149  124 142 149  124 142 149  124 142 149  124 142 149  124 142 149  124 142 149  124 142 149  124 142 149  124 142 149  124 142 149  124 142 149  124 142 149  124 142 149  124 142 149  124 142 149  124 142 149  124 142 149  124 142 149  124 142 149  124 142 149  124 142 149  124 142 149  124 142 149  124 142 149  124 142 149  124 142 149  124 142 149  124 142 149  124 142 149  124 142 149  124 142 149  124 142 149  124 142 149  124 142 149  124 142 149  124 142 149  124 142 149  124 142 149  124 142 149  124 142 149  124 142 149  124 142 149  124 142 149  124 142 149  124 142 149  124 142 149  124 142 149  124 142 149  124 142 149  124 142 149  124 142 149  124 142 149  124 142 149  124 142 149  124 142 149  124 142 149  124 142 149  124 142 149  124 142 149

