P3
# Stylized 2:1 night cinema skybox. Rows are stored top-to-bottom.
16 8
255
4 6 20 5 7 24 6 8 29 8 9 33 12 13 38 7 10 31 8 11 35 15 15 42 5 7 24 10 12 34 6 8 27 18 18 48 7 9 29 5 7 24 9 10 31 4 6 20
6 8 27 7 9 32 9 11 37 230 225 190 13 15 44 9 12 39 10 13 42 16 18 50 7 10 34 13 16 45 8 11 38 18 20 55 245 235 200 8 10 34 11 13 39 6 8 27
8 12 36 11 15 44 15 18 52 18 22 58 20 24 64 15 20 57 18 23 63 24 28 72 13 18 52 20 25 67 14 19 55 25 30 78 18 23 63 12 17 50 16 20 58 8 12 36
12 18 50 16 23 62 22 30 76 28 37 88 32 43 98 25 35 86 30 41 96 36 48 110 22 31 78 34 45 104 24 34 84 40 52 116 30 40 96 19 28 72 24 32 82 12 18 50
22 30 70 28 38 86 42 52 104 62 70 122 75 80 130 48 60 115 54 68 126 88 86 132 42 54 104 68 72 122 46 58 112 104 92 136 58 66 118 32 44 94 40 50 102 22 30 70
45 44 80 78 62 92 120 80 96 166 105 96 220 150 96 136 88 98 150 98 106 235 170 105 98 76 95 175 118 100 112 84 98 244 185 112 140 92 96 86 66 90 108 74 92 45 44 80
20 18 38 44 32 46 72 46 54 115 70 62 168 105 66 88 58 56 96 65 62 192 128 72 58 44 55 126 82 62 70 50 58 220 150 82 90 60 58 48 36 48 64 42 50 20 18 38
6 5 14 10 8 18 16 11 22 26 16 26 36 22 30 22 15 24 28 18 28 42 26 34 15 10 20 30 18 28 18 12 22 50 32 36 24 16 26 12 9 18 15 10 20 6 5 14
