P3
# Gray stone tile derived from assets/textures/space_stone_block.ppm,
# recolored with the assets/Bloques_Piedra palette.
32 32
255
123 115 114  134 125 124  134 125 124  125 117 117  120 113 112  126 119 118  138 128 127  140 130 129  134 125 124  123 115 114  122 114 113  131 122 121  135 126 125  127 119 118  115 108 108  110 104 104  122 114 113  131 123 121  131 123 121  122 114 113  116 109 109  123 115 114  136 126 125  142 132 131  141 131 130  132 124 122  134 125 124  145 134 133  154 142 141  149 138 137  137 128 126  131 122 121
119 112 111  159 147 145  154 143 141  145 135 133  146 136 134  158 146 144  173 162 160  173 162 160  130 121 120  159 147 145  167 155 153  181 170 168  184 173 171  170 159 157  155 144 142  155 143 142  134 125 124  178 166 164  167 155 153  152 141 139  147 137 135  155 143 142  167 155 153  168 156 154  126 119 118  154 143 141  162 150 148  180 168 166  189 178 176  181 170 168  170 158 156  171 160 158
126 118 117  159 147 145  148 138 136  139 129 128  141 132 130  153 142 140  160 148 146  155 143 142  117 110 110  151 140 138  164 152 150  179 168 166  179 168 166  166 155 153  159 147 145  167 155 153  146 136 134  189 178 176  176 165 163  159 147 145  159 147 145  170 158 156  176 165 163  167 155 153  122 115 114  152 141 139  159 147 145  173 162 160  173 162 160  162 150 148  155 143 142  162 150 148
138 129 127  170 158 156  153 142 140  146 136 134  151 140 138  159 147 145  159 147 145  148 137 136  109 103 103  145 135 133  158 146 144  167 155 153  160 148 146  151 140 138  151 140 138  164 152 150  145 134 133  185 174 172  173 162 160  165 153 151  173 162 160  187 176 174  189 178 176  175 163 161  130 121 120  164 152 150  175 163 161  181 170 168  171 160 158  155 144 142  151 140 138  159 147 145
140 130 129  170 158 156  156 145 143  155 144 142  167 155 153  176 165 163  169 157 155  153 142 140  116 109 109  154 142 141  183 172 170  164 152 150  152 141 139  143 133 131  146 136 134  158 146 144  136 126 125  167 155 153  156 145 143  156 145 143  171 160 158  186 175 173  186 175 173  173 162 160  133 124 123  178 167 165  192 181 179  194 183 181  179 168 166  164 152 150  162 150 148  173 162 160
129 120 119  154 143 141  149 138 137  155 143 142  171 160 158  179 168 166  170 159 157  156 145 143  139 129 128  190 180 178  199 189 187  192 181 179  173 162 160  148 138 136  153 142 140  164 152 150  133 124 123  156 145 143  147 137 135  150 139 137  164 152 150  173 162 160  168 156 154  156 145 143  127 119 118  178 166 164  193 183 181  192 181 179  179 168 166  170 159 157  178 166 164  192 181 179
119 112 112  143 133 131  139 129 128  148 138 136  162 150 148  165 154 152  155 144 142  150 139 137  139 130 128  195 185 183  204 194 192  195 184 182  179 168 166  159 147 145  171 160 158  180 168 166  139 130 128  160 148 146  152 141 139  156 145 143  169 157 155  169 157 155  156 145 143  147 137 135  121 113 113  170 158 156  181 170 168  175 163 161  162 150 148  164 152 150  178 167 165  193 183 181
122 114 113  144 133 132  142 132 131  151 140 138  158 146 144  153 142 140  143 133 131  153 142 140  133 124 123  187 176 174  190 180 178  179 168 166  171 160 158  179 168 166  178 167 165  186 175 173  142 132 131  167 155 153  165 153 151  176 165 163  184 173 171  178 166 164  159 147 145  152 141 139  126 119 118  173 162 160  175 163 161  161 149 147  152 141 139  154 143 141  170 159 157  181 170 168
131 123 121  123 115 114  126 118 117  134 125 124  136 126 125  125 117 117  113 107 107  112 106 106  139 129 128  146 136 134  141 132 130  131 123 121  129 120 119  125 117 116  137 128 126  139 130 128  136 126 125  130 121 120  136 126 125  148 137 136  154 142 141  146 136 134  136 126 125  133 124 123  146 136 134  152 141 139  146 136 134  133 124 123  125 117 117  130 121 120  140 130 129  140 131 129
126 118 117  159 147 145  171 160 158  185 174 172  183 172 170  167 155 153  155 144 142  159 147 145  152 141 139  197 186 184  183 172 170  166 155 153  165 153 151  159 147 145  169 157 155  164 152 150  123 115 114  153 142 140  165 154 152  182 171 169  185 174 172  175 163 161  167 155 153  173 162 160  153 141 140  203 193 191  193 183 181  178 166 164  175 163 161  186 175 173  194 183 181  187 176 174
113 107 107  151 140 138  167 155 153  178 167 165  173 162 160  161 149 147  159 147 145  171 160 158  148 138 136  188 177 175  190 180 178  160 148 146  164 152 150  176 165 163  178 166 164  164 152 150  120 113 112  153 142 140  165 153 151  175 163 161  170 158 156  156 145 143  154 142 141  165 154 152  147 137 135  192 181 179  181 170 168  173 162 160  180 168 166  197 186 184  203 193 191  193 183 181
109 103 103  148 138 136  160 148 146  164 152 150  155 143 142  147 137 135  152 141 139  167 155 153  145 134 133  180 168 166  167 155 153  165 154 152  178 166 164  190 180 178  187 176 174  171 160 158  130 121 120  169 157 155  181 170 168  183 172 170  168 156 154  154 142 141  153 142 140  165 153 151  141 132 130  176 165 163  162 150 148  159 147 145  173 162 160  189 178 176  193 183 181  183 172 170
118 111 111  159 147 145  169 157 155  162 150 148  149 138 137  142 132 131  148 138 136  161 149 147  134 125 123  161 149 147  153 142 140  156 145 143  174 163 161  186 175 173  181 170 168  168 156 154  134 125 124  183 172 170  195 184 182  193 183 181  176 165 163  164 152 150  167 155 153  179 168 166  146 136 134  173 162 160  158 146 144  157 145 143  170 158 156  181 170 168  176 165 163  164 152 150
129 120 119  178 166 164  183 172 170  171 160 158  154 143 141  151 140 138  158 146 144  167 155 153  131 123 121  153 142 140  146 136 134  153 142 140  167 155 153  171 160 158  162 150 148  153 142 140  129 120 119  181 170 168  192 181 179  187 176 174  175 163 161  171 160 158  183 172 170  195 184 182  154 142 141  181 170 168  169 157 155  172 160 158  184 173 171  186 175 173  173 162 160  158 146 144
129 120 119  181 170 168  183 172 170  171 160 158  159 147 145  164 152 150  176 165 163  183 172 170  138 128 127  158 146 144  154 143 141  162 150 148  172 160 158  167 155 153  153 142 140  146 136 134  123 115 114  173 162 160  178 166 164  168 156 154  159 147 145  164 152 150  181 170 168  193 183 181  151 140 138  181 170 168  176 165 163  189 178 176  200 189 187  197 186 184  181 170 168  167 155 153
123 115 114  169 157 155  167 155 153  155 144 142  153 142 140  164 152 150  181 170 168  184 173 171  138 129 127  165 154 152  169 157 155  182 171 169  187 176 174  175 163 161  158 146 144  153 142 140  131 123 121  178 166 164  172 160 158  156 145 143  151 140 138  158 146 144  173 162 160  179 168 166  137 128 126  165 154 152  170 159 157  189 178 176  200 189 187  195 184 182  181 170 168  176 165 163
130 121 120  133 124 123  125 117 116  115 108 108  116 109 109  127 119 118  138 128 127  136 126 125  131 123 121  129 120 119  138 128 127  150 139 138  152 141 139  143 133 131  134 125 124  136 126 125  150 139 137  154 142 141  145 134 133  131 123 121  127 119 118  134 125 124  142 132 131  139 129 128  131 123 121  125 117 117  132 124 122  145 134 133  148 138 136  141 132 130  134 125 124  139 129 128
142 132 131  178 167 165  161 149 147  151 140 138  153 142 140  164 152 150  170 158 156  159 147 145  119 112 112  154 142 141  169 157 155  183 172 170  181 170 168  169 157 155  165 153 151  178 166 164  155 143 142  201 191 189  151 140 138  141 132 130  144 133 132  192 181 179  197 186 184  184 173 171  134 125 124  167 155 153  178 166 164  187 176 174  183 172 170  167 155 153  159 147 145  169 157 155
149 138 137  184 173 171  169 157 155  162 150 148  170 159 157  181 170 168  178 166 164  160 148 146  120 113 112  156 145 143  170 158 156  175 163 161  164 152 150  153 142 140  154 143 141  169 157 155  147 137 135  149 138 137  140 131 129  138 128 127  146 136 134  159 147 145  202 191 189  189 178 176  141 132 130  184 173 171  197 186 184  201 191 189  189 178 176  171 160 158  165 154 152  176 165 163
143 133 131  174 163 161  164 152 150  167 155 153  183 172 170  192 181 179  184 173 171  168 156 154  131 122 121  175 163 161  186 175 173  182 171 169  165 153 151  153 142 140  156 145 143  170 158 156  111 105 105  137 128 126  127 119 118  129 120 119  141 131 130  152 141 139  150 139 137  176 165 163  139 129 128  190 179 177  206 196 194  208 198 196  194 183 181  181 170 168  183 172 170  195 184 182
131 122 121  155 143 142  151 140 138  159 147 145  176 165 163  184 173 171  175 163 161  164 152 150  136 126 125  188 177 175  198 187 185  190 180 178  173 162 160  165 154 152  174 163 161  147 137 135  115 108 108  137 127 126  126 119 118  130 121 120  140 131 129  145 134 133  137 128 126  128 120 119  130 121 120  183 172 170  197 186 184  195 184 182  183 172 170  178 167 165  190 180 178  206 196 194
129 120 119  151 140 138  147 137 135  156 145 143  169 157 155  168 156 154  156 145 143  152 141 139  130 121 120  183 172 170  190 180 178  181 170 168  170 159 157  173 162 160  188 177 175  156 145 143  122 114 113  143 133 131  137 128 126  143 133 131  151 140 138  148 137 136  136 126 125  126 118 117  130 121 120  181 170 168  186 175 173  176 165 163  165 153 151  167 155 153  183 172 170  198 187 185
135 126 125  158 146 144  158 146 144  169 157 155  175 163 161  164 152 150  150 139 138  147 137 135  126 119 118  175 163 161  174 163 161  162 150 148  156 145 143  166 155 153  184 173 171  153 141 140  116 109 109  141 132 130  144 133 132  154 143 141  162 150 148  155 143 142  142 132 131  136 127 126  143 133 131  194 183 181  190 180 178  173 162 160  161 149 147  165 154 152  181 170 168  187 176 174
134 125 124  165 154 152  173 162 160  187 176 174  187 176 174  171 160 158  156 145 143  156 145 143  136 126 125  179 168 166  169 157 155  154 143 141  151 140 138  161 149 147  175 163 161  175 163 161  102 97 97  131 122 121  139 129 128  152 141 139  158 146 144  151 140 138  141 132 130  179 168 166  155 143 142  208 198 196  200 189 187  183 172 170  175 163 161  183 172 170  193 183 181  189 178 176
127 119 118  129 120 119  140 131 129  151 140 138  149 138 137  139 129 128  133 124 123  140 130 129  154 142 141  154 142 141  142 132 131  131 122 121  131 122 121  139 130 128  144 134 132  136 127 126  129 120 119  96 92 92  105 100 100  116 109 109  116 109 109  107 101 101  132 124 122  140 131 129  158 146 144  165 153 151  156 145 143  147 137 135  148 138 136  159 147 145  168 156 154  159 147 145
117 110 110  155 144 142  171 160 158  181 170 168  174 163 161  162 150 148  165 153 151  181 170 168  155 144 142  198 188 186  184 173 171  176 165 163  184 173 171  197 186 184  197 186 184  181 170 168  134 125 124  171 160 158  146 136 134  151 140 138  144 133 132  164 152 150  160 148 146  173 162 160  151 140 138  193 183 181  181 170 168  176 165 163  186 175 173  204 194 192  211 201 199  201 191 189
122 114 113  162 150 148  174 163 161  173 162 160  159 147 145  151 140 138  156 145 143  173 162 160  146 136 134  181 170 168  170 158 156  171 160 158  187 176 174  201 191 189  198 188 186  184 173 171  141 132 130  189 178 176  202 191 189  202 191 189  186 175 173  170 159 157  170 159 157  183 172 170  152 141 139  184 173 171  169 157 155  165 154 152  179 168 166  194 183 181  195 184 182  183 172 170
133 124 123  181 170 168  189 178 176  180 168 166  162 150 148  154 143 141  161 149 147  173 162 160  140 130 129  165 154 152  155 144 142  162 150 148  179 168 166  189 178 176  182 171 169  170 159 157  139 129 128  193 183 181  207 197 195  204 194 192  189 178 176  181 170 168  189 178 176  201 191 189  161 149 147  191 180 178  175 163 161  175 163 161  187 176 174  194 183 181  184 173 171  169 157 155
138 128 127  192 181 179  197 186 184  186 175 173  171 160 158  169 157 155  181 170 168  188 177 175  144 134 132  167 155 153  158 146 144  166 155 153  179 168 166  179 168 166  165 154 152  156 145 143  132 123 122  185 174 172  195 184 182  189 178 176  178 166 164  179 168 166  194 183 181  208 198 196  165 153 151  195 184 182  187 176 174  193 183 181  206 196 194  206 196 194  190 179 177  174 163 161
132 123 122  184 173 171  187 176 174  175 163 161  167 155 153  176 165 163  192 181 179  197 186 184  149 138 137  176 165 163  174 163 161  185 174 172  192 181 179  184 173 171  165 154 152  158 146 144  134 125 124  184 173 171  184 173 171  171 160 158  162 150 148  169 157 155  186 175 173  197 186 184  152 141 139  184 173 171  185 174 172  200 189 187  214 204 202  211 201 199  195 184 182  186 175 173
130 121 120  175 163 161  169 157 155  156 145 143  155 144 142  169 157 155  186 175 173  187 176 174  141 132 130  174 163 161  183 172 170  198 188 186  203 193 191  191 180 178  175 163 161  173 162 160  148 137 136  197 186 184  189 178 176  170 159 157  162 150 148  170 159 157  184 173 171  184 173 171  139 129 128  168 156 154  175 163 161  193 183 181  203 193 191  197 186 184  185 174 172  186 175 173
140 131 129  179 168 166  165 154 152  153 141 140  153 142 140  165 154 152  176 165 163  170 158 156  127 119 118  161 149 147  176 165 163  192 181 179  194 183 181  183 172 170  175 163 161  183 172 170  158 146 144  208 198 196  197 186 184  181 170 168  178 166 164  189 178 176  197 186 184  187 176 174  137 128 126  167 155 153  176 165 163  189 178 176  190 180 178  178 166 164  169 157 155  176 165 163
