P3
# Stylized wood tile derived from assets/Bloques_Madera palette.
32 32
255
96 57 24  122 72 30  129 76 32  126 74 31  123 72 30  121 71 30  111 66 27  88 52 21  72 42 18  72 42 18  75 44 18  80 47 20  80 47 20  85 50 21  103 61 25  118 70 29  116 69 29  109 64 27  108 64 27  114 67 28  114 67 28  99 58 24  83 49 20  81 48 20  82 49 20  77 46 19  72 42 18  72 42 18  89 53 22  111 65 27  118 70 29  120 71 29
146 86 36  196 116 48  188 111 46  177 104 43  173 102 43  178 105 44  183 108 45  175 103 43  155 91 38  143 84 35  143 84 35  148 87 36  156 92 38  172 101 42  189 112 46  189 111 46  173 102 42  160 95 39  161 95 40  175 103 43  190 112 47  189 111 46  171 100 42  155 91 38  147 87 36  142 84 35  142 84 35  156 92 38  177 104 43  184 108 45  178 105 44  134 79 33
154 91 38  185 109 45  168 99 41  157 92 38  152 90 37  156 92 38  170 100 42  181 107 45  175 103 43  163 96 40  158 93 39  163 96 40  175 103 43  190 112 47  193 114 47  174 102 43  151 89 37  141 83 35  143 84 35  157 92 38  179 106 44  194 115 48  187 110 46  169 100 42  157 92 39  153 90 38  160 94 39  175 103 43  182 107 45  172 101 42  159 94 39  116 68 28
145 85 36  166 98 41  152 90 37  146 86 36  141 83 35  138 82 34  149 88 37  171 101 42  185 109 45  183 108 45  180 106 44  184 108 45  193 114 47  196 116 48  180 106 44  152 89 37  135 80 33  132 78 32  133 78 33  137 81 34  155 91 38  179 106 44  189 112 47  180 106 44  169 100 42  167 98 41  175 103 43  181 107 45  171 101 42  154 90 38  147 86 36  108 64 27
126 74 31  152 89 37  151 89 37  153 90 38  147 87 36  136 80 34  134 79 33  152 90 37  178 105 44  192 113 47  195 115 48  198 117 49  198 117 49  185 109 45  157 93 39  136 80 33  135 79 33  138 82 34  137 81 34  133 78 33  135 80 33  154 91 38  174 103 43  179 106 44  175 103 43  173 102 42  174 103 43  169 100 41  153 90 37  142 84 35  149 88 37  118 69 29
111 66 27  153 90 38  165 97 40  170 100 42  165 97 40  150 89 37  135 80 33  137 81 34  160 94 39  184 108 45  195 115 48  196 115 48  187 110 46  164 96 40  140 83 34  137 81 34  148 87 36  154 91 38  153 90 38  144 85 35  131 77 32  131 77 32  148 87 36  162 95 40  165 97 41  163 96 40  158 93 39  146 86 36  138 81 34  147 87 36  166 98 41  137 81 34
111 66 27  169 99 41  183 108 45  186 109 46  181 106 44  170 100 42  151 89 37  137 81 34  145 85 36  165 97 41  179 105 44  179 105 44  165 97 41  145 86 36  139 82 34  153 90 38  165 97 41  169 100 42  168 99 41  161 95 39  142 83 35  123 72 30  122 72 30  134 79 33  141 83 35  141 83 35  134 79 33  127 75 31  137 81 34  166 98 41  187 110 46  155 91 38
126 74 31  188 111 46  193 114 47  188 111 46  183 108 45  181 107 44  172 101 42  154 91 38  144 85 35  151 89 37  160 94 39  158 93 39  148 87 36  141 83 35  152 90 37  171 100 42  174 103 43  171 101 42  171 101 42  170 100 42  157 93 39  130 77 32  110 65 27  109 64 27  114 67 28  116 68 28  115 68 28  124 73 30  152 90 37  185 109 46  199 117 49  158 93 39
146 86 36  197 116 48  187 110 46  173 102 43  169 100 42  176 104 43  184 108 45  176 104 43  158 93 39  150 89 37  150 88 37  148 87 36  145 86 36  153 90 38  171 101 42  179 105 44  168 99 41  159 93 39  158 93 39  164 97 40  165 97 40  144 85 35  114 67 28  100 59 25  100 59 24  104 61 25  113 67 28  138 81 34  172 102 42  194 115 48  193 114 47  144 85 35
158 93 39  189 111 46  167 98 41  151 89 37  148 87 36  159 94 39  179 105 44  190 112 47  180 106 44  165 97 41  157 92 39  154 91 38  158 93 39  171 101 42  182 107 45  171 101 42  151 89 37  140 82 34  139 82 34  147 86 36  157 93 39  153 90 38  126 74 31  109 64 27  104 61 26  110 65 27  129 76 32  159 94 39  184 109 45  187 110 46  175 103 43  123 72 30
153 90 37  168 99 41  146 86 36  136 80 33  134 79 33  141 83 35  162 95 40  188 111 46  196 115 48  186 110 46  175 103 43  171 101 42  176 104 43  183 108 45  176 104 43  153 90 38  134 79 33  128 75 31  127 75 31  129 76 32  140 82 34  151 89 37  145 86 36  131 77 32  124 73 30  131 77 32  151 89 37  174 103 43  181 106 44  169 100 42  156 92 38  107 63 26
104 61 26  119 70 29  108 64 26  107 63 26  106 63 26  106 62 26  116 69 29  143 84 35  166 98 41  169 100 42  163 96 40  158 93 39  157 93 39  150 88 37  129 76 32  109 64 27  102 60 25  104 62 26  102 60 25  95 56 23  95 56 23  108 64 26  119 70 29  119 70 29  116 69 29  124 73 30  138 81 34  145 86 36  136 80 33  124 73 30  120 71 29  78 46 19
113 66 28  141 83 35  145 86 36  152 89 37  152 90 37  146 86 36  142 84 35  154 91 38  179 106 44  194 115 48  195 115 48  190 112 47  180 106 44  161 95 40  139 82 34  136 80 33  146 86 36  155 91 38  152 90 37  138 81 34  121 72 30  122 72 30  137 81 34  150 88 37  156 92 38  162 96 40  168 99 41  162 95 40  150 88 37  151 89 37  158 93 39  122 72 30
104 61 25  150 88 37  164 96 40  171 101 42  173 102 42  167 99 41  155 91 38  148 87 36  160 94 39  176 104 43  182 107 45  176 104 43  161 95 40  141 83 35  133 79 33  150 88 37  171 101 42  180 106 44  177 104 43  162 95 40  136 80 33  118 69 29  122 72 30  138 81 34  150 89 37  157 92 38  156 92 38  148 87 36  148 87 36  162 96 40  177 104 43  140 82 34
111 65 27  168 99 41  179 106 44  181 107 45  184 108 45  186 109 46  177 104 43  158 93 39  150 88 37  156 92 38  160 94 39  154 91 38  141 83 35  132 78 32  145 85 35  172 101 42  191 112 47  195 115 48  192 113 47  183 108 45  160 94 39  131 77 32  117 69 29  125 74 31  137 81 34  144 85 35  144 85 35  145 86 36  161 95 40  182 107 45  191 112 47  148 87 36
129 76 32  182 107 45  180 106 44  175 103 43  179 105 44  190 112 47  194 114 48  178 105 44  157 92 38  146 86 36  143 84 35  137 81 34  133 78 33  141 83 35  166 98 41  188 111 46  194 114 48  192 113 47  191 112 47  190 112 47  180 106 44  155 91 38  130 76 32  123 73 30  130 76 32  137 81 34  144 85 35  158 93 39  181 107 44  195 115 48  190 112 47  139 82 34
144 85 35  181 107 44  166 98 41  158 93 39  162 95 40  178 105 44  195 115 48  196 115 48  175 103 43  153 90 38  141 83 35  137 81 34  142 83 35  161 95 39  184 108 45  190 112 47  181 107 44  174 102 43  173 102 42  180 106 44  186 110 46  177 104 43  154 91 38  139 82 34  138 81 34  145 85 36  157 93 39  178 105 44  196 116 48  192 113 47  173 102 43  118 70 29
144 85 35  165 97 40  146 86 36  141 83 35  146 86 36  159 94 39  182 107 45  198 117 49  191 113 47  171 101 42  155 91 38  152 89 37  161 95 40  179 106 44  187 110 46  176 104 43  162 95 40  155 92 38  154 91 38  158 93 39  171 101 42  182 107 45  176 104 43  162 95 40  157 92 38  163 96 40  178 105 44  195 115 48  196 115 48  174 103 43  151 89 37  99 58 24
129 76 32  144 85 35  134 79 33  137 81 34  142 84 35  148 87 36  162 95 40  184 109 45  195 115 48  186 110 46  174 102 43  171 101 42  179 105 44  185 109 45  175 103 43  158 93 39  150 89 37  150 88 37  147 86 36  142 84 35  149 88 37  168 99 41  181 107 45  181 106 44  179 105 44  184 109 45  195 115 48  198 117 49  180 106 44  152 90 37  137 81 34  93 55 23
107 63 26  133 78 33  138 81 34  150 88 37  156 92 38  152 90 37  151 89 37  163 96 40  181 107 45  187 110 46  183 108 45  181 107 45  182 107 45  174 102 43  157 92 38  148 87 36  155 91 38  161 95 39  156 92 38  143 84 35  135 80 33  148 87 36  171 101 42  186 109 46  192 113 47  196 116 48  198 117 49  185 109 45  158 93 39  140 83 34  140 83 34  104 61 26
93 55 23  138 81 34  157 92 39  172 101 42  177 105 44  171 101 42  155 91 38  148 87 36  159 94 39  172 101 42  176 104 43  175 103 43  169 100 42  155 92 38  146 86 36  155 91 38  172 101 42  180 106 44  175 103 43  158 93 39  138 81 34  134 79 33  152 90 37  175 103 43  188 111 46  192 113 47  184 108 45  163 96 40  144 85 35  145 85 36  156 92 38  124 73 30
96 56 24  157 92 38  178 105 44  189 112 47  194 115 48  191 112 47  172 102 42  149 88 37  142 84 35  150 88 37  157 93 39  157 93 39  150 89 37  143 84 35  151 89 37  174 103 43  191 113 47  193 114 47  188 111 46  176 104 43  155 91 38  136 80 33  138 81 34  156 92 38  171 101 42  174 102 43  163 96 40  148 87 36  147 86 36  162 95 40  175 103 43  139 82 34
84 49 21  147 87 36  159 94 39  162 96 40  167 98 41  170 100 42  161 95 40  135 80 33  112 66 27  106 62 26  109 64 27  111 65 27  110 65 27  117 69 29  141 83 35  164 97 40  169 100 41  162 96 40  157 93 39  155 91 38  145 85 36  124 73 30  110 65 27  115 68 28  125 74 31  127 75 31  121 71 30  120 70 29  134 79 33  149 88 37  152 90 37  110 65 27
133 78 33  185 109 45  181 107 45  178 105 44  181 107 45  191 112 47  196 116 48  182 107 45  155 91 38  136 80 33  133 78 33  135 80 33  144 85 35  164 97 40  190 112 47  199 117 49  188 111 46  174 103 43  169 100 42  175 103 43  181 107 45  174 102 43  156 92 38  148 87 36  149 88 37  150 89 37  152 90 37  163 96 40  180 106 44  183 108 45  172 101 42  125 74 31
142 84 35  176 104 43  164 97 40  159 94 39  162 95 40  171 101 42  185 109 45  189 112 46  173 102 43  152 90 37  144 85 35  148 87 36  163 96 40  186 110 46  199 117 49  188 111 46  167 98 41  152 90 37  148 87 36  155 91 38  173 102 42  185 109 45  178 105 44  166 98 41  160 94 39  161 95 40  168 99 41  181 107 45  185 109 46  171 101 42  153 90 37  106 63 26
135 80 33  158 93 39  149 88 36  149 88 37  150 89 37  152 90 37  163 96 40  180 106 44  183 108 45  172 101 42  165 97 40  169 100 42  184 109 45  197 116 48  191 112 47  167 98 41  148 87 36  139 82 34  135 79 33  137 81 34  154 91 38  180 106 44  192 113 47  187 110 46  181 106 44  180 106 44  186 110 46  189 111 46  175 103 43  150 88 37  137 81 34  97 57 24
117 69 29  144 85 35  147 87 36  155 91 38  155 91 38  148 87 36  145 85 36  159 94 39  176 104 43  182 107 45  182 107 45  187 110 46  195 115 48  192 113 47  171 101 42  150 88 37  143 85 35  143 84 35  139 82 34  133 78 33  138 82 34  163 96 40  189 111 46  198 117 49  197 116 48  195 115 48  192 113 47  180 106 44  154 91 38  135 79 33  135 80 33  104 61 26
102 60 25  144 85 35  161 95 40  174 102 43  173 102 42  159 93 39  141 83 35  140 82 34  157 93 39  175 103 43  184 109 45  190 112 47  188 111 46  174 102 43  153 90 38  148 87 36  155 91 38  159 94 39  156 92 38  146 86 36  137 81 34  147 86 36  172 102 42  192 113 47  197 116 48  194 114 48  182 107 45  159 94 39  136 80 33  135 79 33  150 89 37  124 73 31
100 59 24  160 94 39  183 108 45  193 113 47  190 112 47  177 104 43  153 90 38  134 79 33  139 82 34  157 92 39  171 101 42  177 104 43  170 100 42  156 92 38  149 88 37  160 95 39  173 102 43  177 104 43  175 103 43  167 98 41  152 90 37  144 85 35  155 91 38  173 102 43  182 107 45  177 104 43  161 95 39  140 82 34  133 79 33  150 89 37  172 101 42  145 85 36
114 67 28  182 107 45  198 116 49  199 117 49  196 115 48  189 112 46  172 101 42  146 86 36  133 78 33  140 83 34  153 90 38  158 93 39  154 91 38  150 89 37  161 95 40  179 105 44  185 109 45  182 107 45  181 107 45  182 108 45  174 103 43  157 93 39  149 88 37  155 92 38  160 95 39  155 91 38  142 83 35  134 79 33  147 87 36  172 101 42  187 110 46  153 90 38
136 80 33  196 116 48  196 116 48  188 111 46  184 108 45  186 109 46  183 108 45  165 97 41  144 85 35  138 81 34  143 84 35  148 87 36  151 89 37  161 95 40  180 106 44  189 111 46  181 107 44  171 101 42  172 101 42  183 108 45  190 112 47  179 105 44  160 94 39  150 88 37  147 86 36  141 83 35  137 81 34  145 85 36  168 99 41  185 109 45  186 110 46  145 85 36
152 90 37  154 90 38  139 82 34  127 75 31  122 72 30  127 75 31  138 82 34  139 82 34  124 73 31  111 65 27  109 64 27  113 67 28  123 72 30  140 82 34  152 89 37  142 84 35  123 72 30  111 65 27  113 67 28  128 76 31  149 88 37  155 91 38  140 82 34  120 71 30  109 64 27  104 61 26  108 63 26  124 73 31  141 83 35  141 83 35  131 77 32  126 74 31
