P3
# Stylized stone tile derived from assets/Bloques_Piedra palette.
32 32
255
72 90 82  80 100 91  80 100 91  74 92 84  70 88 80  75 93 85  82 103 94  84 105 95  80 100 91  72 90 82  71 89 81  77 97 88  80 101 92  75 94 86  66 83 76  63 79 72  71 89 81  78 97 89  78 97 89  71 89 81  67 84 76  72 90 82  81 101 92  85 107 97  84 106 96  79 98 90  80 100 91  87 109 99  93 117 106  90 113 103  82 102 93  78 97 88
69 87 79  97 121 110  94 117 107  88 109 100  88 110 100  96 120 109  104 130 118  104 130 118  77 96 88  96 121 110  101 126 115  108 135 123  110 137 125  103 128 117  95 118 108  94 118 107  80 100 91  106 133 121  101 126 115  92 115 105  89 111 101  94 118 107  101 126 115  101 127 115  75 93 85  94 117 107  98 123 112  108 134 122  112 140 128  108 135 123  102 128 116  103 129 117
74 93 85  97 121 111  90 112 102  83 104 94  85 106 96  93 116 105  97 122 111  94 118 107  68 85 77  91 114 104  99 124 113  107 134 122  107 134 122  100 126 114  97 121 110  101 126 115  88 110 100  112 140 128  105 132 120  97 121 111  97 121 110  102 128 116  106 132 120  101 126 115  72 89 81  92 115 104  97 121 110  104 130 119  104 130 119  98 123 112  94 118 107  99 123 112
83 103 94  102 128 116  93 116 106  88 110 100  91 114 104  97 121 110  97 121 110  89 112 102  63 78 71  88 109 100  96 120 109  101 126 114  97 122 111  91 114 104  92 114 104  100 124 113  87 109 99  110 138 125  104 130 118  100 125 113  104 130 118  111 139 126  112 140 128  105 131 119  76 96 87  99 124 113  105 131 119  108 135 123  103 129 117  95 118 108  91 114 104  97 121 110
84 105 95  102 128 117  95 119 109  95 118 108  101 126 115  106 132 120  102 127 116  93 116 105  67 84 76  93 117 106  109 136 124  99 124 113  92 115 105  86 107 97  88 110 100  96 120 109  81 101 92  101 126 115  95 119 108  95 119 108  103 129 117  111 138 126  111 138 126  104 130 118  79 99 90  107 133 121  114 142 129  115 143 130  107 134 122  99 124 113  98 123 112  104 130 118
76 95 87  94 117 107  90 113 102  94 118 107  103 129 117  107 134 122  103 128 117  95 119 109  83 104 95  113 141 128  117 147 133  114 142 129  104 130 119  90 112 102  93 116 106  99 124 113  79 99 90  95 119 108  89 111 101  91 113 103  99 124 113  104 130 119  101 127 115  95 119 109  75 94 86  106 133 121  114 143 130  114 142 130  107 134 122  103 128 117  106 133 121  113 142 129
70 87 79  86 107 97  83 104 95  90 112 102  98 123 112  100 125 114  95 118 108  91 113 103  84 104 95  116 144 132  120 150 136  115 144 131  107 134 122  97 121 110  103 129 117  108 134 122  84 104 95  97 122 111  92 115 105  95 119 109  102 127 116  102 127 116  95 119 108  89 111 101  71 88 80  102 128 116  108 135 122  105 131 119  99 123 112  99 124 112  107 133 121  114 143 130
71 89 81  86 108 98  85 107 97  92 114 104  96 120 110  93 116 106  86 107 98  93 116 106  79 99 90  111 139 126  113 141 128  107 134 122  103 129 117  107 134 122  107 133 121  111 138 126  85 107 97  101 126 115  100 125 113  105 132 120  110 137 125  106 133 121  97 121 110  92 115 104  75 93 85  104 130 119  105 131 119  98 122 111  92 115 104  94 117 107  103 128 117  108 135 123
78 97 89  72 90 82  74 93 84  80 100 91  81 101 92  74 92 84  65 82 74  65 81 74  83 104 95  88 110 100  85 106 97  78 97 89  76 95 86  73 92 83  82 102 93  84 104 95  81 101 92  77 96 88  81 101 92  89 112 102  93 117 106  88 110 100  81 101 92  79 99 90  88 110 100  92 115 105  88 110 101  79 99 90  74 92 84  77 96 88  84 105 95  84 105 96
74 93 84  96 121 110  103 129 117  110 138 125  109 136 124  101 126 115  95 118 108  97 121 110  92 115 105  116 145 132  109 136 124  100 126 114  100 125 113  97 121 110  102 127 116  99 124 113  72 90 82  93 116 106  100 125 114  108 136 123  110 138 125  105 131 119  101 126 114  104 130 119  92 116 105  119 149 136  114 143 130  106 133 121  105 131 119  110 138 126  115 143 131  111 139 126
65 82 75  92 114 104  101 126 114  107 133 121  104 130 119  98 122 111  97 121 110  103 129 117  90 112 102  112 139 127  113 141 128  97 122 111  99 124 113  105 132 120  106 133 121  99 124 113  70 88 80  93 116 106  100 125 113  105 131 119  102 128 116  95 119 108  93 117 106  100 125 114  89 111 101  114 142 129  108 135 123  104 130 118  108 134 122  116 145 132  119 149 136  114 143 130
62 78 71  90 112 102  97 122 111  100 124 113  94 118 107  89 111 101  92 115 105  101 126 115  87 109 99  108 134 122  101 126 115  100 125 114  106 133 121  113 141 128  111 139 127  103 129 117  77 96 87  102 127 116  108 135 123  109 136 124  101 127 115  93 117 106  93 116 106  100 125 113  85 106 96  105 132 120  98 123 112  97 121 110  104 130 118  112 140 128  114 143 130  109 136 124
69 86 78  97 121 110  102 127 116  99 123 112  90 113 102  85 107 97  90 112 102  98 122 111  80 99 91  98 122 111  93 116 105  95 119 109  104 131 119  111 138 126  108 135 123  101 127 115  80 100 91  109 136 124  115 144 131  114 143 130  106 132 120  99 124 113  101 126 115  107 134 122  88 110 100  104 130 118  96 120 109  96 119 109  102 128 117  108 135 123  106 132 120  99 124 113
76 95 86  106 133 121  109 136 124  103 129 117  94 117 107  91 114 104  96 120 110  101 126 115  78 97 89  93 116 106  88 110 100  93 116 105  101 126 115  103 129 117  98 123 112  93 116 106  76 95 86  108 135 123  114 142 130  111 139 127  105 131 119  103 129 117  109 136 124  115 144 131  93 117 106  108 135 123  102 127 116  104 129 118  110 137 125  111 138 126  104 130 118  96 120 109
76 95 86  108 135 122  109 136 124  103 129 117  97 121 111  99 124 113  106 132 121  109 136 124  82 103 94  96 120 110  94 117 107  99 123 112  104 129 118  101 126 115  93 116 105  88 110 100  72 90 82  104 130 118  106 133 121  101 127 115  96 121 110  99 124 113  108 135 123  114 143 130  91 114 104  108 135 122  106 132 120  112 140 127  118 147 134  116 145 132  108 135 123  101 126 115
72 90 82  102 127 116  101 126 115  95 118 108  93 116 106  99 124 113  108 135 123  109 137 125  83 103 94  100 125 114  102 127 116  108 136 123  111 139 126  105 131 119  96 120 109  93 116 106  78 97 89  106 133 121  103 129 118  95 119 109  91 114 104  96 120 109  104 130 118  107 134 122  82 102 93  100 125 114  103 128 117  112 140 127  118 147 134  115 144 131  108 135 123  106 132 120
77 96 87  79 99 90  73 92 83  66 83 76  67 84 76  75 94 85  82 103 93  81 101 92  78 97 89  76 95 87  82 103 94  91 114 103  92 115 105  86 107 98  80 100 91  81 101 92  91 113 103  93 117 106  87 109 99  78 97 89  75 94 86  80 100 91  85 107 97  83 104 94  78 97 89  74 92 84  79 98 89  87 109 99  90 112 102  85 106 97  80 100 91  83 104 94
85 107 97  107 133 121  98 122 111  91 114 104  93 116 106  100 124 113  102 128 116  97 121 110  70 87 79  93 117 106  102 127 116  109 136 124  108 135 122  102 127 116  100 125 113  106 133 121  94 118 107  118 148 135  91 114 104  85 106 96  86 108 98  113 142 129  116 145 132  110 137 125  80 100 91  101 126 115  106 133 121  111 139 127  109 136 124  101 126 115  97 121 110  102 127 116
90 113 103  110 137 125  102 127 116  98 123 112  103 128 117  108 135 123  106 133 121  97 122 111  70 88 80  95 119 109  102 128 116  105 131 119  100 124 113  93 116 106  94 117 107  102 127 116  89 111 101  90 113 103  84 105 96  82 103 93  88 110 101  97 121 110  119 148 135  112 140 127  85 106 97  110 137 125  116 145 132  118 148 135  112 140 128  103 129 117  100 125 114  106 132 120
86 107 98  104 131 119  99 124 113  101 126 115  109 136 124  114 142 129  110 137 125  101 127 115  77 97 88  105 131 119  110 138 126  108 136 123  100 125 113  93 116 106  95 119 108  102 128 116  64 80 72  82 102 93  75 94 86  76 95 87  84 106 96  92 115 104  91 113 103  106 132 120  83 104 95  112 141 128  121 151 137  122 152 138  115 143 130  108 135 123  109 136 124  115 144 131
78 97 88  94 118 107  91 114 104  97 121 110  106 132 120  109 137 125  105 131 119  99 124 113  81 101 92  112 139 127  116 146 133  113 141 128  104 130 118  100 125 114  104 131 119  89 111 101  67 83 76  81 102 93  75 93 85  77 96 87  84 105 96  87 109 99  82 102 93  76 94 86  77 96 88  109 136 124  116 145 132  115 144 131  109 136 124  107 133 121  113 141 128  121 151 137
76 95 87  91 114 104  89 111 101  95 119 108  102 127 116  101 127 115  95 119 108  92 115 104  77 96 87  109 136 124  113 141 128  108 135 123  103 128 117  104 130 118  112 139 127  95 119 109  71 89 81  86 107 97  82 102 93  86 107 98  91 114 104  89 112 102  81 101 92  74 93 85  77 96 88  108 135 123  111 138 126  106 132 121  100 125 113  101 126 115  109 136 124  116 146 133
80 101 92  96 120 109  96 120 109  102 127 116  105 131 119  99 124 113  91 114 103  89 111 101  75 93 85  105 131 119  104 131 119  98 123 112  95 119 108  100 126 114  110 137 125  92 116 105  67 84 77  85 106 97  86 108 98  94 117 106  98 123 112  94 118 107  85 107 97  81 102 92  86 107 98  115 143 130  113 141 128  104 130 119  98 122 111  100 125 114  108 135 122  111 139 126
80 100 91  100 125 114  104 130 119  111 139 126  111 139 126  103 129 117  95 119 109  95 119 109  81 101 92  107 134 122  102 127 116  94 117 106  92 114 104  98 122 111  105 131 120  105 131 119  57 72 65  78 97 88  83 104 94  92 115 105  96 120 109  91 114 104  85 106 97  107 134 122  94 118 107  122 152 139  118 147 134  109 136 124  105 131 119  109 136 124  114 143 130  112 140 128
75 94 85  76 95 86  84 105 96  91 114 104  90 113 103  83 104 95  79 99 90  84 105 95  93 117 106  93 117 106  85 107 97  78 97 88  78 97 88  84 104 95  87 108 98  81 102 92  76 95 86  53 67 61  60 75 68  67 84 76  67 84 76  61 76 69  79 98 89  84 105 96  96 120 109  100 125 113  95 119 108  89 111 101  90 112 102  97 121 110  101 127 115  97 121 110
68 85 78  95 118 108  103 129 117  108 135 123  104 131 119  99 123 112  100 125 113  108 135 123  95 118 108  117 146 133  109 137 124  105 132 120  110 137 125  116 145 132  116 145 132  108 135 123  80 100 91  103 129 117  88 110 100  91 114 104  86 108 98  99 124 113  97 122 111  104 130 118  91 114 104  114 143 130  108 135 123  105 132 120  111 138 126  120 150 136  123 154 140  118 148 135
71 89 81  98 123 112  104 131 119  104 130 118  97 121 110  92 114 104  95 119 108  104 130 118  88 110 100  108 135 123  102 128 116  103 129 117  111 139 126  118 148 135  117 146 133  109 137 125  85 106 97  112 140 128  119 148 135  119 148 135  111 138 126  103 128 117  103 128 117  109 136 124  92 115 104  110 137 125  102 127 116  100 125 114  107 134 122  115 143 130  115 144 131  109 136 124
79 99 90  108 135 123  112 140 128  108 134 122  98 123 112  94 117 107  98 122 111  104 130 119  84 105 95  100 125 114  95 118 108  98 123 112  107 134 122  112 140 127  108 136 123  103 128 117  83 104 95  114 143 130  121 152 138  120 150 136  112 140 128  108 135 123  112 140 127  118 148 135  98 122 111  113 141 129  105 131 119  105 131 120  111 139 127  115 143 130  110 137 125  102 127 116
82 103 93  114 142 129  116 145 132  110 138 126  103 129 117  102 127 116  108 135 123  112 139 127  87 108 99  101 126 115  96 120 110  100 126 114  107 134 122  107 134 122  100 125 114  95 119 108  78 98 89  110 138 125  115 144 131  112 140 127  106 133 121  107 134 122  115 143 131  122 152 138  100 125 113  115 144 131  111 139 126  114 143 130  121 151 137  121 151 137  112 141 128  104 131 119
78 98 89  110 137 125  111 139 126  105 131 119  101 126 115  105 132 120  114 142 129  116 145 132  90 113 102  105 132 120  104 131 119  110 138 125  114 142 130  109 137 125  100 125 114  96 120 109  80 100 91  110 137 125  110 137 125  103 129 117  98 123 112  102 127 116  111 138 126  116 145 132  92 115 105  110 137 125  110 138 125  118 147 134  125 156 142  123 154 140  115 144 131  111 138 126
77 96 88  105 131 120  102 127 116  95 119 108  94 118 108  102 127 116  110 138 126  111 139 127  85 106 97  104 131 119  109 136 124  117 146 133  119 149 136  113 141 129  105 131 120  104 130 118  89 112 102  116 145 132  112 140 127  103 128 117  98 123 112  103 128 117  110 137 125  110 137 125  83 104 94  101 127 115  105 131 119  114 143 130  119 149 136  116 145 132  110 138 125  110 138 126
84 105 96  107 134 122  100 125 114  92 116 105  93 116 106  100 125 114  105 132 120  102 128 116  75 94 86  98 122 111  105 132 120  114 142 129  115 143 131  109 136 124  105 131 119  109 136 124  96 120 110  122 152 139  116 145 132  108 135 122  106 133 121  112 140 127  116 145 132  111 139 127  82 102 93  101 126 115  105 132 120  112 140 128  113 141 128  106 133 121  102 127 116  105 132 120
