P3
# Stylized ice tile derived from assets/Bloques_Hielo palette.
# Light blue ice with teal cracks and a diagonal highlight, tileable.
32 32
255
168 199 211  174 204 215  180 209 219  184 212 222  186 214 224  186 214 224  144 187 199  111 165 180  174 204 215  168 199 211  162 194 206  156 189 203  152 186 200  105 158 174  52 128 146  133 179 192  170 204 213  128 176 189  76 143 160  52 128 146  88 151 167  119 171 185  133 180 193  137 183 195  136 182 195  134 180 193  130 176 190  73 141 158  161 194 206  156 189 202  152 186 200  150 184 198
174 204 215  180 209 219  184 212 222  186 214 224  186 214 224  184 212 222  112 166 180  152 190 203  168 199 211  162 194 206  156 189 203  152 186 200  150 184 198  150 184 198  135 176 191  66 136 154  125 174 187  178 209 218  175 206 217  180 209 220  184 212 222  186 214 224  186 214 224  183 212 222  179 208 219  174 204 215  168 199 211  66 136 153  156 189 202  152 186 200  150 184 198  150 184 198
180 209 219  184 212 222  186 214 224  186 214 224  184 212 222  179 209 219  73 141 158  168 199 211  162 194 206  156 189 203  152 186 200  150 184 198  150 184 198  153 186 200  157 190 203  78 144 160  168 199 211  190 216 225  209 229 236  197 221 230  186 214 224  186 214 224  183 212 222  179 208 219  174 204 215  168 199 211  161 194 206  58 132 149  152 186 200  150 184 198  150 184 198  153 186 200
184 212 222  186 214 224  186 214 224  184 212 222  179 209 219  112 165 180  72 140 157  162 194 206  156 189 203  152 186 200  150 184 198  150 184 198  153 186 200  157 190 203  162 194 207  66 136 154  174 204 216  180 209 220  197 221 230  211 232 238  198 223 231  183 212 222  179 208 219  174 204 215  168 199 211  161 194 206  156 189 202  53 129 147  150 184 198  150 184 198  153 186 200  157 190 203
186 214 224  186 214 224  184 212 222  116 168 183  59 132 150  104 160 175  70 139 156  156 189 203  152 186 200  150 184 198  150 184 198  153 186 200  157 190 203  162 194 207  168 199 211  110 164 179  180 209 220  184 212 222  186 214 224  198 223 231  210 231 237  194 219 228  174 204 215  168 199 211  161 194 206  156 189 202  152 186 200  59 132 150  150 184 198  153 186 200  157 190 203  162 194 207
125 175 189  78 145 161  92 154 169  174 204 215  168 199 211  162 194 206  124 170 185  126 171 186  150 184 198  150 184 198  153 186 200  157 190 203  162 194 207  168 199 211  174 204 216  153 192 204  134 180 193  186 214 224  186 214 224  183 212 222  194 219 228  206 227 234  185 212 221  161 194 206  156 189 202  152 186 200  150 184 198  65 135 153  153 186 200  157 190 203  162 194 207  141 182 196
100 159 174  179 209 219  174 204 215  168 199 211  162 194 206  156 189 203  152 186 200  73 140 157  150 184 198  153 186 200  157 190 203  162 194 207  168 199 211  174 204 216  180 209 220  58 132 149  132 180 193  66 137 154  112 166 181  179 208 219  174 204 215  185 212 221  200 222 230  177 205 215  152 186 200  150 184 198  150 184 198  70 139 156  110 162 178  99 156 172  80 145 162  53 129 147
179 209 219  174 204 215  168 199 211  162 194 206  156 189 203  152 186 200  150 184 198  79 144 161  153 186 200  157 190 203  162 194 207  168 199 211  174 204 216  180 209 220  56 131 148  186 214 224  186 214 224  183 212 222  179 208 219  102 159 175  68 138 155  122 170 184  177 205 215  196 219 227  173 201 212  150 184 198  153 186 200  76 142 159  62 134 152  64 135 152  95 155 170  138 183 196
174 204 215  168 199 211  162 194 206  156 189 203  152 186 200  150 184 198  150 184 198  119 167 182  102 157 173  162 194 207  168 199 211  174 204 216  180 209 220  54 130 147  186 214 224  186 214 224  183 212 222  179 208 219  174 204 215  168 199 211  161 194 206  118 166 182  65 135 153  122 172 186  179 209 218  175 203 214  68 138 155  115 166 181  92 152 168  59 132 150  90 152 168  151 192 204
74 141 158  135 178 192  156 189 203  152 186 200  150 184 198  150 184 198  153 186 200  157 190 203  59 132 150  168 199 211  174 204 216  180 209 220  53 128 146  186 214 224  186 214 224  183 212 222  179 208 219  174 204 215  168 199 211  161 194 206  156 189 202  152 186 200  150 184 198  123 169 184  124 173 186  154 194 205  182 209 219  169 200 211  175 205 216  180 209 220  134 180 194  88 151 167
162 194 206  114 165 180  55 130 148  105 158 174  150 184 198  153 186 200  157 190 203  162 194 207  81 146 162  122 172 186  159 196 207  53 129 147  186 214 224  186 214 224  183 212 222  179 208 219  174 204 215  168 199 211  161 194 206  156 189 202  152 186 200  150 184 198  150 184 198  153 186 200  157 190 203  103 162 176  203 225 233  190 216 225  180 209 220  184 212 222  186 214 224  186 214 224
156 189 203  152 186 200  150 184 198  134 175 189  77 142 159  76 142 159  117 167 182  168 199 211  112 166 180  83 148 164  54 129 147  186 214 224  186 214 224  183 212 222  179 208 219  174 204 215  168 199 211  161 194 206  156 189 202  152 186 200  150 184 198  150 184 198  153 186 200  157 190 203  162 194 207  79 144 161  190 216 225  209 229 236  197 222 230  186 214 224  186 214 224  183 212 222
152 186 200  150 184 198  150 184 198  153 186 200  133 176 190  112 164 179  93 153 169  55 130 148  92 154 169  54 129 147  153 193 205  186 214 224  183 212 222  179 208 219  174 204 215  168 199 211  161 194 206  156 189 202  152 186 200  150 184 198  150 184 198  153 186 200  157 190 203  162 194 207  169 200 211  106 162 177  180 209 220  197 222 230  211 232 238  198 223 231  183 212 222  179 208 219
150 184 198  150 184 198  153 186 200  122 169 184  93 153 169  74 141 158  59 133 150  56 130 148  65 136 153  79 145 162  186 214 224  183 212 222  179 208 219  174 204 215  168 199 211  161 194 206  156 189 202  152 186 200  150 184 198  150 184 198  153 186 200  157 190 203  162 194 207  169 200 211  175 205 216  135 180 194  184 212 222  186 214 224  198 223 231  210 231 237  194 219 227  173 204 215
150 184 198  136 177 191  85 148 164  53 128 146  69 139 156  81 146 163  89 152 167  95 156 171  99 158 174  83 148 164  183 212 222  179 208 219  174 204 215  168 199 211  161 194 206  156 189 202  152 186 200  150 184 198  150 184 198  153 186 200  157 190 203  162 194 207  169 200 211  175 205 216  137 182 195  135 181 194  138 183 196  140 185 197  142 186 198  168 203 213  194 219 227  185 211 221
114 168 181  119 168 182  162 194 207  143 184 197  140 183 196  139 183 196  138 183 196  136 182 195  134 181 194  131 178 192  152 191 204  174 204 215  168 199 211  161 194 206  156 189 202  152 186 200  150 184 198  150 184 198  153 186 200  157 190 203  162 194 207  169 200 211  175 205 216  180 209 220  111 165 180  106 162 177  104 161 176  100 159 174  95 155 170  87 150 166  120 172 185  155 196 206
198 221 229  181 208 219  168 199 211  174 204 216  180 209 220  184 212 222  186 214 224  186 214 224  183 212 222  156 194 206  94 154 170  168 199 211  161 194 206  156 189 202  152 186 200  150 184 198  150 184 198  153 186 200  157 190 203  162 194 207  169 200 211  175 205 216  180 209 220  184 212 222  84 148 165  75 143 160  69 139 156  61 133 151  54 129 147  67 137 155  86 148 164  145 186 198
181 208 219  203 225 233  190 216 225  180 209 220  184 212 222  186 214 224  186 214 224  183 212 222  179 208 219  174 204 215  60 133 150  161 194 206  156 189 202  152 186 200  150 184 198  150 184 198  153 186 200  157 190 203  162 194 207  169 200 211  175 205 216  180 209 220  184 212 222  186 214 224  58 132 150  58 132 149  67 138 155  78 144 161  90 151 168  106 160 176  127 172 187  152 186 199
168 199 211  190 216 225  209 229 236  197 221 230  186 214 224  186 214 224  183 212 222  179 208 219  174 204 215  139 181 195  86 148 165  101 157 173  68 137 154  71 139 156  106 159 175  153 186 200  157 190 203  162 194 207  169 200 211  175 205 216  180 209 220  184 212 222  186 214 224  186 214 224  75 143 159  84 148 164  94 154 170  105 160 176  118 167 182  133 176 190  152 186 199  150 184 198
174 204 216  180 209 220  197 221 230  211 232 238  198 223 231  183 212 222  179 208 219  174 204 215  168 199 211  72 140 157  156 189 202  152 186 200  150 184 198  150 184 198  153 186 200  113 164 179  76 142 159  68 138 155  109 164 179  150 190 202  184 212 222  186 214 224  186 214 224  133 180 193  96 156 171  105 161 176  114 166 181  125 172 186  137 178 192  152 186 199  150 184 198  150 184 198
180 209 220  184 212 222  186 214 224  198 223 231  210 231 237  194 219 228  174 204 215  168 199 211  57 131 149  156 189 202  152 186 200  150 184 198  150 184 198  153 186 200  157 190 203  162 194 207  169 200 211  175 205 216  180 209 220  124 174 188  82 147 163  62 134 152  70 139 156  96 156 171  98 157 172  121 170 185  130 174 189  139 179 193  152 186 199  150 184 198  150 184 198  153 186 200
184 212 222  186 214 224  186 214 224  183 212 222  194 219 228  206 227 234  185 212 221  63 135 152  156 189 202  152 186 200  150 184 198  150 184 198  153 186 200  157 190 203  162 194 207  169 200 211  175 205 216  180 209 220  184 212 222  186 214 224  86 150 166  93 154 169  155 193 205  173 204 215  129 175 189  93 152 168  156 189 202  152 186 199  150 184 198  150 184 198  153 186 200  157 190 203
186 214 224  186 214 224  183 212 222  179 208 219  174 204 215  185 212 221  163 200 210  177 205 215  152 186 200  150 184 198  150 184 198  153 186 200  157 190 203  162 194 207  169 200 211  175 205 216  180 209 220  184 212 222  186 214 224  127 176 190  65 136 154  140 183 196  173 204 215  167 198 210  161 193 206  126 171 186  88 149 165  150 184 198  150 184 198  153 186 200  157 190 203  163 195 207
186 214 224  183 212 222  179 208 219  174 204 215  168 199 211  93 153 169  156 193 204  196 219 227  173 201 212  150 184 198  153 186 200  157 190 203  162 194 207  169 200 211  175 205 216  180 209 220  184 212 222  186 214 224  186 214 224  76 143 160  119 170 184  173 204 215  167 198 210  161 193 206  156 189 202  152 186 199  125 170 185  85 147 164  153 186 200  157 190 203  163 195 207  169 200 212
183 212 222  179 208 219  174 204 215  168 199 211  104 159 175  109 162 177  152 186 200  173 201 212  195 218 227  175 203 214  157 190 203  162 194 207  169 200 211  175 205 216  180 209 220  184 212 222  186 214 224  186 214 224  128 176 190  89 151 167  173 204 215  167 198 210  161 193 206  156 189 202  152 186 199  150 184 198  150 184 198  129 173 187  84 147 163  163 195 207  169 200 212  175 205 216
72 140 157  67 138 155  63 135 152  59 132 150  92 151 168  152 186 200  150 184 198  150 184 198  175 203 214  198 221 229  182 209 219  169 200 211  175 205 216  180 209 220  184 212 222  186 214 224  186 214 224  183 212 222  59 132 150  173 204 215  167 198 210  161 193 206  156 189 202  152 186 199  150 184 198  150 184 198  153 186 200  157 190 203  137 179 193  78 144 161  77 144 160  75 143 159
174 204 215  168 199 211  161 194 206  156 189 202  82 145 162  123 168 183  150 184 198  153 186 200  157 190 203  182 209 219  203 225 233  190 216 225  180 209 220  184 212 222  186 214 224  186 214 224  183 212 222  121 171 185  125 173 187  167 198 210  161 193 206  156 189 202  152 186 199  150 184 198  150 184 198  153 186 200  157 190 203  163 195 207  135 179 193  102 159 174  180 209 220  184 212 223
168 199 211  161 194 206  156 189 202  152 186 200  150 184 198  57 131 148  153 186 200  157 190 203  162 194 207  169 200 211  190 216 225  209 229 236  197 222 230  186 214 224  186 214 224  183 212 222  179 208 219  73 141 158  167 198 210  161 193 206  156 189 202  152 186 199  150 184 198  150 184 198  153 186 200  157 190 203  163 195 207  169 200 212  98 157 172  156 194 206  184 212 223  186 214 224
161 194 206  156 189 202  152 186 200  150 184 198  150 184 198  153 186 200  78 143 160  162 194 207  169 200 211  175 205 216  180 209 220  197 222 230  211 232 238  198 223 231  183 212 222  179 208 219  95 155 170  167 198 210  161 193 206  156 189 202  152 186 199  150 184 198  150 184 198  153 186 200  157 190 203  163 195 207  169 200 212  175 205 216  54 129 147  184 212 223  186 214 224  186 214 224
156 189 202  152 186 200  150 184 198  150 184 198  153 186 200  157 190 203  123 170 185  119 169 183  175 205 216  180 209 220  184 212 222  186 214 224  198 223 231  210 231 237  194 219 227  151 190 202  100 157 173  161 193 206  156 189 202  152 186 199  150 184 198  150 184 198  153 186 200  157 190 203  163 195 207  169 200 212  144 185 198  127 176 189  112 166 181  186 214 224  186 214 224  183 212 222
152 186 200  150 184 198  150 184 198  153 186 200  157 190 203  162 194 207  169 200 211  60 133 150  62 134 152  117 170 184  186 214 224  186 214 224  183 212 222  194 219 227  206 227 234  109 165 179  161 193 206  156 189 202  152 186 199  150 184 198  150 184 198  153 186 200  157 190 203  163 195 207  131 176 190  110 164 179  93 154 169  79 145 161  186 214 224  186 214 224  183 212 222  179 208 219
150 184 198  150 184 198  153 186 200  157 190 203  162 194 207  169 200 211  175 205 216  74 142 159  184 212 222  165 200 212  112 166 181  53 128 146  109 164 179  173 204 215  139 183 195  176 208 217  177 205 215  152 186 199  150 184 198  150 184 198  153 186 200  138 178 192  102 158 174  76 143 159  57 131 149  61 134 151  72 141 158  80 146 162  186 214 224  183 212 222  179 208 219  173 203 215
