P3
# Derived from assets/TNT/TNT_completo.png (Angry Birds Space TNT crate).
# Transparent corners filled with the crate outline color.
87 86
255
85 51 17  85 51 17  85 51 17  85 51 17  85 51 17  85 51 17  85 51 17  85 51 17  85 51 17  85 51 17  85 51 17  85 51 17  186 183 183  186 183 183  186 183 183  148 148 142  155 148 142  155 148 142  155 148 142  130 111 111  130 111 111  130 111 111  130 111 111  130 111 111  119 109 98  110 86 74  110 86 74  110 86 74  110 86 74  110 86 74  110 86 74  110 86 74  110 86 74  110 86 74  101 74 61  97 66 36  97 66 36  97 66 36  97 66 36  97 66 36  97 66 36  97 66 36  97 66 36  97 66 36  97 66 36  97 66 36  97 66 36  97 66 36  97 66 36  101 74 61  110 86 74  110 86 74  110 86 74  110 86 74  110 86 74  110 86 74  110 86 74  110 86 74  110 86 74  110 86 74  119 98 98  130 111 111  130 111 111  130 111 111  130 111 111  130 111 111  132 124 116  155 148 142  155 148 142  155 148 142  161 161 156  186 183 183  186 183 183  186 183 183  85 51 17  85 51 17  85 51 17  85 51 17  85 51 17  85 51 17  85 51 17  85 51 17  85 51 17  85 51 17  85 51 17  85 51 17  85 51 17
85 51 17  85 51 17  85 51 17  85 51 17  186 183 183  143 135 128  130 111 111  98 85 73  98 85 73  101 73 60  97 66 35  94 63 32  93 62 31  93 62 31  93 62 31  90 59 27  90 59 27  90 59 27  90 59 27  88 55 24  88 55 24  88 55 24  88 55 24  88 55 24  87 55 23  86 53 21  86 53 21  86 53 21  86 53 21  86 53 21  86 53 21  86 53 21  86 53 21  86 53 21  85 52 19  85 51 17  85 51 17  85 51 17  85 51 17  85 51 17  85 51 17  85 51 17  85 51 17  85 51 17  85 51 17  85 51 17  85 51 17  85 51 17  85 51 17  85 52 19  86 53 21  86 53 21  86 53 21  86 53 21  86 53 21  86 53 21  86 53 21  86 53 21  86 53 21  86 53 21  87 54 23  88 55 24  88 55 24  88 55 24  88 55 24  88 55 24  88 56 25  90 59 27  90 59 27  90 59 27  91 60 28  93 62 31  93 62 31  93 62 31  94 63 32  97 66 35  81 50 35  110 85 73  110 85 73  119 109 98  130 111 111  155 148 142  85 51 17  85 51 17  85 51 17  85 51 17  85 51 17
85 51 17  85 51 17  108 97 85  108 97 85  93 62 31  89 58 26  88 55 24  85 53 21  85 53 21  85 52 19  85 51 17  116 82 48  147 98 64  147 98 64  147 98 64  178 129 79  194 144 95  194 144 95  194 144 95  225 160 110  225 160 110  225 160 110  225 160 110  225 160 110  225 175 110  240 175 126  240 175 126  240 175 126  240 175 126  240 175 126  240 175 126  240 175 126  240 175 126  240 175 126  240 191 126  240 191 126  240 191 126  240 191 126  240 191 126  240 191 126  240 191 126  240 191 126  240 191 126  240 191 126  240 191 126  240 191 126  240 191 126  240 191 126  240 191 126  240 191 126  240 175 126  240 175 126  240 175 126  240 175 126  240 175 126  240 175 126  240 175 126  240 175 126  240 175 126  240 175 126  225 175 110  225 160 110  225 160 110  225 160 110  225 160 110  225 160 110  209 160 95  194 144 95  194 144 95  194 144 95  163 113 79  147 98 64  147 98 64  147 98 64  116 82 48  85 51 17  83 50 17  86 53 21  86 53 21  87 55 23  88 55 24  90 59 27  94 63 32  94 63 32  108 97 85  85 51 17  85 51 17
85 51 17  185 183 183  86 54 22  86 54 22  116 82 48  194 145 95  225 160 111  241 176 126  241 176 126  241 191 126  241 191 126  244 194 129  247 196 130  247 196 130  247 196 130  249 198 132  251 200 133  251 200 133  251 200 133  254 201 135  254 201 135  254 201 135  254 201 135  254 201 135  254 203 135  255 203 136  255 203 136  255 203 136  255 203 136  255 203 136  255 203 136  255 203 136  255 203 136  255 203 136  255 204 136  255 204 136  255 204 136  255 204 136  255 204 136  255 204 136  255 204 136  255 204 136  255 204 136  255 204 136  255 204 136  255 204 136  255 204 136  255 204 136  255 204 136  255 204 136  255 203 136  255 203 136  255 203 136  255 203 136  255 203 136  255 203 136  255 203 136  255 203 136  255 203 136  255 203 136  254 203 135  254 201 135  254 201 135  254 201 135  254 201 135  254 201 135  252 201 133  251 200 133  251 200 133  251 200 133  248 197 132  247 196 130  247 196 130  247 196 130  244 194 129  241 191 126  241 191 126  241 176 126  241 176 126  225 176 111  225 160 111  194 145 95  116 82 48  116 82 48  86 54 22  185 183 183  85 51 17
85 51 17  182 179 179  85 51 17  85 51 17  119 85 51  204 153 102  238 170 119  255 187 136  255 187 136  255 204 136  255 204 136  255 204 136  255 204 136  255 204 136  255 204 136  255 204 136  255 204 136  255 204 136  255 204 136  255 204 136  255 204 136  255 204 136  255 204 136  255 204 136  255 204 136  255 204 136  255 204 136  255 204 136  255 204 136  255 204 136  255 204 136  255 204 136  255 204 136  255 204 136  255 204 136  255 204 136  255 204 136  255 204 136  255 204 136  255 204 136  255 204 136  255 204 136  255 204 136  255 204 136  255 204 136  255 204 136  255 204 136  255 204 136  255 204 136  255 204 136  255 204 136  255 204 136  255 204 136  255 204 136  255 204 136  255 204 136  255 204 136  255 204 136  255 204 136  255 204 136  255 204 136  255 204 136  255 204 136  255 204 136  255 204 136  255 204 136  255 204 136  255 204 136  255 204 136  255 204 136  255 204 136  255 204 136  255 204 136  255 204 136  255 204 136  255 204 136  255 204 136  255 187 136  255 187 136  238 187 119  238 170 119  204 153 102  119 85 51  119 85 51  85 51 17  182 179 179  85 51 17
85 51 17  139 131 124  85 51 17  85 51 17  197 148 98  251 200 133  254 201 135  255 203 136  255 203 136  255 204 136  255 204 136  255 204 136  255 204 136  255 204 136  255 204 136  255 204 136  255 204 136  255 204 136  255 204 136  255 204 136  255 204 136  255 204 136  255 204 136  255 204 136  255 204 136  255 204 136  255 204 136  255 204 136  255 204 136  255 204 136  255 204 136  255 204 136  255 204 136  255 204 136  255 204 136  255 204 136  255 188 120  255 188 120  255 188 120  255 188 120  255 188 120  255 188 120  255 188 120  255 188 120  255 188 120  239 173 105  239 173 105  239 173 105  239 173 105  239 173 105  239 173 105  239 173 105  239 173 105  239 173 105  239 173 105  239 173 105  239 173 105  239 173 105  239 173 105  239 173 105  239 173 105  239 173 105  239 173 105  239 173 105  239 173 105  239 173 105  239 173 105  239 173 105  239 173 105  239 173 105  239 173 105  239 173 105  224 157 89  224 157 89  224 157 89  224 157 89  224 157 89  224 156 89  224 156 89  222 156 88  222 154 88  188 137 86  150 101 67  150 101 67  85 51 17  139 131 124  85 51 17
85 51 17  112 102 101  85 51 17  85 51 17  235 169 118  255 204 136  255 204 136  239 173 105  239 173 105  239 173 105  239 173 105  224 157 89  224 157 89  224 157 89  224 157 89  224 157 89  224 157 89  224 157 89  224 157 89  224 157 89  208 141 73  208 141 73  208 141 73  208 141 73  208 141 73  208 141 73  208 141 73  208 141 73  208 141 73  208 126 73  208 126 73  208 126 73  208 126 73  208 126 73  208 126 73  208 126 73  208 124 72  208 124 72  208 124 72  208 124 72  208 124 72  208 124 72  208 124 72  208 124 72  208 124 72  207 123 71  207 123 71  207 123 71  207 123 71  207 123 71  207 123 71  207 123 71  207 123 71  207 123 71  207 123 71  207 123 71  207 123 71  207 123 71  207 123 71  207 123 71  207 123 71  207 123 71  207 123 71  207 123 71  207 123 71  207 123 71  207 123 71  207 123 71  207 123 71  207 123 71  207 123 71  207 123 71  205 122 69  205 122 69  205 122 69  205 122 69  205 122 69  205 122 69  205 122 69  205 122 69  190 122 54  156 89 54  137 86 37  137 86 37  85 51 17  122 102 101  85 51 17
85 51 17  98 86 74  85 51 17  85 51 17  254 186 119  255 204 136  239 157 104  206 123 70  206 123 70  206 123 70  206 123 70  205 122 69  205 122 69  205 122 69  205 122 69  205 122 69  205 122 69  205 122 69  205 122 69  205 122 69  204 120 68  204 120 68  204 120 68  204 120 68  204 120 68  204 120 68  204 120 68  204 120 68  204 120 68  204 119 68  204 119 68  204 119 68  204 119 68  204 119 68  204 119 68  204 119 68  204 119 68  204 119 68  204 119 68  204 119 68  204 119 68  204 119 68  204 119 68  204 119 68  204 119 68  204 119 68  204 119 68  204 119 68  204 119 68  204 119 68  204 119 68  204 119 68  204 119 68  204 119 68  204 119 68  204 119 68  204 119 68  204 119 68  204 119 68  204 119 68  204 119 68  204 119 68  204 119 68  204 119 68  204 119 68  204 119 68  204 119 68  204 119 68  204 119 68  204 119 68  204 119 68  204 119 68  204 119 68  204 119 68  204 119 68  204 119 68  204 119 68  204 119 68  204 119 68  204 119 68  187 119 51  153 85 51  136 85 50  136 85 50  85 51 17  99 86 74  85 51 17
85 51 17  99 73 60  85 51 17  85 51 17  255 187 135  255 204 136  206 137 70  204 119 68  204 119 68  204 119 68  204 119 68  204 119 68  204 119 68  204 119 68  204 119 68  204 119 68  204 119 68  204 119 68  204 119 68  204 119 68  204 119 68  204 119 68  204 119 68  204 119 68  204 119 68  204 119 68  204 119 68  204 119 68  204 119 68  204 119 68  204 119 68  204 119 68  204 119 68  204 119 68  204 119 68  204 119 68  204 119 68  204 119 68  204 119 68  204 119 68  204 119 68  204 119 68  204 119 68  204 119 68  204 119 68  204 119 68  204 119 68  204 119 68  204 119 68  204 119 68  204 119 68  204 119 68  204 119 68  204 119 68  204 119 68  204 119 68  204 119 68  204 119 68  204 119 68  204 119 68  204 119 68  204 119 68  204 119 68  204 119 68  204 119 68  204 119 68  204 119 68  204 119 68  204 119 68  204 119 68  204 119 68  204 119 68  204 119 68  204 119 68  204 119 68  204 119 68  204 119 68  204 119 68  204 119 68  204 119 68  187 119 51  153 85 51  136 85 51  136 85 51  85 51 17  90 61 47  85 51 17
85 51 17  99 72 59  85 51 17  85 51 17  255 187 136  255 204 136  204 136 68  204 119 68  204 119 68  204 119 68  204 119 68  204 119 68  204 119 68  204 119 68  204 119 68  204 119 68  204 119 68  204 119 68  204 119 68  204 119 68  204 119 68  204 119 68  204 119 68  204 119 68  204 119 68  204 119 68  204 119 68  204 119 68  204 119 68  204 119 68  204 119 68  204 119 68  204 119 68  204 119 68  204 119 68  204 119 68  204 119 68  204 119 68  204 119 68  204 119 68  204 119 68  204 119 68  204 119 68  204 119 68  204 119 68  204 119 68  204 119 68  204 119 68  204 119 68  204 119 68  204 119 68  204 119 68  204 119 68  204 119 68  204 119 68  204 119 68  204 119 68  204 119 68  204 119 68  204 119 68  204 119 68  204 119 68  204 119 68  204 119 68  204 119 68  204 119 68  204 119 68  204 119 68  204 119 68  204 119 68  204 119 68  204 119 68  204 119 68  204 119 68  204 119 68  204 119 68  204 119 68  204 119 68  204 119 68  204 119 68  187 119 51  153 85 51  136 85 51  136 85 51  85 51 17  89 59 45  85 51 17
85 51 17  70 37 20  85 51 17  85 51 17  255 203 136  255 188 136  204 120 68  204 119 68  204 119 68  204 119 68  204 119 68  204 119 68  204 119 68  204 119 68  204 119 68  204 119 68  204 119 68  204 119 68  204 119 68  204 119 68  204 119 68  204 119 68  204 119 68  204 119 68  204 119 68  204 119 68  204 119 68  204 119 68  204 119 68  204 119 68  204 119 68  204 119 68  204 119 68  204 119 68  204 119 68  204 119 68  204 119 68  204 119 68  204 119 68  204 119 68  204 119 68  204 119 68  204 119 68  204 119 68  204 119 68  204 119 68  204 119 68  204 119 68  204 119 68  204 119 68  204 119 68  204 119 68  204 119 68  204 119 68  204 119 68  204 119 68  204 119 68  204 119 68  204 119 68  204 119 68  204 119 68  204 119 68  204 119 68  204 119 68  204 119 68  204 119 68  204 119 68  204 119 68  204 119 68  204 119 68  204 119 68  204 119 68  204 119 68  204 119 68  204 119 68  204 119 68  204 119 68  204 119 68  204 119 68  204 119 68  187 119 51  153 85 51  152 85 51  152 85 51  85 51 17  85 52 19  85 51 17
85 51 17  84 50 17  85 51 33  85 51 33  255 204 136  239 171 120  204 119 68  204 119 68  204 119 68  204 119 68  204 119 68  204 119 68  204 119 68  204 119 68  204 119 68  204 119 68  204 119 68  204 119 68  204 119 68  204 119 68  204 119 68  204 119 68  204 119 68  204 119 68  204 119 68  204 119 68  204 119 68  204 119 68  204 119 68  204 119 68  204 119 68  204 119 68  204 119 68  204 119 68  204 119 68  204 119 68  204 119 68  204 119 68  204 119 68  204 119 68  204 119 68  204 119 68  204 119 68  204 119 68  204 119 68  204 119 68  204 119 68  204 119 68  204 119 68  204 119 68  204 119 68  204 119 68  204 119 68  204 119 68  204 119 68  204 119 68  204 119 68  204 119 68  204 119 68  204 119 68  204 119 68  204 119 68  204 119 68  204 119 68  204 119 68  204 119 68  204 119 68  204 119 68  204 119 68  204 119 68  204 119 68  204 119 68  204 119 68  204 119 68  204 119 68  204 119 68  204 119 68  204 119 68  204 119 68  204 119 68  187 119 51  153 85 51  153 85 51  153 85 51  85 51 33  85 51 17  85 51 17
85 51 17  85 51 17  117 83 50  117 83 50  255 204 136  238 170 103  204 119 68  204 119 68  204 119 68  204 119 68  204 119 68  204 119 68  204 119 68  204 119 68  204 119 68  204 119 68  204 119 68  204 119 68  204 119 68  204 119 68  204 119 68  204 119 68  204 119 68  204 119 68  204 119 68  204 119 68  204 119 68  204 119 68  204 119 68  204 119 68  204 119 68  204 119 68  204 119 68  204 119 68  204 119 68  204 119 68  204 119 68  204 119 68  204 119 68  204 119 68  204 119 68  204 119 68  204 119 68  204 119 68  204 119 68  204 119 68  204 119 68  204 119 68  204 119 68  204 119 68  204 119 68  204 119 68  204 119 68  204 119 68  204 119 68  204 119 68  204 119 68  204 119 68  204 119 68  204 119 68  204 119 68  204 119 68  204 119 68  204 119 68  204 119 68  204 119 68  204 119 68  204 119 68  204 119 68  204 119 68  204 119 68  204 119 68  204 119 68  204 119 68  204 119 68  204 119 68  204 119 68  204 119 68  204 119 68  204 119 68  187 119 51  153 85 51  153 85 51  153 85 51  101 67 34  85 51 17  184 181 181
183 180 180  85 51 17  151 101 67  151 101 67  255 204 136  222 138 86  204 119 68  204 119 68  204 119 68  204 119 68  204 119 68  204 119 68  204 119 68  204 119 68  204 119 68  204 119 68  204 119 68  204 119 68  204 119 68  204 119 68  204 119 68  204 119 68  204 119 68  204 119 68  204 119 68  204 119 68  204 119 68  204 119 68  204 119 68  204 119 68  204 119 68  204 119 68  204 119 68  204 119 68  204 119 68  204 119 68  204 119 68  204 119 68  204 119 68  204 119 68  204 119 68  204 119 68  204 119 68  204 119 68  204 119 68  204 119 68  204 119 68  204 119 68  204 119 68  204 119 68  204 119 68  204 119 68  204 119 68  204 119 68  204 119 68  204 119 68  204 119 68  204 119 68  204 119 68  204 119 68  204 119 68  204 119 68  204 119 68  204 119 68  204 119 68  204 119 68  204 119 68  204 119 68  204 119 68  204 119 68  204 119 68  204 119 68  204 119 68  204 119 68  204 119 68  204 119 68  204 119 68  204 119 68  204 119 68  204 119 68  171 103 51  153 85 51  153 85 51  153 85 51  118 68 34  85 51 17  170 165 165
182 179 179  85 51 17  153 102 68  153 102 68  255 204 136  221 136 85  204 119 68  204 119 68  204 119 68  204 119 68  204 119 68  204 119 68  204 119 68  204 119 68  204 119 68  204 119 68  204 119 68  204 119 68  204 119 68  204 119 68  204 119 68  204 119 68  204 119 68  204 119 68  204 119 68  204 119 68  204 119 68  204 119 68  204 119 68  204 119 68  204 119 68  204 119 68  204 119 68  204 119 68  204 119 68  204 119 68  204 119 68  204 119 68  204 119 68  204 119 68  204 119 68  204 119 68  204 119 68  204 119 68  204 119 68  204 119 68  204 119 68  204 119 68  204 119 68  204 119 68  204 119 68  204 119 68  204 119 68  204 119 68  204 119 68  204 119 68  204 119 68  204 119 68  204 119 68  204 119 68  204 119 68  204 119 68  204 119 68  204 119 68  204 119 68  204 119 68  204 119 68  204 119 68  204 119 68  204 119 68  204 119 68  204 119 68  204 119 68  204 119 68  204 119 68  204 119 68  204 119 68  204 119 68  204 119 68  204 119 68  170 102 51  153 85 51  153 85 51  153 85 51  119 68 34  85 51 17  169 164 164
157 156 151  85 51 17  153 102 52  153 102 52  239 172 104  173 104 53  172 103 52  172 103 52  172 103 52  172 103 52  172 103 52  156 87 52  156 87 52  156 87 52  156 87 52  156 87 52  156 87 52  156 87 52  156 87 52  156 87 52  140 87 36  124 71 36  124 71 36  124 71 36  124 71 36  124 71 36  124 71 36  124 71 36  124 71 36  124 71 36  124 71 36  124 71 36  124 71 36  124 71 36  124 71 36  124 71 36  124 71 36  124 71 36  124 71 36  124 71 36  108 71 36  108 71 36  108 71 36  108 71 36  108 71 36  108 71 36  108 71 36  108 71 36  108 71 36  108 71 36  108 71 36  108 71 36  108 71 36  108 71 36  108 71 36  108 71 36  124 71 36  124 71 36  124 71 36  124 71 36  124 71 36  124 71 36  124 71 36  124 71 36  124 71 36  124 71 36  124 71 36  124 71 36  124 71 36  124 71 36  124 71 36  124 71 36  156 87 52  156 87 52  156 87 52  156 87 52  156 103 52  172 103 52  172 103 52  172 103 52  154 102 51  137 85 51  153 85 51  153 85 51  135 84 34  85 51 17  143 142 136
148 142 135  85 51 17  89 54 19  89 54 19  94 58 22  90 54 19  90 54 19  90 54 19  90 54 19  90 54 19  90 54 19  89 53 19  89 53 19  89 53 19  89 53 19  89 53 19  89 53 19  89 53 19  89 53 19  89 53 19  88 53 18  87 52 18  87 52 34  87 52 34  87 52 34  87 52 34  87 52 34  87 52 34  87 52 34  87 52 18  87 52 34  87 52 34  103 52 34  103 52 34  103 52 34  103 52 34  103 52 34  103 52 34  103 52 34  103 52 34  102 52 34  86 52 34  86 52 18  86 52 18  86 52 34  102 52 34  102 52 34  102 52 34  102 52 34  102 52 34  102 52 34  102 52 34  86 52 34  86 52 34  86 52 34  86 52 34  87 52 18  87 52 34  87 52 34  87 52 34  87 52 34  87 52 34  87 52 34  87 52 34  87 52 34  87 52 34  87 52 18  87 52 18  87 52 18  87 52 18  87 52 18  87 52 18  89 53 19  89 53 19  89 53 19  89 53 19  89 54 19  90 54 19  90 54 19  90 54 19  89 54 19  88 53 19  89 53 19  89 53 19  88 53 34  85 51 17  148 141 134
180 177 176  85 51 17  101 51 33  101 51 33  165 115 65  149 99 49  149 83 49  149 83 49  149 83 49  149 83 49  165 99 49  165 99 49  165 99 49  165 99 49  165 99 49  165 99 49  165 99 49  133 83 49  133 83 49  101 67 33  101 51 33  101 51 33  101 51 34  101 51 34  101 51 34  101 51 34  101 51 34  101 51 34  101 51 34  85 51 17  85 51 34  101 51 34  102 51 34  102 51 34  102 51 34  102 51 34  102 51 34  102 51 34  102 51 34  102 51 34  102 51 34  85 51 34  85 51 17  85 51 17  101 51 34  102 51 34  102 51 34  102 51 34  102 51 34  102 51 34  102 51 34  102 51 34  101 51 34  101 51 34  101 51 34  101 51 34  85 51 17  85 51 34  85 51 34  101 51 34  101 51 34  101 51 34  101 51 34  101 51 34  101 51 34  101 51 34  101 51 33  101 51 33  101 51 33  165 115 65  101 67 33  101 67 33  101 67 33  101 67 33  101 67 33  101 51 33  85 51 17  85 51 17  85 51 17  85 51 17  85 51 17  85 51 17  85 51 17  85 51 17  85 51 18  85 51 17  85 51 17
85 51 17  89 59 43  86 51 18  86 51 18  250 199 132  249 198 131  217 149 83  201 117 67  201 117 67  201 117 67  202 118 67  202 118 67  202 118 67  202 118 67  202 118 67  202 118 67  202 118 67  136 85 35  136 85 35  102 52 34  102 51 34  102 51 34  102 51 34  102 51 34  102 51 34  102 51 34  102 51 34  102 51 34  102 51 34  85 51 17  85 51 34  102 51 34  102 51 34  102 51 34  102 51 34  102 51 34  102 51 34  102 51 34  102 51 34  102 51 34  102 51 34  85 51 34  85 51 17  85 51 17  102 51 34  102 51 34  102 51 34  102 51 34  102 51 34  102 51 34  102 51 34  102 51 34  102 51 34  102 51 34  102 51 34  102 51 34  85 51 17  85 51 34  85 51 34  102 51 34  102 51 34  102 51 34  102 51 34  102 51 34  102 51 34  102 51 34  102 51 34  118 67 34  118 67 34  234 167 116  198 116 66  198 116 66  198 116 66  198 116 66  198 116 66  198 115 66  197 115 65  197 115 65  197 115 65  197 115 65  149 99 49  149 83 49  133 83 33  133 83 33  85 51 17  96 83 69  85 51 17
85 51 17  89 59 45  85 51 17  85 51 17  255 204 136  255 204 136  221 153 85  204 119 68  204 119 68  204 119 68  204 119 68  204 119 68  204 119 68  204 119 68  204 119 68  204 119 68  204 119 68  136 85 34  136 85 34  102 51 34  102 51 34  102 51 34  102 51 34  102 51 34  102 51 34  102 51 34  102 51 34  102 51 34  102 51 34  85 51 17  85 51 34  102 51 34  102 51 34  102 51 34  102 51 34  102 51 34  102 51 34  102 51 34  102 51 34  102 51 34  102 51 34  85 51 34  85 51 17  85 51 17  102 51 34  102 51 34  102 51 34  102 51 34  102 51 34  102 51 34  102 51 34  102 51 34  102 51 34  102 51 34  102 51 34  102 51 34  85 51 17  85 51 34  85 51 34  102 51 34  102 51 34  102 51 34  102 51 34  102 51 34  102 51 34  102 51 34  102 51 34  119 68 34  119 68 34  238 170 119  204 119 68  204 119 68  204 119 68  204 119 68  204 119 68  204 119 68  204 119 68  204 119 68  204 119 68  204 119 68  153 102 51  153 85 51  136 85 34  136 85 34  85 51 17  97 85 72  85 51 17
85 51 17  89 59 45  85 51 17  85 51 17  255 204 136  255 204 136  221 153 85  204 119 68  204 119 68  204 119 68  204 119 68  204 119 68  204 119 68  204 119 68  204 119 68  204 119 68  204 119 68  120 69 34  120 69 34  102 51 34  102 51 34  102 67 34  102 67 34  102 67 34  102 67 34  118 67 34  118 67 34  118 67 34  118 67 34  85 51 17  101 51 34  118 67 34  118 67 34  118 67 34  134 67 34  134 67 34  134 67 34  134 67 34  134 67 34  134 67 34  134 67 34  117 67 34  85 51 17  85 51 17  118 67 34  134 67 34  134 67 34  134 67 34  134 67 34  134 67 34  134 67 34  134 67 34  134 67 34  134 67 34  118 67 34  118 67 34  85 51 17  101 51 34  101 51 34  118 67 34  118 67 34  118 67 34  118 67 34  118 67 34  118 67 34  102 67 34  102 67 34  167 116 66  167 116 66  254 186 119  204 119 68  204 119 68  204 119 68  204 119 68  204 119 68  204 119 68  204 119 68  204 119 68  204 119 68  204 119 68  153 102 51  153 85 51  136 85 50  136 85 50  85 51 17  87 73 60  85 51 17
85 51 17  89 59 45  85 51 17  85 51 17  255 204 136  255 204 136  221 153 101  204 119 68  204 119 68  204 119 68  204 119 68  204 119 68  204 119 68  204 119 68  204 119 68  204 119 68  204 119 68  119 68 34  119 68 34  102 51 34  134 67 34  166 84 50  166 84 50  166 84 50  166 84 50  167 84 50  167 84 50  151 84 34  151 84 34  85 51 17  118 67 34  167 84 50  167 84 50  167 84 50  168 84 50  168 84 50  168 84 50  168 84 50  168 84 50  168 84 50  168 84 50  135 68 34  85 51 17  85 51 17  135 84 34  168 84 50  168 84 50  168 84 50  168 84 50  168 84 50  168 84 50  168 84 50  168 84 50  168 84 50  167 84 50  151 84 34  85 51 17  118 67 34  118 67 34  167 84 50  167 84 50  167 84 50  167 84 50  167 84 50  167 84 50  166 84 50  166 84 50  234 167 100  234 167 100  255 203 135  204 119 68  204 119 68  204 119 68  204 119 68  204 119 68  204 119 68  204 119 68  204 119 68  204 119 68  204 119 68  153 102 51  153 85 51  136 85 51  136 85 51  85 51 17  89 60 46  85 51 17
85 51 17  79 48 32  85 51 17  85 51 17  255 204 136  255 204 136  237 153 102  204 119 68  204 119 68  204 119 68  204 119 68  204 119 68  204 119 68  204 119 68  204 119 68  204 119 68  204 119 68  103 52 34  103 52 34  102 51 34  136 68 34  170 85 51  170 85 51  170 85 51  170 85 51  170 85 51  170 85 51  153 85 34  153 85 34  85 51 17  119 68 34  170 85 51  170 85 51  170 85 51  170 85 51  170 85 51  170 85 51  170 85 51  170 85 51  170 85 51  170 85 51  136 84 34  85 51 17  85 51 17  152 85 50  170 101 51  186 101 51  170 101 51  170 101 51  170 101 51  170 101 51  170 101 51  170 85 51  170 85 51  170 85 51  153 85 34  85 51 17  119 68 34  119 68 34  170 85 51  170 85 51  170 85 51  170 85 51  170 85 51  170 85 51  170 85 51  170 85 51  238 170 118  238 170 118  255 204 136  204 135 68  204 119 68  204 119 68  204 119 68  204 119 68  204 119 68  204 119 68  204 119 68  204 119 68  204 119 68  153 102 51  153 85 51  136 85 51  136 85 51  85 51 17  79 48 32  85 51 17
85 51 17  68 35 18  85 51 17  85 51 17  255 204 136  255 204 136  238 153 102  204 119 68  204 119 68  204 119 68  204 119 68  204 119 68  204 119 68  204 119 68  204 119 68  204 119 68  188 119 52  102 51 34  102 51 34  102 51 34  136 84 34  170 85 51  170 85 51  170 85 51  170 85 51  170 85 51  170 85 51  153 85 34  153 85 34  85 51 17  119 68 34  170 85 51  170 85 51  170 85 51  170 85 51  170 85 51  170 85 51  170 101 51  170 101 51  186 101 51  186 117 51  168 101 50  85 51 17  85 51 17  169 101 51  202 118 67  203 118 67  202 118 67  202 118 67  202 118 67  202 118 67  202 118 67  202 117 67  202 117 67  186 117 51  185 101 50  85 51 17  119 68 34  119 68 34  170 85 51  170 85 51  170 85 51  170 85 51  170 85 51  170 85 51  170 85 51  170 85 51  238 170 119  238 170 119  255 204 136  204 136 68  204 119 68  204 119 68  204 119 68  204 119 68  204 119 68  204 119 68  204 119 68  204 119 68  204 119 68  153 102 51  153 85 51  152 85 51  152 85 51  85 51 17  68 35 18  85 51 17
85 51 17  68 34 17  85 51 17  85 51 17  255 204 136  255 204 136  238 153 102  204 119 68  204 119 68  204 119 68  204 119 68  204 119 68  204 119 68  204 119 68  204 119 68  204 119 68  187 119 51  102 51 34  102 51 34  102 51 34  136 85 34  170 85 51  170 85 51  170 85 51  170 85 51  170 85 51  170 85 51  153 85 34  153 85 34  85 51 17  119 68 34  170 85 51  170 85 51  170 85 51  170 85 51  170 85 51  170 85 51  170 102 51  170 102 51  187 102 51  187 119 51  170 102 51  85 51 17  85 51 17  170 102 51  204 119 68  204 119 68  204 119 68  204 119 68  204 119 68  204 119 68  204 119 68  204 119 68  204 119 68  187 119 51  187 102 51  85 51 17  119 68 34  119 68 34  170 85 51  170 85 51  170 85 51  170 85 51  170 85 51  170 85 51  170 85 51  170 85 51  238 170 119  238 170 119  255 204 136  204 136 68  204 119 68  204 119 68  204 119 68  204 119 68  204 119 68  204 119 68  204 119 68  204 119 68  204 119 68  153 102 51  153 85 51  153 85 51  153 85 51  85 51 17  68 34 17  85 51 17
85 51 17  84 50 17  85 51 33  85 51 33  255 204 136  255 204 136  238 153 102  204 119 68  204 119 68  204 119 68  204 119 68  204 119 68  204 119 68  204 119 68  204 119 68  204 119 68  187 119 51  102 51 34  102 51 34  102 51 34  136 85 34  170 85 51  170 85 51  170 85 51  170 85 51  170 85 51  170 85 51  153 85 34  153 85 34  85 51 17  119 68 34  170 85 51  170 85 51  170 85 51  170 85 51  170 101 51  186 118 51  202 118 67  202 118 67  203 118 67  203 119 67  170 102 51  85 51 17  85 51 17  170 102 51  204 119 68  204 119 68  204 119 68  204 119 68  204 119 68  204 119 68  204 119 68  204 119 68  204 119 68  203 119 67  187 118 51  85 51 17  135 84 34  135 84 34  170 85 51  170 85 51  170 85 51  170 85 51  170 85 51  170 85 51  170 85 51  170 85 51  238 170 103  238 170 103  255 204 136  220 152 84  204 119 68  204 119 68  204 119 68  204 119 68  204 119 68  204 119 68  204 119 68  204 119 68  204 119 68  153 102 51  153 85 51  153 85 51  153 85 51  85 51 17  84 50 17  85 51 17
85 51 17  85 51 17  101 67 34  101 67 34  255 204 136  255 204 136  238 169 102  204 119 68  204 119 68  204 119 68  204 119 68  204 119 68  204 119 68  204 119 68  204 119 68  204 119 68  171 103 51  102 51 34  102 51 34  102 51 34  152 85 34  170 85 51  170 85 51  170 85 51  170 85 51  170 85 51  170 85 51  153 85 34  153 85 34  85 51 17  119 68 34  170 85 51  170 101 51  170 101 51  186 118 51  203 118 67  203 119 67  204 119 68  204 119 68  204 119 68  204 119 68  170 102 51  85 51 17  85 51 17  170 102 51  204 119 68  204 119 68  204 119 68  204 119 68  204 119 68  204 119 68  204 119 68  204 119 68  204 119 68  204 119 68  187 119 51  85 51 17  136 85 50  136 85 50  186 118 51  170 85 51  170 85 51  170 85 51  170 85 51  170 85 51  170 85 51  170 85 51  238 170 102  238 170 102  255 204 136  221 153 85  204 119 68  204 119 68  204 119 68  204 119 68  204 119 68  204 119 68  204 119 68  204 119 68  204 119 68  153 102 51  153 85 51  153 85 51  153 85 51  85 51 33  85 51 17  85 51 17
85 51 17  85 51 17  118 84 50  118 84 50  255 204 136  255 204 136  238 170 102  204 119 68  204 119 68  204 119 68  204 119 68  204 119 68  204 119 68  204 119 68  204 119 68  204 119 68  170 102 51  102 51 34  102 51 34  102 51 34  153 85 34  170 85 51  170 85 51  170 85 51  170 85 51  170 85 51  170 85 51  153 85 34  153 85 34  85 51 17  119 68 34  186 101 51  203 118 67  203 118 67  203 119 67  204 119 68  204 119 68  204 119 68  204 119 68  204 119 68  204 119 68  170 102 51  85 51 17  85 51 17  170 102 51  204 119 68  204 119 68  204 119 68  204 119 68  204 119 68  204 119 68  204 119 68  204 119 68  204 119 68  204 119 68  187 119 51  85 51 17  152 85 51  152 85 51  203 119 67  170 101 51  170 85 51  170 85 51  170 85 51  170 85 51  170 85 51  170 85 51  238 170 102  238 170 102  255 204 136  221 153 101  204 119 68  204 119 68  204 119 68  204 119 68  204 119 68  204 119 68  204 119 68  204 119 68  204 119 68  153 102 51  153 85 51  153 85 51  153 85 51  85 51 34  85 51 17  85 51 17
85 51 17  85 51 17  135 101 51  135 101 51  255 204 136  255 204 136  238 170 102  204 119 68  204 119 68  204 119 68  204 119 68  204 119 68  204 119 68  204 119 68  204 119 68  204 119 68  154 102 51  102 51 34  102 51 34  102 51 34  153 85 34  170 85 51  186 134 100  186 134 100  252 233 215  236 200 182  219 167 149  186 151 116  186 151 116  101 84 66  135 84 34  203 118 67  204 119 68  204 119 68  204 119 68  204 119 68  204 119 68  204 119 68  204 119 68  204 119 68  204 119 68  170 102 51  85 51 17  85 51 17  170 102 51  204 119 68  204 119 68  204 119 68  204 119 68  204 119 68  204 119 68  204 119 68  204 119 68  204 119 68  204 119 68  187 119 51  85 51 17  153 85 51  153 85 51  204 119 68  186 118 51  170 85 51  170 85 51  170 85 51  170 85 51  170 85 51  170 85 51  222 170 102  222 170 102  255 204 136  237 169 102  204 119 68  204 119 68  204 119 68  204 119 68  204 119 68  204 119 68  204 119 68  204 119 68  204 119 68  153 102 51  153 85 51  153 85 51  153 85 51  101 51 34  85 51 17  85 51 17
85 51 17  85 51 17  136 102 51  136 102 51  255 204 136  255 204 136  238 170 102  204 119 68  204 119 68  204 119 68  204 119 68  204 119 68  204 119 68  204 119 68  204 119 68  204 119 68  153 102 51  102 51 34  102 51 34  102 51 34  153 85 34  170 85 51  187 136 102  187 136 102  255 238 221  238 204 187  221 170 153  187 153 119  187 153 119  102 85 68  136 85 34  204 119 68  204 119 68  204 119 68  204 119 68  204 119 68  204 119 68  204 119 68  204 119 68  204 119 68  204 119 68  170 102 51  85 51 17  85 51 17  170 102 51  204 119 68  204 119 68  204 119 68  204 119 68  204 119 68  204 119 68  204 119 68  204 119 68  204 119 68  204 119 68  187 119 51  85 51 17  153 85 51  153 85 51  204 119 68  187 119 51  170 85 51  170 85 51  170 85 51  170 85 51  170 85 51  170 85 51  221 170 102  221 170 102  255 204 136  238 170 102  204 119 68  204 119 68  204 119 68  204 119 68  204 119 68  204 119 68  204 119 68  204 119 68  204 119 68  153 102 51  153 85 51  153 85 51  153 85 51  102 51 34  85 51 17  85 51 17
182 179 179  85 51 17  152 102 67  152 102 67  255 204 136  255 204 136  238 170 102  204 119 68  204 119 68  204 119 68  204 119 68  204 119 68  204 119 68  204 119 68  204 119 68  204 119 68  153 102 51  102 51 34  102 51 34  102 51 34  153 85 34  170 85 51  203 169 135  203 169 135  255 254 254  254 253 253  254 252 252  253 252 251  253 252 251  250 250 249  251 250 248  253 234 216  237 201 183  237 201 183  220 185 150  220 152 101  204 135 68  204 119 68  204 119 68  204 119 68  204 119 68  170 102 51  85 51 17  85 51 17  170 102 51  204 119 68  204 119 68  204 119 68  204 119 68  204 119 68  204 119 68  204 119 68  204 119 68  204 119 68  204 119 68  187 119 51  85 51 17  153 85 51  153 85 51  204 119 68  203 119 67  170 101 51  170 85 51  170 85 51  170 85 51  170 85 51  170 85 51  221 154 102  221 154 102  255 204 136  238 170 102  204 119 68  204 119 68  204 119 68  204 119 68  204 119 68  204 119 68  204 119 68  204 119 68  204 119 68  153 102 51  153 85 51  153 85 51  153 85 51  102 51 34  85 51 17  85 51 17
182 179 179  85 51 17  153 102 68  153 102 68  255 204 136  255 204 136  238 170 102  204 119 68  204 119 68  204 119 68  204 119 68  204 119 68  204 119 68  204 119 68  204 119 68  204 119 68  153 85 51  102 51 34  102 51 34  102 51 34  153 85 34  170 85 51  220 186 169  220 186 169  255 255 255  255 255 255  255 255 255  255 255 255  255 255 255  255 255 255  255 255 255  255 254 254  254 253 253  254 253 253  254 253 252  254 252 250  253 251 249  253 234 233  253 234 233  237 218 200  237 201 167  203 168 133  118 84 66  118 84 66  170 102 51  204 119 68  204 119 68  204 119 68  204 119 68  204 119 68  204 119 68  204 119 68  204 119 68  204 119 68  204 119 68  187 119 51  85 51 17  153 85 51  153 85 51  204 119 68  204 119 68  186 102 51  170 85 51  170 85 51  170 85 51  170 85 51  170 85 51  221 153 102  221 153 102  255 204 136  238 170 102  204 119 68  204 119 68  204 119 68  204 119 68  204 119 68  204 119 68  204 119 68  204 119 68  204 119 68  153 102 51  153 85 51  153 85 51  153 85 51  102 67 34  85 51 17  182 179 179
182 179 179  85 51 17  153 102 68  153 102 68  255 204 136  255 204 136  238 170 102  204 119 68  204 119 68  204 119 68  204 119 68  204 119 68  204 119 68  204 119 68  204 119 68  204 119 68  153 85 51  102 51 34  102 51 34  102 51 34  153 85 34  170 85 51  237 220 203  237 220 203  255 255 255  255 255 255  255 255 255  255 255 255  255 255 255  255 255 255  255 255 255  255 255 255  255 255 255  255 255 255  255 255 255  255 255 255  255 255 255  255 255 255  255 255 255  255 254 254  255 254 253  254 253 252  251 250 250  251 250 250  253 251 249  254 235 217  237 202 184  221 185 151  221 185 151  221 169 118  204 135 84  204 119 68  204 119 68  204 119 68  204 119 68  187 119 51  85 51 17  153 85 51  153 85 51  204 119 68  204 119 68  187 119 51  170 85 51  170 85 51  170 85 51  170 85 51  170 85 51  221 153 85  221 153 85  255 204 136  238 170 102  204 119 68  204 119 68  204 119 68  204 119 68  204 119 68  204 119 68  204 119 68  204 119 68  204 119 68  153 102 51  153 85 51  153 85 51  153 85 51  102 68 34  85 51 17  182 179 179
182 179 179  85 51 17  153 102 68  153 102 68  255 204 136  255 204 136  238 170 102  204 119 68  204 119 68  204 119 68  204 119 68  204 119 68  204 119 68  204 119 68  204 119 68  204 119 68  136 85 51  102 51 34  102 51 34  102 51 34  153 85 51  170 85 51  255 237 237  255 237 237  255 255 255  255 255 255  255 255 255  255 255 255  255 255 255  255 172 172  255 172 172  255 189 189  255 205 205  255 205 205  255 189 189  255 238 238  255 255 255  255 255 255  255 255 255  255 255 255  255 222 222  255 222 222  255 255 255  255 255 255  255 255 255  255 255 254  255 254 253  254 253 252  254 253 252  254 253 251  254 252 250  254 251 233  254 218 200  254 218 200  237 202 167  220 169 134  118 84 67  153 101 51  153 101 51  204 119 68  204 119 68  203 119 67  170 85 51  170 85 51  170 85 51  170 85 51  170 85 51  221 153 85  221 153 85  255 204 136  238 170 119  204 119 68  204 119 68  204 119 68  204 119 68  204 119 68  204 119 68  204 119 68  204 119 68  204 119 68  153 102 51  153 85 51  153 85 51  153 85 51  119 68 34  85 51 17  169 164 164
182 179 179  85 51 17  153 102 68  153 102 68  255 204 136  255 204 136  238 170 102  204 119 68  204 119 68  204 119 68  204 119 68  204 119 68  204 119 68  204 119 68  204 119 68  204 119 68  136 85 51  102 51 34  102 51 34  102 51 34  153 85 51  170 85 51  255 238 238  255 238 238  255 255 255  255 255 255  255 255 255  255 255 255  255 255 255  255 170 170  255 170 170  255 187 187  255 204 204  255 204 204  255 187 187  255 238 238  255 255 255  255 255 255  255 255 255  255 255 255  255 221 221  255 221 221  255 255 255  255 255 255  255 255 255  255 255 255  255 255 255  255 255 255  255 255 255  255 255 255  255 255 255  255 255 238  255 221 204  255 221 204  238 204 170  221 170 136  119 85 68  153 102 51  153 102 51  204 119 68  204 119 68  204 119 68  170 85 51  170 85 51  170 85 51  170 85 51  170 85 51  221 153 85  221 153 85  255 204 136  238 170 119  204 119 68  204 119 68  204 119 68  204 119 68  204 119 68  204 119 68  204 119 68  204 119 68  204 119 68  153 102 51  153 85 51  153 85 51  153 85 51  119 68 34  85 51 17  169 164 164
169 164 164  85 51 17  170 119 85  170 119 85  255 204 136  255 204 136  238 170 102  204 119 68  204 119 68  204 119 68  204 119 68  204 119 68  204 119 68  204 119 68  204 119 68  204 119 68  136 85 34  102 51 34  102 51 34  102 51 34  170 85 51  170 102 51  255 255 255  255 255 255  255 255 255  255 255 255  255 255 255  238 106 106  238 106 106  238 21 21  238 54 54  238 21 21  238 21 21  238 21 21  238 21 21  238 22 22  238 56 56  255 139 139  255 139 139  255 238 238  238 38 38  238 55 55  255 255 255  255 255 255  255 255 255  255 255 255  255 238 238  255 255 255  255 255 255  255 255 255  255 255 255  255 255 255  255 254 254  255 254 254  255 254 253  254 253 252  252 251 251  253 251 250  253 251 250  254 235 217  237 219 184  221 185 151  187 135 101  187 135 101  170 118 68  170 85 51  170 85 51  221 153 85  221 153 85  255 204 136  255 187 119  204 119 68  204 119 68  204 119 68  204 119 68  204 119 68  204 119 68  204 119 68  204 119 68  204 119 68  153 102 51  153 85 51  153 85 51  153 85 51  119 68 34  85 51 17  169 164 164
169 164 164  85 51 17  170 119 85  170 119 85  255 204 136  255 204 136  238 170 102  204 119 68  204 119 68  204 119 68  204 119 68  204 119 68  204 119 68  204 119 68  204 119 68  204 119 68  136 85 34  102 51 34  102 51 34  102 51 34  170 85 51  187 135 84  255 255 255  255 255 255  255 255 255  255 255 255  255 255 255  255 135 135  255 135 135  238 17 17  238 18 18  238 17 17  238 17 17  238 17 17  238 50 50  238 100 100  238 18 18  255 119 119  255 119 119  255 155 155  238 17 17  238 18 18  255 238 238  255 238 238  255 255 255  255 222 222  238 38 38  238 88 88  238 88 88  255 255 255  255 255 255  255 255 255  255 255 255  255 255 255  255 255 255  255 255 255  255 255 255  255 255 255  255 255 255  255 255 254  255 238 237  238 237 220  237 236 219  237 236 219  237 236 218  237 218 218  187 118 84  204 136 85  204 136 85  255 204 136  255 187 119  204 119 68  204 119 68  204 119 68  204 119 68  204 119 68  204 119 68  204 119 68  204 119 68  204 119 68  153 102 51  153 85 51  153 85 51  153 85 51  119 68 34  85 51 17  155 155 149
169 164 164  85 51 17  170 119 85  170 119 85  255 204 136  255 204 136  238 170 102  204 119 68  204 119 68  204 119 68  204 119 68  204 119 68  204 119 68  204 119 68  204 119 68  204 119 68  136 85 34  102 51 34  102 51 34  102 51 34  170 85 51  204 153 118  255 255 255  255 255 255  255 255 255  255 255 255  255 255 255  255 253 253  255 253 253  255 234 234  255 234 234  238 67 67  238 34 34  238 34 34  255 251 251  255 252 252  255 234 234  255 252 252  255 252 252  255 120 120  238 17 17  238 17 17  255 205 205  255 205 205  255 255 255  255 154 154  238 17 17  255 118 118  255 118 118  255 255 255  255 238 238  255 172 172  255 172 172  255 172 172  255 205 205  255 188 188  255 205 205  255 238 238  255 238 238  238 238 238  238 238 221  238 238 221  238 238 221  238 238 221  238 238 221  238 238 221  170 102 68  204 136 85  204 136 85  255 204 136  255 187 119  204 119 68  204 119 68  204 119 68  204 119 68  204 119 68  204 119 68  204 119 68  204 119 68  204 119 68  153 102 51  153 85 51  153 85 51  153 85 51  119 68 34  85 51 17  155 155 149
155 155 149  85 51 17  170 119 85  170 119 85  255 204 136  255 204 136  238 170 102  204 119 68  204 119 68  204 119 68  204 119 68  204 119 68  204 119 68  204 119 68  204 119 68  204 119 68  136 85 34  102 51 34  102 51 34  102 51 34  170 85 51  221 186 152  255 255 255  255 255 255  255 255 255  255 255 255  255 255 255  255 255 255  255 255 255  255 255 255  255 188 188  238 18 18  255 134 134  255 134 134  255 255 255  255 255 255  255 255 255  255 255 255  255 255 255  238 52 52  238 17 17  238 17 17  255 154 154  255 154 154  255 255 255  255 120 120  238 17 17  255 136 136  255 136 136  255 255 255  238 54 54  238 19 19  238 53 53  238 53 53  238 20 20  238 20 20  238 20 20  238 20 20  238 20 20  238 54 54  238 188 188  238 238 221  238 238 221  238 238 221  238 238 221  238 221 204  170 85 51  204 136 85  204 136 85  255 204 136  255 187 119  204 119 68  204 119 68  204 119 68  204 119 68  204 119 68  204 119 68  204 119 68  204 119 68  204 119 68  153 102 51  153 85 51  153 85 51  153 85 51  119 68 34  85 51 17  155 155 149
155 155 149  85 51 17  170 119 85  170 119 85  255 204 136  255 204 136  238 170 102  204 119 68  204 119 68  204 119 68  204 119 68  204 119 68  204 119 68  204 119 68  204 119 68  204 119 68  136 85 34  102 51 34  102 51 34  102 51 34  170 85 51  221 187 153  255 255 255  255 255 255  255 255 255  255 255 255  255 255 255  255 255 255  255 255 255  255 255 255  255 187 187  238 17 17  255 136 136  255 136 136  255 255 255  255 255 255  255 255 255  255 255 255  255 255 255  238 51 51  238 17 17  238 17 17  255 153 153  255 153 153  255 255 255  255 119 119  238 17 17  255 136 136  255 136 136  255 255 255  238 51 51  238 17 17  238 51 51  238 51 51  238 17 17  238 17 17  238 17 17  238 17 17  238 17 17  238 51 51  238 187 187  238 238 221  238 238 221  238 238 221  238 238 221  238 221 204  170 85 51  204 136 85  204 136 85  255 204 136  255 187 119  204 119 68  204 119 68  204 119 68  204 119 68  204 119 68  204 119 68  204 119 68  204 119 68  204 119 68  153 102 51  153 85 51  153 85 51  153 85 51  119 68 34  85 51 17  155 155 149
155 155 149  85 51 17  187 136 85  187 136 85  255 204 136  255 204 136  238 170 119  204 119 68  204 119 68  204 119 68  204 119 68  204 119 68  204 119 68  204 119 68  204 119 68  204 119 68  136 85 34  102 51 34  102 51 34  102 51 34  170 85 51  238 204 186  255 255 255  255 255 255  255 255 255  255 255 255  255 255 255  255 255 255  255 255 255  255 255 255  255 137 137  238 17 17  255 186 186  255 186 186  255 255 255  255 255 255  255 255 255  255 238 238  255 238 238  238 18 18  238 17 17  238 17 17  255 120 120  255 120 120  255 255 255  255 119 119  238 17 17  255 119 119  255 119 119  255 255 255  238 68 68  238 17 17  238 18 18  238 18 18  238 17 17  238 17 17  238 101 101  238 67 67  238 67 67  238 18 18  238 154 154  238 238 221  238 238 221  238 238 221  238 238 221  221 188 170  170 85 51  204 136 85  204 136 85  255 204 136  255 187 119  204 119 68  204 119 68  204 119 68  204 119 68  204 119 68  204 119 68  204 119 68  204 119 68  204 119 68  153 102 51  153 85 51  153 85 51  153 85 51  119 68 34  85 51 17  141 141 134
155 155 149  85 51 17  187 136 85  187 136 85  255 204 136  255 204 136  238 170 119  204 119 68  204 119 68  204 119 68  204 119 68  204 119 68  204 119 68  204 119 68  204 119 68  204 119 68  136 85 34  102 51 34  102 51 34  102 51 34  170 85 51  238 238 221  255 255 255  255 255 255  255 255 255  255 255 255  255 255 255  255 255 255  255 255 255  255 255 255  238 86 86  238 17 17  255 237 237  255 237 237  255 255 255  255 255 255  255 255 255  255 188 188  255 188 188  238 17 17  238 17 17  238 17 17  238 52 52  238 52 52  255 255 255  255 119 119  238 17 17  255 220 220  255 220 220  255 255 255  255 253 253  255 235 235  238 202 202  238 202 202  238 17 17  238 84 84  238 236 220  238 236 219  238 236 219  238 219 202  238 237 220  238 238 221  238 238 221  238 238 221  238 238 221  204 170 136  170 85 51  204 136 85  204 136 85  255 204 136  255 187 119  204 119 68  204 119 68  204 119 68  204 119 68  204 119 68  204 119 68  204 119 68  204 119 68  204 119 68  153 102 51  153 85 51  153 85 51  153 85 51  119 68 34  85 51 17  148 141 134
169 164 164  85 51 17  170 119 85  170 119 85  255 204 136  255 204 136  238 170 119  204 119 68  204 119 68  204 119 68  204 119 68  204 119 68  204 119 68  204 119 68  204 119 68  204 119 68  136 85 34  102 51 34  102 51 34  102 51 34  170 102 51  255 255 255  255 255 255  255 255 255  255 255 255  255 255 255  255 255 255  255 255 255  255 255 255  255 255 255  238 85 85  238 51 51  255 255 255  255 255 255  255 255 255  255 255 255  255 255 255  255 137 137  255 137 137  238 17 17  238 51 51  238 17 17  238 34 34  238 34 34  255 255 255  255 119 119  238 17 17  255 204 204  255 204 204  255 255 255  255 238 238  238 238 221  238 137 120  238 137 120  238 17 17  238 169 169  238 238 221  238 238 221  238 238 221  238 238 221  238 238 221  238 238 221  238 238 221  238 238 221  238 238 221  187 136 102  170 85 51  204 136 68  204 136 68  255 204 136  255 187 119  204 119 68  204 119 68  204 119 68  204 119 68  204 119 68  204 119 68  204 119 68  204 119 68  204 119 68  153 102 51  153 85 51  153 85 51  153 85 51  119 68 34  85 51 17  148 141 134
169 164 164  85 51 17  170 119 85  170 119 85  255 204 136  255 204 136  238 170 119  204 119 68  204 119 68  204 119 68  204 119 68  204 119 68  204 119 68  204 119 68  204 119 68  204 119 68  136 85 34  102 51 34  102 51 34  102 51 34  170 119 85  255 255 255  255 255 255  255 255 255  255 255 255  255 255 255  255 255 255  255 255 255  255 255 255  255 255 255  238 34 34  238 51 51  255 255 255  255 255 255  255 255 255  255 255 255  255 255 255  255 119 119  255 119 119  238 17 17  255 203 203  238 17 17  238 17 17  238 17 17  255 137 137  238 52 52  238 17 17  238 221 221  238 221 221  238 238 221  238 238 221  238 238 221  238 68 68  238 68 68  238 17 17  238 237 221  238 238 221  238 238 221  238 238 221  238 238 221  238 238 221  238 238 221  238 238 221  238 238 221  238 238 221  170 102 51  170 85 51  204 136 68  204 136 68  255 204 136  255 187 119  204 119 68  204 119 68  204 119 68  204 119 68  204 119 68  204 119 68  204 119 68  204 119 68  204 119 68  153 102 51  153 85 51  153 85 51  153 85 51  119 68 34  85 51 17  148 141 134
169 164 164  85 51 17  170 119 85  170 119 85  255 204 136  255 204 136  238 170 119  204 119 68  204 119 68  204 119 68  204 119 68  204 119 68  204 119 68  204 119 68  204 119 68  204 119 68  136 85 34  102 51 34  102 51 34  102 51 34  170 119 85  255 255 255  255 255 255  255 255 255  255 255 255  255 255 255  255 255 255  255 255 255  255 255 255  255 255 255  238 34 34  238 51 51  255 255 255  255 255 255  255 255 255  255 255 255  255 255 255  255 119 119  255 119 119  238 17 17  255 204 204  238 17 17  238 17 17  238 17 17  255 136 136  238 51 51  238 17 17  238 221 221  238 221 221  238 238 221  238 238 221  238 238 221  238 68 68  238 68 68  238 17 17  238 238 221  238 238 221  238 238 221  238 238 221  238 238 221  238 238 221  238 238 221  238 238 221  238 238 221  238 238 221  170 102 51  170 85 51  204 136 68  204 136 68  255 204 136  255 187 119  204 119 68  204 119 68  204 119 68  204 119 68  204 119 68  204 119 68  204 119 68  204 119 68  204 119 68  153 102 51  153 85 51  153 85 51  153 85 51  119 68 34  85 51 17  148 141 134
169 164 164  85 51 17  170 119 68  170 119 68  255 204 136  255 204 136  255 187 119  204 119 68  204 119 68  204 119 68  204 119 68  204 119 68  204 119 68  204 119 68  204 119 68  204 119 68  136 85 34  102 51 34  102 51 34  102 51 34  187 153 119  255 255 255  255 255 255  255 255 255  255 255 255  255 255 255  255 255 255  255 255 255  255 255 255  255 238 238  238 17 17  238 34 34  255 255 255  255 255 255  255 255 255  255 255 255  255 255 255  238 68 68  238 68 68  238 34 34  255 255 255  238 85 85  238 17 17  238 17 17  238 17 17  238 17 17  238 51 51  238 238 221  238 238 221  238 238 221  238 238 221  238 238 221  238 34 34  238 34 34  238 51 51  238 238 221  238 238 221  238 238 221  238 238 221  238 238 221  238 238 221  238 238 221  238 238 221  238 238 221  221 221 204  170 85 51  170 85 51  204 136 68  204 136 68  255 204 136  255 187 119  204 119 68  204 119 68  204 119 68  204 119 68  204 119 68  204 119 68  204 119 68  204 119 68  204 119 68  153 102 51  153 85 51  153 85 51  153 85 51  119 68 34  85 51 17  148 141 134
182 179 179  85 51 17  153 102 68  153 102 68  255 204 136  255 204 136  255 187 119  204 119 68  204 119 68  204 119 68  204 119 68  204 119 68  204 119 68  204 119 68  204 119 68  204 119 68  136 85 34  102 51 34  102 51 34  102 51 34  204 153 136  238 238 221  238 238 221  238 238 221  238 238 238  238 238 238  238 238 238  238 238 238  238 238 238  238 238 238  238 68 68  238 136 136  255 238 238  255 238 238  255 238 238  255 238 238  255 238 238  238 153 136  238 153 136  238 119 119  238 238 238  238 203 203  238 135 119  238 135 119  238 17 17  238 17 17  238 102 102  238 238 221  238 238 221  238 238 221  238 238 221  238 238 221  238 34 34  238 34 34  238 119 102  238 238 221  238 238 221  238 238 221  238 238 221  238 238 221  238 238 221  238 238 221  238 238 221  238 238 221  221 187 170  170 85 51  170 85 51  204 136 68  204 136 68  255 204 136  255 187 119  204 119 68  204 119 68  204 119 68  204 119 68  204 119 68  204 119 68  204 119 68  204 119 68  204 119 68  153 102 51  153 85 51  153 85 51  153 85 51  119 68 34  85 51 17  148 141 134
182 179 179  85 51 17  153 102 68  153 102 68  255 204 136  255 204 136  255 187 119  204 119 68  204 119 68  204 119 68  204 119 68  204 119 68  204 119 68  204 119 68  204 119 68  204 119 68  136 85 34  102 51 34  102 51 34  102 51 34  170 102 68  187 153 119  221 187 170  221 187 170  238 221 204  238 238 221  238 238 221  238 238 221  238 238 221  238 238 221  238 238 221  238 238 221  238 238 221  238 238 221  238 238 221  238 238 221  238 238 221  238 238 221  238 238 221  238 238 221  238 238 221  238 238 221  238 187 187  238 187 187  238 17 17  238 17 17  238 136 136  238 238 221  238 238 221  238 238 221  238 238 221  238 170 170  238 17 17  238 17 17  238 119 102  238 238 221  238 238 221  238 238 221  238 238 221  238 238 221  238 238 221  238 238 221  238 238 221  238 238 221  187 153 119  170 85 51  170 85 51  187 119 68  187 119 68  255 204 136  255 187 119  204 119 68  204 119 68  204 119 68  204 119 68  204 119 68  204 119 68  204 119 68  204 119 68  204 119 68  170 102 51  153 85 51  153 85 51  153 85 51  119 68 34  85 51 17  148 141 134
179 179 179  85 51 17  136 102 68  136 102 68  255 204 136  255 204 136  255 187 119  204 119 68  204 119 68  204 119 68  204 119 68  204 119 68  204 119 68  204 119 68  204 119 68  204 119 68  153 85 51  102 51 34  102 51 34  102 51 34  153 85 34  170 85 51  170 102 51  170 102 51  204 119 68  204 136 68  204 153 102  204 170 136  204 170 136  187 187 170  238 221 221  238 238 221  238 238 221  238 238 221  238 238 221  238 238 221  238 238 221  238 238 221  238 238 221  238 238 221  238 238 221  238 238 221  238 238 221  238 238 221  238 187 187  238 170 170  238 238 221  238 238 221  238 238 221  238 238 221  238 238 221  238 153 153  238 17 17  238 17 17  238 68 68  238 238 221  238 238 221  238 238 221  238 238 221  238 238 221  238 238 221  238 238 221  238 238 221  238 238 221  187 119 85  170 85 51  170 85 51  187 119 68  187 119 68  255 204 136  255 187 119  204 119 68  204 119 68  204 119 68  204 119 68  204 119 68  204 119 68  204 119 68  204 119 68  204 119 68  170 102 51  153 85 51  153 85 51  153 85 51  119 68 34  85 51 17  148 141 134
179 179 179  85 51 17  136 102 68  136 102 68  255 204 136  255 204 136  255 187 119  204 119 68  204 119 68  204 119 68  204 119 68  204 119 68  204 119 68  204 119 68  204 119 68  204 119 68  153 85 51  102 51 34  102 51 34  102 51 34  153 85 34  170 85 51  170 102 51  170 102 51  204 119 68  204 136 68  204 153 102  204 170 136  204 170 136  187 186 169  238 221 220  238 238 220  238 238 221  238 238 221  238 238 221  238 238 221  238 238 221  238 238 221  238 238 221  238 238 221  238 238 221  238 238 221  238 238 221  238 238 221  238 187 187  238 170 170  238 238 221  238 238 221  238 238 221  238 238 221  238 238 221  238 153 153  238 17 17  238 17 17  238 68 68  238 238 221  238 238 221  238 238 221  238 238 221  238 238 221  238 238 221  238 238 221  238 238 221  238 238 221  187 119 85  170 85 51  170 85 51  187 119 68  187 119 68  255 204 136  255 187 119  204 119 68  204 119 68  204 119 68  204 119 68  204 119 68  204 119 68  204 119 68  204 119 68  204 119 68  170 102 51  153 85 51  153 85 51  153 85 51  119 68 34  85 51 17  148 141 134
85 51 17  85 51 17  136 102 51  136 102 51  255 204 136  255 204 136  255 187 119  204 119 68  204 119 68  204 119 68  204 119 68  204 119 68  204 119 68  204 119 68  204 119 68  204 119 68  153 85 51  102 51 34  102 51 34  102 51 34  153 85 34  170 85 51  170 102 51  170 102 51  204 119 68  204 119 68  204 119 68  170 102 51  170 102 51  85 51 17  170 102 51  204 136 85  204 170 119  204 170 119  221 187 153  238 204 187  238 237 220  238 238 221  238 238 221  238 238 221  238 238 221  238 238 221  238 238 221  238 238 221  238 238 221  238 238 221  238 238 221  238 238 221  238 238 221  238 238 221  238 238 221  238 204 204  238 52 52  238 52 52  238 153 153  238 238 221  238 238 221  238 238 221  238 238 221  238 238 221  238 238 221  238 238 221  238 238 221  238 238 221  170 102 51  170 85 51  170 85 51  187 119 68  187 119 68  255 204 136  238 170 119  204 119 68  204 119 68  204 119 68  204 119 68  204 119 68  204 119 68  204 119 68  204 119 68  204 119 68  170 102 51  153 85 51  153 85 51  153 85 51  119 68 34  85 51 17  155 155 149
85 51 17  85 51 17  136 102 51  136 102 51  255 204 136  255 204 136  255 187 119  204 119 68  204 119 68  204 119 68  204 119 68  204 119 68  204 119 68  204 119 68  204 119 68  204 119 68  153 102 51  102 51 34  102 51 34  102 51 34  153 85 34  170 85 51  170 102 51  170 102 51  204 119 68  204 119 68  204 119 68  170 102 51  170 102 51  85 51 17  170 102 51  204 119 68  204 119 68  204 119 68  204 119 68  204 119 68  204 119 68  204 153 102  204 153 102  221 170 135  221 186 169  238 220 203  237 237 220  237 237 220  237 237 220  238 237 220  238 238 221  238 238 221  238 238 221  238 238 221  238 238 221  238 238 221  238 238 221  238 238 221  238 238 221  238 238 221  238 238 221  238 238 221  238 238 221  238 238 221  238 238 221  238 238 221  221 204 187  221 204 187  170 85 51  170 85 51  170 85 51  187 119 68  187 119 68  255 204 136  238 170 102  204 119 68  204 119 68  204 119 68  204 119 68  204 119 68  204 119 68  204 119 68  204 119 68  204 119 68  170 102 51  153 85 51  153 85 51  153 85 51  119 68 34  85 51 17  155 155 149
85 51 17  85 51 17  119 85 51  119 85 51  255 204 136  255 204 136  255 187 119  204 119 68  204 119 68  204 119 68  204 119 68  204 119 68  204 119 68  204 119 68  204 119 68  204 119 68  170 102 51  102 51 34  102 51 34  102 51 34  153 85 34  170 85 51  170 102 51  170 102 51  204 119 68  204 119 68  204 119 68  170 102 51  170 102 51  85 51 17  170 102 51  204 119 68  204 119 68  204 119 68  204 119 68  204 119 68  204 119 68  204 119 68  204 119 68  204 119 68  204 119 68  204 119 68  85 68 34  85 68 34  170 136 102  221 170 135  221 203 186  238 220 220  238 220 220  238 237 220  238 237 220  238 238 220  238 238 221  238 238 221  238 238 221  238 238 221  238 238 221  238 238 221  238 238 221  238 238 221  238 238 221  238 238 221  204 170 153  204 170 153  170 85 51  170 85 51  170 85 51  187 119 68  187 119 68  255 204 136  238 170 102  204 119 68  204 119 68  204 119 68  204 119 68  204 119 68  204 119 68  204 119 68  204 119 68  204 119 68  170 102 51  153 85 51  153 85 51  153 85 51  119 68 34  85 51 17  155 155 149
85 51 17  85 51 17  119 68 51  119 68 51  255 204 136  255 204 136  255 187 119  204 119 68  204 119 68  204 119 68  204 119 68  204 119 68  204 119 68  204 119 68  204 119 68  204 119 68  170 102 51  102 51 34  102 51 34  102 51 34  153 85 34  170 85 51  170 102 51  170 102 51  204 119 68  204 119 68  204 119 68  170 102 51  170 102 51  85 51 17  170 102 51  204 119 68  204 119 68  204 119 68  204 119 68  204 119 68  204 119 68  204 119 68  204 119 68  204 119 68  204 119 68  204 119 68  85 51 17  85 51 17  153 85 51  204 119 68  204 119 68  204 119 68  204 119 68  204 136 85  221 170 119  221 187 153  238 204 187  238 204 187  238 238 221  238 238 221  238 238 221  238 238 221  238 238 221  238 238 221  238 238 221  238 238 221  187 153 119  187 153 119  170 85 51  170 85 51  170 85 51  187 119 68  187 119 68  255 204 136  238 170 102  204 119 68  204 119 68  204 119 68  204 119 68  204 119 68  204 119 68  204 119 68  204 119 68  204 119 68  170 102 51  153 85 51  153 85 51  153 85 51  119 68 34  85 51 17  169 164 164
85 51 17  85 51 17  119 68 51  119 68 51  255 204 136  255 204 136  255 187 119  204 119 68  204 119 68  204 119 68  204 119 68  204 119 68  204 119 68  204 119 68  204 119 68  204 119 68  170 102 51  102 51 34  102 51 34  102 51 34  153 85 34  170 85 51  170 102 51  170 102 51  204 119 68  204 119 68  204 119 68  170 102 51  170 102 51  85 51 17  170 102 51  204 119 68  204 119 68  204 119 68  204 119 68  204 119 68  204 119 68  204 119 68  204 119 68  204 119 68  204 119 68  204 119 68  85 51 17  85 51 17  153 85 51  204 119 68  204 119 68  204 119 68  204 119 68  204 136 85  221 169 118  221 186 152  238 203 186  238 203 186  238 237 219  237 237 219  237 237 220  238 237 220  238 237 220  238 238 221  238 238 221  238 238 221  187 153 119  187 153 119  170 85 51  170 85 51  170 85 51  187 119 68  187 119 68  255 204 136  238 170 102  204 119 68  204 119 68  204 119 68  204 119 68  204 119 68  204 119 68  204 119 68  204 119 68  204 119 68  170 102 51  153 85 51  153 85 51  153 85 51  119 68 34  85 51 17  169 164 164
85 51 17  85 51 17  102 68 34  102 68 34  255 204 136  255 204 136  255 187 119  204 119 68  204 119 68  204 119 68  204 119 68  204 119 68  204 119 68  204 119 68  204 119 68  204 119 68  170 102 51  102 51 34  102 51 34  102 51 34  153 85 34  170 85 51  170 85 51  170 85 51  187 102 51  203 119 68  204 119 68  170 102 51  170 102 51  85 51 17  170 102 51  204 119 68  204 119 68  204 119 68  204 119 68  204 119 68  204 119 68  204 119 68  204 119 68  204 119 68  204 119 68  204 119 68  85 51 17  85 51 17  153 85 51  204 119 68  204 119 68  204 119 68  204 119 68  204 119 68  204 119 68  204 119 68  204 119 68  204 119 68  204 119 68  187 135 84  152 135 117  220 186 168  220 186 168  237 219 202  237 236 219  237 236 219  170 118 84  170 118 84  170 85 51  170 85 51  170 85 51  187 119 68  187 119 68  255 204 136  238 170 102  204 119 68  204 119 68  204 119 68  204 119 68  204 119 68  204 119 68  204 119 68  204 119 68  204 119 68  170 102 51  153 85 51  153 85 51  153 85 51  119 68 34  85 51 17  169 164 164
85 51 17  85 51 17  85 51 17  85 51 17  255 204 136  255 204 136  255 187 119  204 119 68  204 119 68  204 119 68  204 119 68  204 119 68  204 119 68  204 119 68  204 119 68  204 119 68  187 119 51  102 51 34  102 51 34  102 51 34  153 85 34  170 85 51  170 85 51  170 85 51  170 85 51  170 102 51  203 119 68  170 102 51  170 102 51  85 51 17  187 102 51  204 119 68  204 119 68  204 119 68  204 119 68  204 119 68  204 119 68  204 119 68  204 119 68  204 119 68  204 119 68  204 119 68  85 51 17  85 51 17  153 85 51  204 119 68  204 119 68  204 119 68  204 119 68  204 119 68  204 119 68  204 119 68  204 119 68  204 119 68  204 119 68  170 102 51  85 51 17  187 102 51  187 102 51  204 119 68  170 102 68  187 135 101  170 85 51  170 85 51  170 85 51  170 85 51  170 85 51  187 119 68  187 119 68  255 204 136  221 153 102  204 119 68  204 119 68  204 119 68  204 119 68  204 119 68  204 119 68  204 119 68  204 119 68  204 119 68  170 102 51  153 85 51  153 85 51  153 85 51  102 68 34  85 51 17  182 179 179
85 51 17  68 34 17  85 51 17  85 51 17  255 204 136  255 204 136  255 187 119  204 119 68  204 119 68  204 119 68  204 119 68  204 119 68  204 119 68  204 119 68  204 119 68  204 119 68  187 119 51  102 51 34  102 51 34  102 51 34  153 85 34  170 85 51  170 85 51  170 85 51  170 85 51  170 85 51  170 102 51  153 102 51  153 102 51  85 51 17  187 119 51  204 119 68  204 119 68  204 119 68  204 119 68  204 119 68  204 119 68  204 119 68  204 119 68  204 119 68  204 119 68  204 119 68  85 51 34  85 51 34  153 85 51  204 119 68  204 119 68  204 119 68  204 119 68  204 119 68  204 119 68  204 119 68  204 119 68  204 119 68  204 119 68  170 102 51  85 51 17  187 119 51  187 119 51  187 102 51  170 85 51  170 85 51  170 85 51  170 85 51  170 85 51  170 85 51  170 85 51  204 136 68  204 136 68  255 204 136  221 153 85  204 119 68  204 119 68  204 119 68  204 119 68  204 119 68  204 119 68  204 119 68  204 119 68  204 119 68  170 102 51  153 85 51  153 85 51  153 85 51  102 68 34  85 51 17  182 179 179
85 51 17  78 47 31  85 51 17  85 51 17  255 204 136  255 204 136  255 187 136  204 119 68  204 119 68  204 119 68  204 119 68  204 119 68  204 119 68  204 119 68  204 119 68  204 119 68  204 119 68  102 51 34  102 51 34  102 51 34  153 85 34  170 85 51  170 85 51  170 85 51  170 85 51  170 85 51  170 85 51  136 85 34  136 85 34  85 51 17  170 102 51  187 119 51  204 119 68  204 119 68  204 119 68  204 119 68  204 119 68  204 119 68  204 119 68  204 119 68  204 119 68  204 119 68  85 51 34  85 51 34  153 85 51  204 119 68  204 119 68  204 119 68  204 119 68  204 119 68  204 119 68  204 119 68  204 119 68  204 119 68  204 119 68  170 102 51  85 51 17  170 102 51  170 102 51  170 85 51  170 85 51  170 85 51  170 85 51  170 85 51  170 85 51  170 85 51  170 85 51  204 136 68  204 136 68  255 204 136  221 136 85  204 119 68  204 119 68  204 119 68  204 119 68  204 119 68  204 119 68  204 119 68  204 119 68  204 119 68  170 102 51  153 85 51  153 85 51  153 85 51  102 51 34  85 51 17  85 51 17
85 51 17  78 47 31  85 51 17  85 51 17  255 204 136  255 204 136  255 187 136  204 119 68  204 119 68  204 119 68  204 119 68  204 119 68  204 119 68  204 119 68  204 119 68  204 119 68  204 119 68  102 51 34  102 51 34  102 51 34  153 85 34  170 85 51  170 85 51  170 85 51  170 85 51  170 85 51  170 85 51  136 85 34  136 85 34  85 51 17  170 102 51  187 118 51  203 118 68  203 118 68  203 119 68  204 119 68  204 119 68  204 119 68  204 119 68  204 119 68  204 119 68  204 119 68  85 51 34  85 51 34  153 85 51  204 119 68  204 119 68  204 119 68  204 119 68  204 119 68  204 119 68  204 119 68  204 119 68  204 119 68  204 119 68  170 102 51  85 51 17  170 102 51  170 102 51  170 85 51  170 85 51  170 85 51  170 85 51  170 85 51  170 85 51  170 85 51  170 85 51  204 136 68  204 136 68  255 204 136  221 136 85  204 119 68  204 119 68  204 119 68  204 119 68  204 119 68  204 119 68  204 119 68  204 119 68  204 119 68  170 102 51  153 85 51  153 85 51  153 85 51  102 51 34  85 51 17  85 51 17
85 51 17  89 59 45  85 51 17  85 51 17  255 204 136  255 204 136  255 204 136  204 119 68  204 119 68  204 119 68  204 119 68  204 119 68  204 119 68  204 119 68  204 119 68  204 119 68  204 119 68  119 68 34  119 68 34  102 51 34  136 85 34  170 85 51  170 85 51  170 85 51  170 85 51  170 85 51  170 85 51  136 85 34  136 85 34  85 51 17  153 85 34  170 85 51  170 85 51  170 85 51  170 102 51  187 102 51  187 118 51  203 118 51  203 118 51  203 119 68  203 119 68  203 119 68  85 51 34  85 51 34  136 85 51  204 119 68  204 119 68  204 119 68  204 119 68  204 119 68  204 119 68  204 119 68  204 119 68  204 119 68  203 119 68  169 102 51  85 51 17  153 85 34  153 85 34  170 85 51  170 85 51  170 85 51  170 85 51  170 85 51  170 85 51  170 85 51  170 85 51  204 136 85  204 136 85  255 204 136  204 136 68  204 119 68  204 119 68  204 119 68  204 119 68  204 119 68  204 119 68  204 119 68  204 119 68  204 119 68  170 102 51  153 85 51  153 85 51  153 85 51  85 51 34  85 51 17  85 51 17
85 51 17  87 73 60  85 51 17  85 51 17  255 187 119  255 204 136  255 204 136  204 119 68  204 119 68  204 119 68  204 119 68  204 119 68  204 119 68  204 119 68  204 119 68  204 119 68  204 119 68  119 68 34  119 68 34  102 51 34  136 85 34  170 85 51  170 85 51  170 85 51  170 85 51  170 85 51  170 85 51  136 85 34  136 85 34  85 51 17  153 85 34  170 85 51  170 85 51  170 85 51  170 85 51  170 85 51  170 85 51  170 85 51  170 85 51  170 102 51  170 102 51  170 102 51  85 51 34  85 51 34  136 85 34  187 102 51  187 102 51  187 118 51  187 118 51  187 118 51  187 118 51  187 118 51  187 102 51  187 102 51  170 102 51  136 85 34  85 51 17  153 85 34  153 85 34  170 85 51  170 85 51  170 85 51  170 85 51  170 85 51  170 85 51  170 85 51  170 85 51  204 136 85  204 136 85  255 204 136  204 136 68  204 119 68  204 119 68  204 119 68  204 119 68  204 119 68  204 119 68  204 119 68  204 119 68  204 119 68  170 102 51  153 85 51  153 85 51  153 85 51  85 51 34  85 51 17  85 51 17
85 51 17  109 98 86  85 51 17  85 51 17  238 187 119  255 204 136  255 204 136  204 119 68  204 119 68  204 119 68  204 119 68  204 119 68  204 119 68  204 119 68  204 119 68  204 119 68  204 119 68  136 85 34  136 85 34  102 51 34  136 68 34  170 85 51  170 85 51  170 85 51  170 85 51  170 85 51  170 85 51  136 85 34  136 85 34  85 51 17  153 85 34  170 85 51  170 85 51  170 85 51  170 85 51  170 85 51  170 85 51  170 85 51  170 85 51  170 85 51  170 85 51  170 85 51  85 51 34  85 51 34  119 68 34  170 85 51  170 85 51  170 85 51  170 85 51  170 85 51  170 85 51  170 85 51  170 85 51  170 85 51  170 85 51  136 85 34  85 51 17  153 85 34  153 85 34  170 85 51  170 85 51  170 85 51  170 85 51  170 85 51  170 85 51  170 85 51  170 86 51  221 153 85  221 153 85  255 203 135  204 119 68  204 119 68  204 119 68  204 119 68  204 119 68  204 119 68  204 119 68  204 119 68  204 119 68  204 119 68  170 102 51  153 85 51  153 85 51  153 85 51  85 51 17  85 51 17  85 51 17
85 51 17  121 100 100  85 51 17  85 51 17  238 170 119  255 204 136  255 204 136  204 119 68  204 119 68  204 119 68  204 119 68  204 119 68  204 119 68  204 119 68  204 119 68  204 119 68  204 119 68  153 85 51  153 85 51  102 51 34  136 68 34  170 85 51  170 85 51  170 85 51  170 85 51  170 85 51  170 85 51  136 85 34  136 85 34  85 51 17  153 85 34  170 85 51  170 85 51  170 85 51  170 85 51  170 85 51  170 85 51  170 85 51  170 85 51  170 85 51  170 85 51  170 85 51  85 51 34  85 51 34  119 68 34  170 85 51  170 85 51  170 85 51  170 85 51  170 85 51  170 85 51  170 85 51  170 85 51  170 85 51  170 85 51  136 85 34  85 51 17  153 85 34  153 85 34  170 85 51  170 85 51  170 85 51  170 85 51  170 85 51  170 85 51  170 85 51  187 119 68  238 170 102  238 170 102  255 187 119  204 119 68  204 119 68  204 119 68  204 119 68  204 119 68  204 119 68  204 119 68  204 119 68  204 119 68  204 119 68  170 102 51  153 85 51  153 85 51  153 85 51  85 51 17  78 47 31  85 51 17
85 51 17  121 100 100  85 51 17  85 51 17  237 170 118  255 204 136  255 203 135  204 120 68  204 120 68  204 120 68  204 120 68  204 120 68  204 119 68  204 119 68  204 119 68  204 119 68  204 119 68  154 85 51  154 85 51  102 52 34  139 71 37  173 89 54  173 89 54  173 89 54  173 89 54  173 89 54  173 89 54  140 89 37  140 89 37  90 56 21  156 89 37  173 89 54  173 89 54  173 89 54  173 88 53  172 88 53  172 88 53  172 88 53  172 88 53  172 88 53  172 88 53  172 88 53  89 55 37  89 55 37  123 71 37  172 88 53  172 88 53  172 88 53  172 88 53  172 88 53  172 88 53  172 88 53  172 88 53  172 88 53  172 88 53  139 88 37  89 55 20  156 88 37  156 88 37  172 88 53  172 88 53  172 88 53  173 88 54  173 88 54  173 89 54  173 89 54  189 122 70  238 171 103  238 171 103  254 186 118  204 119 68  204 119 68  204 119 68  204 119 68  204 120 68  204 120 68  204 120 68  204 120 68  204 120 68  204 120 68  170 102 52  154 87 52  154 87 52  154 87 52  85 51 17  78 47 31  85 51 17
85 51 17  122 113 112  85 51 17  85 51 17  222 170 102  255 204 136  255 188 120  206 138 70  206 138 70  206 138 70  206 138 70  206 138 70  206 122 70  206 122 70  206 122 70  206 122 70  206 122 70  173 105 53  173 105 53  123 71 37  238 171 120  255 204 136  255 204 136  255 204 136  255 204 136  255 204 136  255 204 136  255 204 136  255 204 136  255 204 136  255 204 136  255 204 136  255 204 136  255 204 136  255 188 120  238 171 120  238 171 120  238 171 120  238 171 120  238 171 120  238 171 120  238 171 120  222 171 120  222 171 120  238 171 120  238 171 120  238 171 120  238 171 120  238 171 120  238 171 120  238 171 120  238 171 120  238 171 120  238 171 120  238 171 120  238 171 120  222 171 120  238 171 120  238 171 120  238 171 120  238 171 120  238 171 120  255 188 136  255 188 136  255 204 136  255 204 136  255 204 136  255 204 136  255 204 136  238 171 103  206 122 70  206 122 70  206 122 70  206 122 70  206 138 70  206 138 70  206 138 70  206 138 70  206 138 70  206 138 70  189 122 70  189 138 87  189 138 87  189 138 87  85 52 18  89 59 44  85 51 17
85 51 17  86 71 57  86 51 18  86 51 18  255 188 120  255 204 136  255 204 136  255 204 136  255 204 136  255 204 136  255 204 136  255 204 136  255 204 136  255 204 136  255 204 136  255 204 136  255 204 136  255 188 120  255 188 120  239 171 120  255 204 136  255 204 136  255 204 136  255 204 136  255 204 136  255 204 136  255 204 136  255 204 136  255 204 136  255 204 136  255 204 136  255 204 136  255 204 136  255 204 136  255 204 136  255 204 136  255 204 136  255 204 136  255 204 136  255 204 136  255 204 136  255 204 136  255 204 136  255 204 136  255 204 136  255 204 136  255 204 136  255 204 136  255 204 136  255 204 136  255 204 136  255 204 136  255 204 136  255 204 136  255 204 136  255 204 136  255 204 136  255 204 136  255 204 136  255 204 136  255 204 136  255 204 136  255 204 136  255 204 136  255 204 136  255 203 136  255 203 136  255 203 136  255 203 136  254 203 135  254 203 135  254 203 135  254 203 135  254 203 135  254 203 135  254 203 135  254 203 135  254 202 135  254 202 135  254 202 134  254 202 134  253 202 134  252 201 134  252 201 134  103 69 35  85 51 17  85 51 17
85 51 17  85 51 17  101 51 34  101 51 34  255 204 136  255 204 136  255 204 136  254 203 135  254 203 135  253 201 134  253 201 134  253 201 134  253 201 134  253 201 134  253 201 134  253 201 134  253 201 134  253 201 134  253 201 134  253 201 134  253 201 134  253 201 134  253 201 134  253 201 134  253 201 134  253 201 134  253 201 134  253 201 134  253 201 134  253 201 134  253 201 134  253 201 134  253 201 134  253 201 134  253 201 134  253 201 134  253 201 134  253 201 134  253 201 134  253 201 134  253 201 134  253 202 134  253 202 134  253 202 134  253 202 134  253 202 134  253 202 134  253 201 134  253 201 134  253 201 134  253 201 134  253 201 134  253 201 134  253 201 134  253 201 134  253 201 134  253 201 134  253 201 134  253 201 134  253 201 134  253 201 134  253 201 134  253 201 134  253 201 134  253 201 134  253 185 134  253 185 134  253 185 134  253 185 134  237 168 117  237 168 101  237 168 101  237 168 101  237 168 101  237 168 101  237 168 101  237 168 101  237 152 101  237 152 101  220 152 84  219 151 84  202 134 84  169 118 67  169 118 67  135 84 50  85 51 17  155 154 148
85 51 17  85 51 17  85 51 34  85 51 34  255 204 136  255 204 136  255 204 136  238 170 102  238 170 102  204 119 68  204 119 68  204 119 68  204 119 68  204 119 68  204 119 68  204 119 68  204 119 68  204 119 68  204 119 68  204 119 68  204 119 68  204 119 68  204 119 68  204 119 68  204 119 68  204 119 68  204 119 68  204 119 68  204 119 68  204 119 68  204 119 68  204 119 68  204 119 68  204 119 68  204 119 68  204 119 68  204 119 68  204 119 68  204 119 68  204 119 68  204 119 68  204 136 68  204 136 68  204 136 68  204 136 68  204 136 68  204 136 68  204 119 68  204 119 68  204 119 68  204 119 68  204 119 68  204 119 68  204 119 68  204 119 68  204 119 68  204 119 68  204 119 68  204 119 68  204 119 68  204 119 68  204 119 68  204 119 68  204 119 68  204 119 68  204 119 68  204 119 68  204 119 68  204 119 68  204 119 68  204 119 68  204 119 68  204 119 68  204 119 68  204 119 68  204 119 68  204 119 68  204 119 68  204 119 68  204 119 68  153 85 51  153 85 51  153 85 51  153 85 51  119 68 34  85 51 17  148 141 134
85 51 17  85 51 18  85 51 33  85 51 33  255 204 136  255 204 136  255 204 136  238 170 102  238 170 102  204 119 68  204 119 68  204 119 68  204 119 68  204 119 68  204 119 68  204 119 68  204 119 68  204 119 68  204 119 68  204 119 68  204 119 68  204 119 68  204 119 68  204 119 68  204 119 68  204 119 68  204 119 68  204 119 68  204 119 68  204 119 68  204 119 68  204 119 68  204 119 68  204 119 68  204 119 68  204 119 68  204 119 68  204 119 68  204 119 68  204 119 68  204 119 68  204 135 68  204 135 68  204 135 68  204 135 68  204 135 68  204 135 68  204 119 68  204 119 68  204 119 68  204 119 68  204 119 68  204 119 68  204 119 68  204 119 68  204 119 68  204 119 68  204 119 68  204 119 68  204 119 68  204 119 68  204 119 68  204 119 68  204 119 68  204 119 68  204 119 68  204 119 68  204 119 68  204 119 68  204 119 68  204 119 68  204 119 68  204 119 68  204 119 68  204 119 68  204 119 68  204 119 68  204 119 68  204 119 68  204 119 68  153 85 51  153 85 51  153 85 51  153 85 51  119 68 34  85 51 17  148 141 134
85 51 17  78 48 32  85 51 17  85 51 17  255 203 135  255 204 136  255 204 136  238 170 102  238 170 102  204 119 68  204 119 68  204 119 68  204 119 68  204 119 68  204 119 68  204 119 68  204 119 68  204 119 68  204 119 68  204 119 68  204 119 68  204 119 68  204 119 68  204 119 68  204 119 68  204 119 68  204 119 68  204 119 68  204 119 68  204 119 68  204 119 68  204 119 68  204 119 68  204 119 68  204 119 68  204 119 68  204 119 68  204 119 68  204 119 68  204 119 68  204 119 68  204 119 68  204 119 68  204 119 68  204 119 68  204 119 68  204 119 68  204 119 68  204 119 68  204 119 68  204 119 68  204 119 68  204 119 68  204 119 68  204 119 68  204 119 68  204 119 68  204 119 68  204 119 68  204 119 68  204 119 68  204 119 68  204 119 68  204 119 68  204 119 68  204 119 68  204 119 68  204 119 68  204 119 68  204 119 68  204 119 68  204 119 68  204 119 68  204 119 68  204 119 68  204 119 68  204 119 68  204 119 68  204 119 68  203 119 67  153 85 51  153 85 51  153 85 51  153 85 51  118 68 34  85 51 17  156 156 150
85 51 17  87 73 60  85 51 17  85 51 17  254 187 119  255 204 136  255 204 136  238 170 102  238 170 102  204 119 68  204 119 68  204 119 68  204 119 68  204 119 68  204 119 68  204 119 68  204 119 68  204 119 68  204 119 68  204 119 68  204 119 68  204 119 68  204 119 68  204 119 68  204 119 68  204 119 68  204 119 68  204 119 68  204 119 68  204 119 68  204 119 68  204 119 68  204 119 68  204 119 68  204 119 68  204 119 68  204 119 68  204 119 68  204 119 68  204 119 68  204 119 68  204 119 68  204 119 68  204 119 68  204 119 68  204 119 68  204 119 68  204 119 68  204 119 68  204 119 68  204 119 68  204 119 68  204 119 68  204 119 68  204 119 68  204 119 68  204 119 68  204 119 68  204 119 68  204 119 68  204 119 68  204 119 68  204 119 68  204 119 68  204 119 68  204 119 68  204 119 68  204 119 68  204 119 68  204 119 68  204 119 68  204 119 68  204 119 68  204 119 68  204 119 68  204 119 68  204 119 68  204 119 68  204 119 68  187 119 51  153 85 51  153 85 51  153 85 51  153 85 51  101 67 34  85 51 17  183 180 180
85 51 17  110 87 87  85 51 17  85 51 17  237 186 118  255 204 136  255 204 136  238 169 102  238 169 102  204 119 68  204 119 68  204 119 68  204 119 68  204 119 68  204 119 68  204 119 68  204 119 68  204 119 68  204 119 68  204 119 68  204 119 68  204 119 68  204 119 68  204 119 68  204 119 68  204 119 68  204 119 68  204 119 68  204 119 68  204 119 68  204 119 68  204 119 68  204 119 68  204 119 68  204 119 68  204 119 68  204 119 68  204 119 68  204 119 68  204 119 68  204 119 68  204 119 68  204 119 68  204 119 68  204 119 68  204 119 68  204 119 68  204 119 68  204 119 68  204 119 68  204 119 68  204 119 68  204 119 68  204 119 68  204 119 68  204 119 68  204 119 68  204 119 68  204 119 68  204 119 68  204 119 68  204 119 68  204 119 68  204 119 68  204 119 68  204 119 68  204 119 68  204 119 68  204 119 68  204 119 68  204 119 68  204 119 68  204 119 68  204 119 68  204 119 68  204 119 68  204 119 68  204 119 68  204 119 68  186 118 51  153 85 51  153 85 51  153 85 51  153 85 51  85 51 33  85 51 17  85 51 17
85 51 17  123 114 105  85 51 17  85 51 17  221 170 102  255 204 136  255 204 136  238 153 102  238 153 102  204 119 68  204 119 68  204 119 68  204 119 68  204 119 68  204 119 68  204 119 68  204 119 68  204 119 68  204 119 68  204 119 68  204 119 68  204 119 68  204 119 68  204 119 68  204 119 68  204 119 68  204 119 68  204 119 68  204 119 68  204 119 68  204 119 68  204 119 68  204 119 68  204 119 68  204 119 68  204 119 68  204 119 68  204 119 68  204 119 68  204 119 68  204 119 68  204 119 68  204 119 68  204 119 68  204 119 68  204 119 68  204 119 68  204 119 68  204 119 68  204 119 68  204 119 68  204 119 68  204 119 68  204 119 68  204 119 68  204 119 68  204 119 68  204 119 68  204 119 68  204 119 68  204 119 68  204 119 68  204 119 68  204 119 68  204 119 68  204 119 68  204 119 68  204 119 68  204 119 68  204 119 68  204 119 68  204 119 68  204 119 68  204 119 68  204 119 68  204 119 68  204 119 68  204 119 68  204 119 68  170 102 51  153 85 51  153 85 51  153 85 51  153 85 51  85 51 17  85 51 17  85 51 17
85 51 17  125 116 107  85 51 17  85 51 17  219 168 101  255 204 136  255 204 136  237 153 101  237 153 101  204 119 68  204 119 68  204 119 68  204 119 68  204 119 68  204 119 68  204 119 68  204 119 68  204 119 68  204 119 68  204 119 68  204 119 68  204 119 68  204 119 68  204 119 68  204 119 68  204 119 68  204 119 68  204 119 68  204 119 68  204 119 68  204 119 68  204 119 68  204 119 68  204 119 68  204 119 68  204 119 68  204 119 68  204 119 68  204 119 68  204 119 68  204 119 68  204 119 68  204 119 68  204 119 68  204 119 68  204 119 68  204 119 68  204 119 68  204 119 68  204 119 68  204 119 68  204 119 68  204 119 68  204 119 68  204 119 68  204 119 68  204 119 68  204 119 68  204 119 68  204 119 68  204 119 68  204 119 68  204 119 68  204 119 68  204 119 68  204 119 68  204 119 68  204 119 68  204 119 68  204 119 68  204 119 68  204 119 68  204 119 68  204 119 68  204 119 68  204 119 68  204 119 68  204 119 68  204 119 68  170 102 51  153 85 51  153 85 51  152 85 51  152 85 51  85 51 17  85 51 18  85 51 17
85 51 17  157 157 151  85 51 17  85 51 17  184 133 83  255 204 136  255 204 136  221 153 85  221 153 85  204 119 68  204 119 68  204 119 68  204 119 68  204 119 68  204 119 68  204 119 68  204 119 68  204 119 68  204 119 68  204 119 68  204 119 68  204 119 68  204 119 68  204 119 68  204 119 68  204 119 68  204 119 68  204 119 68  204 119 68  204 119 68  204 119 68  204 119 68  204 119 68  204 119 68  204 119 68  204 119 68  204 119 68  204 119 68  204 119 68  204 119 68  204 119 68  204 119 68  204 119 68  204 119 68  204 119 68  204 119 68  204 119 68  204 119 68  204 119 68  204 119 68  204 119 68  204 119 68  204 119 68  204 119 68  204 119 68  204 119 68  204 119 68  204 119 68  204 119 68  204 119 68  204 119 68  204 119 68  204 119 68  204 119 68  204 119 68  204 119 68  204 119 68  204 119 68  204 119 68  204 119 68  204 119 68  204 119 68  204 119 68  204 119 68  204 119 68  204 119 68  204 119 68  204 119 68  204 119 68  170 102 51  153 85 51  153 85 51  136 85 51  136 85 51  85 51 17  89 60 46  85 51 17
85 51 17  85 51 17  85 51 17  85 51 17  133 83 50  255 204 136  255 204 136  220 152 84  220 152 84  204 119 68  204 119 68  204 119 68  204 119 68  204 119 68  204 119 68  204 119 68  204 119 68  204 119 68  204 119 68  204 119 68  204 119 68  204 119 68  204 119 68  204 119 68  204 119 68  204 119 68  204 119 68  204 119 68  204 119 68  204 119 68  204 119 68  204 119 68  204 119 68  204 119 68  204 119 68  204 119 68  204 119 68  204 119 68  204 119 68  204 119 68  204 119 68  204 119 68  204 119 68  204 119 68  204 119 68  204 119 68  204 119 68  204 119 68  204 119 68  204 119 68  204 119 68  204 119 68  204 119 68  204 119 68  204 119 68  204 119 68  204 119 68  204 119 68  204 119 68  204 119 68  204 119 68  204 119 68  204 119 68  204 119 68  204 119 68  204 119 68  204 119 68  204 119 68  204 119 68  204 119 68  204 119 68  204 119 68  204 119 68  204 119 68  204 119 68  204 119 68  204 119 68  203 119 67  203 119 67  169 102 51  153 85 51  153 85 51  136 85 50  136 85 50  85 51 17  98 87 74  85 51 17
85 51 17  85 51 17  86 52 19  86 52 19  85 51 33  255 203 136  255 204 136  204 135 68  204 135 68  204 119 68  204 119 68  204 119 68  204 119 68  204 119 68  204 119 68  204 119 68  204 119 68  204 119 68  204 119 68  204 119 68  204 119 68  204 119 68  204 119 68  204 119 68  204 119 68  204 119 68  204 119 68  204 119 68  204 119 68  204 119 68  204 119 68  204 119 68  204 119 68  204 119 68  204 119 68  204 119 68  204 119 68  204 119 68  204 119 68  204 119 68  204 119 68  204 119 68  204 119 68  204 119 68  204 119 68  204 119 68  204 119 68  204 119 68  204 119 68  204 119 68  204 119 68  204 119 68  204 119 68  204 119 68  204 119 68  204 119 68  204 119 68  204 119 68  204 119 68  203 119 67  203 119 67  203 119 67  203 119 67  203 119 67  202 118 67  202 118 67  202 118 67  202 118 67  202 118 67  202 118 67  201 118 67  201 118 67  201 118 67  201 118 67  201 117 67  201 117 67  201 117 67  185 117 51  185 117 51  153 101 51  153 85 51  153 85 51  135 84 34  135 84 34  85 51 17  124 115 115  85 51 17
85 51 17  85 51 17  99 72 59  99 72 59  85 51 17  255 187 136  255 204 136  204 119 68  204 119 68  204 119 68  204 119 68  204 119 68  204 119 68  204 119 68  204 119 68  204 119 68  204 119 68  204 119 68  204 119 68  204 119 68  204 119 68  204 119 68  204 119 68  204 119 68  204 119 68  204 119 68  204 119 68  204 119 68  204 119 68  204 119 68  204 119 68  204 119 68  204 119 68  204 119 68  204 119 68  204 119 68  204 119 68  204 119 68  204 119 68  204 119 68  204 119 68  204 119 68  204 119 68  204 119 68  204 119 68  204 119 68  204 119 68  204 119 68  204 119 68  204 119 68  204 119 68  204 119 68  204 119 68  204 119 68  204 119 68  204 119 68  204 119 68  204 119 68  204 119 68  187 119 51  187 119 51  187 119 51  187 119 51  187 119 51  170 102 51  170 102 51  170 102 51  170 102 51  170 102 51  170 102 51  153 102 51  153 102 51  153 102 51  153 102 51  153 85 51  153 85 51  153 85 51  153 85 51  153 85 51  153 85 51  153 85 51  153 85 51  119 68 34  119 68 34  85 51 17  141 141 134  85 51 17
85 51 17  85 51 17  100 74 61  100 74 61  85 51 17  249 182 132  251 199 132  203 118 67  203 118 67  203 119 67  204 119 68  204 119 68  204 119 68  204 119 68  204 119 68  204 119 68  204 119 68  204 119 68  204 119 68  204 119 68  204 119 68  204 119 68  204 119 68  204 119 68  204 119 68  204 119 68  204 119 68  204 119 68  204 119 68  204 119 68  204 119 68  204 119 68  204 119 68  204 119 68  204 119 68  204 119 68  204 119 68  204 119 68  204 119 68  204 119 68  204 119 67  203 119 67  203 119 67  203 119 67  203 119 67  202 118 67  202 118 67  202 118 67  202 118 67  202 118 67  202 118 67  202 118 67  201 118 67  201 118 67  201 118 67  201 117 67  201 117 67  201 117 67  201 117 67  185 117 51  185 117 51  185 117 51  185 117 51  185 117 51  169 101 51  169 101 51  169 101 51  169 101 51  169 101 51  169 101 51  153 101 51  153 101 51  153 101 51  153 101 51  153 85 51  153 85 51  153 85 51  153 85 51  153 85 51  153 85 51  153 85 51  153 85 51  118 67 34  118 67 34  85 51 17  144 144 137  85 51 17
85 51 17  85 51 17  117 107 107  117 107 107  85 51 19  149 99 65  181 115 65  181 99 49  181 99 49  181 115 49  197 115 65  197 115 65  199 116 66  199 116 66  199 116 66  201 118 67  201 118 67  202 118 67  202 118 67  203 118 67  202 118 67  203 119 67  203 119 67  203 119 67  203 119 67  202 118 67  202 118 67  202 118 67  202 118 67  202 118 67  202 118 67  202 118 67  201 118 67  201 118 67  201 118 67  201 118 67  201 117 67  201 117 67  201 117 67  201 117 67  201 117 51  185 117 51  185 117 51  185 117 51  185 117 51  169 101 51  169 101 51  169 101 51  169 101 51  169 101 51  169 101 51  169 101 51  153 101 51  153 101 51  153 101 51  153 85 51  153 85 51  153 85 51  153 85 51  153 85 51  153 85 51  153 85 51  153 85 51  153 85 51  153 85 51  153 85 51  152 85 51  152 85 51  152 85 51  152 85 51  152 85 51  152 85 50  152 85 50  152 85 50  152 85 50  152 85 50  152 85 50  151 84 50  151 84 50  151 84 50  151 84 50  151 84 50  101 51 33  101 51 33  85 51 17  85 51 17  85 51 17
85 51 17  85 51 17  85 51 17  85 51 17  97 69 56  90 58 26  88 56 23  87 54 22  87 54 22  86 52 20  85 51 18  85 51 17  117 67 33  117 67 33  117 67 33  149 99 49  149 99 49  165 99 49  165 99 49  181 99 49  165 99 49  181 115 49  181 115 49  181 115 49  181 115 49  165 99 49  165 99 49  165 99 49  165 99 49  165 99 49  165 99 49  165 99 49  149 99 49  149 99 49  149 99 49  149 99 49  149 83 49  150 83 50  150 83 50  150 84 50  150 84 50  150 84 50  150 84 50  150 84 50  150 84 50  150 84 50  150 84 50  150 84 50  150 84 50  150 84 50  150 84 50  150 83 50  149 83 49  149 83 49  149 83 49  149 83 49  149 83 49  149 83 49  149 83 49  149 83 49  149 83 49  149 83 49  149 83 49  149 83 49  149 83 49  149 83 49  133 83 49  133 83 49  133 83 49  133 83 49  133 83 49  133 83 33  133 83 33  133 83 33  133 83 33  133 83 33  133 83 33  117 67 33  117 67 33  117 67 33  117 67 33  117 67 33  85 51 17  85 51 17  87 54 22  85 51 17  85 51 17
85 51 17  85 51 17  85 51 17  85 51 17  85 51 17  172 168 168  140 133 126  127 108 108  127 108 108  107 81 69  87 58 43  94 62 30  91 59 27  91 59 27  91 59 27  89 57 24  89 57 24  88 56 23  88 56 23  87 54 22  87 54 22  85 52 20  86 52 20  86 52 20  86 52 20  86 52 20  86 52 20  85 51 17  85 51 17  85 51 17  85 51 17  85 51 17  85 51 17  85 51 17  85 51 17  85 51 17  85 51 17  101 51 33  101 51 33  101 67 33  101 67 33  101 67 33  101 67 33  101 67 33  101 67 33  101 67 33  101 67 33  101 67 33  101 67 33  101 67 33  101 67 33  101 51 33  85 51 17  85 51 17  85 51 17  85 51 17  85 51 17  85 51 17  85 51 17  85 51 17  85 51 17  85 51 17  85 51 17  85 51 17  85 51 17  85 51 18  86 52 20  86 52 20  86 52 20  86 52 20  86 52 20  86 54 21  87 54 22  87 54 22  87 54 22  87 54 22  87 54 22  88 56 23  88 56 23  89 57 24  89 57 24  89 57 24  92 60 28  92 60 28  127 108 108  85 51 17  85 51 17
85 51 17  85 51 17  85 51 17  85 51 17  85 51 17  85 51 17  85 51 17  85 51 17  85 51 17  85 51 17  85 51 17  85 51 17  179 179 179  179 179 179  182 179 179  148 141 134  148 141 134  135 127 119  135 127 119  121 100 100  121 100 100  86 72 59  99 72 59  99 72 59  99 72 59  99 72 59  99 72 59  85 51 17  85 51 17  85 51 17  85 51 17  85 51 17  85 51 17  85 51 17  85 51 17  85 51 17  85 51 17  85 51 17  85 51 17  85 51 17  85 51 17  85 51 17  85 51 17  85 51 17  85 51 17  85 51 17  85 51 17  85 51 17  85 51 17  85 51 17  85 51 17  85 51 17  85 51 17  85 51 17  85 51 17  85 51 17  85 51 17  85 51 17  85 51 17  85 51 17  85 51 17  85 51 17  85 51 17  85 51 17  85 51 17  78 47 31  99 72 59  99 72 59  99 72 59  99 72 59  99 72 59  109 98 86  121 100 100  121 100 100  121 100 100  121 100 100  121 100 100  135 127 119  135 127 119  148 141 134  148 141 134  148 141 134  194 194 194  85 51 17  85 51 17  85 51 17  85 51 17
85 51 17  85 51 17  85 51 17  85 51 17  85 51 17  85 51 17  85 51 17  85 51 17  85 51 17  85 51 17  85 51 17  85 51 17  182 182 182  182 182 182  185 182 182  153 146 140  153 146 140  141 133 126  141 133 126  128 108 108  128 108 108  95 82 70  107 82 70  107 82 70  107 82 70  107 82 70  107 82 70  94 62 31  94 62 31  94 62 31  94 62 31  94 62 31  94 62 31  94 62 31  94 62 31  94 62 31  94 62 31  92 60 29  92 60 29  91 59 28  91 59 28  91 59 28  91 59 28  91 59 28  91 59 28  91 59 28  91 59 28  91 59 28  91 59 28  91 59 28  91 59 28  92 60 29  94 62 31  94 62 31  94 62 31  94 62 31  94 62 31  94 62 31  94 62 31  94 62 31  94 62 31  94 62 31  94 62 31  94 62 31  94 62 31  88 59 44  107 82 70  107 82 70  107 82 70  107 82 70  107 82 70  117 106 95  128 108 108  128 108 108  128 108 108  128 108 108  128 108 108  141 133 126  141 133 126  153 146 140  153 146 140  153 146 140  85 51 17  85 51 17  85 51 17  85 51 17  85 51 17
85 51 17  85 51 17  85 51 17  85 51 17  85 51 17  85 51 17  85 51 17  85 51 17  85 51 17  85 51 17  85 51 17  85 51 17  85 51 17  85 51 17  85 51 17  85 51 17  85 51 17  85 51 17  85 51 17  85 51 17  85 51 17  85 51 17  85 51 17  85 51 17  85 51 17  85 51 17  85 51 17  85 51 17  85 51 17  85 51 17  85 51 17  85 51 17  85 51 17  85 51 17  85 51 17  85 51 17  85 51 17  85 51 17  85 51 17  185 182 182  185 182 182  185 182 182  185 182 182  185 182 182  185 182 182  185 182 182  185 182 182  185 182 182  185 182 182  185 182 182  185 182 182  85 51 17  85 51 17  85 51 17  85 51 17  85 51 17  85 51 17  85 51 17  85 51 17  85 51 17  85 51 17  85 51 17  85 51 17  85 51 17  85 51 17  85 51 17  85 51 17  85 51 17  85 51 17  85 51 17  85 51 17  85 51 17  85 51 17  85 51 17  85 51 17  85 51 17  85 51 17  85 51 17  85 51 17  85 51 17  85 51 17  85 51 17  85 51 17  85 51 17  85 51 17  85 51 17  85 51 17
